correction_luts/black_crush_50.cube
# Crushes milky/lifted blacks to true black
# Only affects shadows below 25% luminance
# Apply AFTER LogC to Rec.709 conversion
# Compatible with DaVinci Resolve and Adobe Premiere Pro
# Strength: 0.5
TITLE "Black Crush - Shadow Floor"
LUT_3D_SIZE 33
0.000000 0.000000 0.000000
0.001381 0.000000 0.000000
0.004645 0.000000 0.000000
0.009444 0.000000 0.000000
0.015625 0.000000 0.000000
0.023089 0.000000 0.000000
0.031767 0.000000 0.000000
0.041604 0.000000 0.000000
0.053410 0.000000 0.000000
0.079217 0.000000 0.000000
0.122259 0.000000 0.000000
0.180112 0.000000 0.000000
0.248657 0.000000 0.000000
0.322303 0.000000 0.000000
0.394183 0.000000 0.000000
0.456358 0.000000 0.000000
0.500000 0.000000 0.000000
0.531250 0.000000 0.000000
0.562500 0.000000 0.000000
0.593750 0.000000 0.000000
0.625000 0.000000 0.000000
0.656250 0.000000 0.000000
0.687500 0.000000 0.000000
0.718750 0.000000 0.000000
0.750000 0.000000 0.000000
0.781250 0.000000 0.000000
0.812500 0.000000 0.000000
0.843750 0.000000 0.000000
0.875000 0.000000 0.000000
0.906250 0.000000 0.000000
0.937500 0.000000 0.000000
0.968750 0.000000 0.000000
1.000000 0.000000 0.000000
0.000000 0.001381 0.000000
0.001381 0.001381 0.000000
0.004645 0.002323 0.000000
0.009444 0.003148 0.000000
0.015625 0.003906 0.000000
0.023089 0.004618 0.000000
0.031767 0.005295 0.000000
0.041604 0.005943 0.000000
0.053410 0.006676 0.000000
0.079217 0.008802 0.000000
0.122259 0.012226 0.000000
0.180112 0.016374 0.000000
0.248657 0.020721 0.000000
0.322303 0.024793 0.000000
0.394183 0.028156 0.000000
0.456358 0.030424 0.000000
0.500000 0.031250 0.000000
0.531250 0.031250 0.000000
0.562500 0.031250 0.000000
0.593750 0.031250 0.000000
0.625000 0.031250 0.000000
0.656250 0.031250 0.000000
0.687500 0.031250 0.000000
0.718750 0.031250 0.000000
0.750000 0.031250 0.000000
0.781250 0.031250 0.000000
0.812500 0.031250 0.000000
0.843750 0.031250 0.000000
0.875000 0.031250 0.000000
0.906250 0.031250 0.000000
0.937500 0.031250 0.000000
0.968750 0.031250 0.000000
1.000000 0.031250 0.000000
0.000000 0.004645 0.000000
0.002323 0.004645 0.000000
0.004645 0.004645 0.000000
0.009444 0.006296 0.000000
0.015625 0.007812 0.000000
0.023089 0.009236 0.000000
0.031767 0.010589 0.000000
0.041604 0.011887 0.000000
0.053410 0.013352 0.000000
0.079217 0.017604 0.000000
0.122259 0.024452 0.000000
0.180112 0.032748 0.000000
0.248657 0.041443 0.000000
0.322303 0.049585 0.000000
0.394183 0.056312 0.000000
0.456358 0.060848 0.000000
0.500000 0.062500 0.000000
0.531250 0.062500 0.000000
0.562500 0.062500 0.000000
0.593750 0.062500 0.000000
0.625000 0.062500 0.000000
0.656250 0.062500 0.000000
0.687500 0.062500 0.000000
0.718750 0.062500 0.000000
0.750000 0.062500 0.000000
0.781250 0.062500 0.000000
0.812500 0.062500 0.000000
0.843750 0.062500 0.000000
0.875000 0.062500 0.000000
0.906250 0.062500 0.000000
0.937500 0.062500 0.000000
0.968750 0.062500 0.000000
1.000000 0.062500 0.000000
0.000000 0.009444 0.000000
0.003148 0.009444 0.000000
0.006296 0.009444 0.000000
0.009444 0.009444 0.000000
0.015625 0.011719 0.000000
0.023089 0.013854 0.000000
0.031767 0.015884 0.000000
0.041604 0.017830 0.000000
0.053410 0.020029 0.000000
0.079217 0.026406 0.000000
0.122259 0.036678 0.000000
0.180112 0.049121 0.000000
0.248657 0.062164 0.000000
0.322303 0.074378 0.000000
0.394183 0.084468 0.000000
0.456358 0.091272 0.000000
0.500000 0.093750 0.000000
0.531250 0.093750 0.000000
0.562500 0.093750 0.000000
0.593750 0.093750 0.000000
0.625000 0.093750 0.000000
0.656250 0.093750 0.000000
0.687500 0.093750 0.000000
0.718750 0.093750 0.000000
0.750000 0.093750 0.000000
0.781250 0.093750 0.000000
0.812500 0.093750 0.000000
0.843750 0.093750 0.000000
0.875000 0.093750 0.000000
0.906250 0.093750 0.000000
0.937500 0.093750 0.000000
0.968750 0.093750 0.000000
1.000000 0.093750 0.000000
0.000000 0.015625 0.000000
0.003906 0.015625 0.000000
0.007812 0.015625 0.000000
0.011719 0.015625 0.000000
0.015625 0.015625 0.000000
0.023089 0.018472 0.000000
0.031767 0.021178 0.000000
0.041604 0.023774 0.000000
0.053410 0.026705 0.000000
0.079217 0.035207 0.000000
0.122259 0.048904 0.000000
0.180112 0.065495 0.000000
0.248657 0.082886 0.000000
0.322303 0.099170 0.000000
0.394183 0.112624 0.000000
0.456358 0.121695 0.000000
0.500000 0.125000 0.000000
0.531250 0.125000 0.000000
0.562500 0.125000 0.000000
0.593750 0.125000 0.000000
0.625000 0.125000 0.000000
0.656250 0.125000 0.000000
0.687500 0.125000 0.000000
0.718750 0.125000 0.000000
0.750000 0.125000 0.000000
0.781250 0.125000 0.000000
0.812500 0.125000 0.000000
0.843750 0.125000 0.000000
0.875000 0.125000 0.000000
0.906250 0.125000 0.000000
0.937500 0.125000 0.000000
0.968750 0.125000 0.000000
1.000000 0.125000 0.000000
0.000000 0.023089 0.000000
0.004618 0.023089 0.000000
0.009236 0.023089 0.000000
0.013854 0.023089 0.000000
0.018472 0.023089 0.000000
0.023089 0.023089 0.000000
0.031767 0.026473 0.000000
0.041604 0.029717 0.000000
0.053410 0.033381 0.000000
0.079217 0.044009 0.000000
0.122259 0.061130 0.000000
0.180112 0.081869 0.000000
0.248657 0.103607 0.000000
0.322303 0.123963 0.000000
0.394183 0.140780 0.000000
0.456358 0.152119 0.000000
0.500000 0.156250 0.000000
0.531250 0.156250 0.000000
0.562500 0.156250 0.000000
0.593750 0.156250 0.000000
0.625000 0.156250 0.000000
0.656250 0.156250 0.000000
0.687500 0.156250 0.000000
0.718750 0.156250 0.000000
0.750000 0.156250 0.000000
0.781250 0.156250 0.000000
0.812500 0.156250 0.000000
0.843750 0.156250 0.000000
0.875000 0.156250 0.000000
0.906250 0.156250 0.000000
0.937500 0.156250 0.000000
0.968750 0.156250 0.000000
1.000000 0.156250 0.000000
0.000000 0.031767 0.000000
0.005295 0.031767 0.000000
0.010589 0.031767 0.000000
0.015884 0.031767 0.000000
0.021178 0.031767 0.000000
0.026473 0.031767 0.000000
0.031767 0.031767 0.000000
0.041604 0.035661 0.000000
0.053410 0.040057 0.000000
0.079217 0.052811 0.000000
0.122259 0.073355 0.000000
0.180112 0.098243 0.000000
0.248657 0.124329 0.000000
0.322303 0.148755 0.000000
0.394183 0.168936 0.000000
0.456358 0.182543 0.000000
0.500000 0.187500 0.000000
0.531250 0.187500 0.000000
0.562500 0.187500 0.000000
0.593750 0.187500 0.000000
0.625000 0.187500 0.000000
0.656250 0.187500 0.000000
0.687500 0.187500 0.000000
0.718750 0.187500 0.000000
0.750000 0.187500 0.000000
0.781250 0.187500 0.000000
0.812500 0.187500 0.000000
0.843750 0.187500 0.000000
0.875000 0.187500 0.000000
0.906250 0.187500 0.000000
0.937500 0.187500 0.000000
0.968750 0.187500 0.000000
1.000000 0.187500 0.000000
0.000000 0.041604 0.000000
0.005943 0.041604 0.000000
0.011887 0.041604 0.000000
0.017830 0.041604 0.000000
0.023774 0.041604 0.000000
0.029717 0.041604 0.000000
0.035661 0.041604 0.000000
0.041604 0.041604 0.000000
0.053410 0.046734 0.000000
0.079217 0.061613 0.000000
0.122259 0.085581 0.000000
0.180112 0.114616 0.000000
0.248657 0.145050 0.000000
0.322303 0.173548 0.000000
0.394183 0.197092 0.000000
0.456358 0.212967 0.000000
0.500000 0.218750 0.000000
0.531250 0.218750 0.000000
0.562500 0.218750 0.000000
0.593750 0.218750 0.000000
0.625000 0.218750 0.000000
0.656250 0.218750 0.000000
0.687500 0.218750 0.000000
0.718750 0.218750 0.000000
0.750000 0.218750 0.000000
0.781250 0.218750 0.000000
0.812500 0.218750 0.000000
0.843750 0.218750 0.000000
0.875000 0.218750 0.000000
0.906250 0.218750 0.000000
0.937500 0.218750 0.000000
0.968750 0.218750 0.000000
1.000000 0.218750 0.000000
0.000000 0.053410 0.000000
0.006676 0.053410 0.000000
0.013352 0.053410 0.000000
0.020029 0.053410 0.000000
0.026705 0.053410 0.000000
0.033381 0.053410 0.000000
0.040057 0.053410 0.000000
0.046734 0.053410 0.000000
0.053410 0.053410 0.000000
0.079217 0.070415 0.000000
0.122259 0.097807 0.000000
0.180112 0.130990 0.000000
0.248657 0.165771 0.000000
0.322303 0.198340 0.000000
0.394183 0.225247 0.000000
0.456358 0.243391 0.000000
0.500000 0.250000 0.000000
0.531250 0.250000 0.000000
0.562500 0.250000 0.000000
0.593750 0.250000 0.000000
0.625000 0.250000 0.000000
0.656250 0.250000 0.000000
0.687500 0.250000 0.000000
0.718750 0.250000 0.000000
0.750000 0.250000 0.000000
0.781250 0.250000 0.000000
0.812500 0.250000 0.000000
0.843750 0.250000 0.000000
0.875000 0.250000 0.000000
0.906250 0.250000 0.000000
0.937500 0.250000 0.000000
0.968750 0.250000 0.000000
1.000000 0.250000 0.000000
0.000000 0.079217 0.000000
0.008802 0.079217 0.000000
0.017604 0.079217 0.000000
0.026406 0.079217 0.000000
0.035207 0.079217 0.000000
0.044009 0.079217 0.000000
0.052811 0.079217 0.000000
0.061613 0.079217 0.000000
0.070415 0.079217 0.000000
0.079217 0.079217 0.000000
0.122259 0.110033 0.000000
0.180112 0.147364 0.000000
0.248657 0.186493 0.000000
0.322303 0.223133 0.000000
0.394183 0.253403 0.000000
0.456358 0.273815 0.000000
0.500000 0.281250 0.000000
0.531250 0.281250 0.000000
0.562500 0.281250 0.000000
0.593750 0.281250 0.000000
0.625000 0.281250 0.000000
0.656250 0.281250 0.000000
0.687500 0.281250 0.000000
0.718750 0.281250 0.000000
0.750000 0.281250 0.000000
0.781250 0.281250 0.000000
0.812500 0.281250 0.000000
0.843750 0.281250 0.000000
0.875000 0.281250 0.000000
0.906250 0.281250 0.000000
0.937500 0.281250 0.000000
0.968750 0.281250 0.000000
1.000000 0.281250 0.000000
0.000000 0.122259 0.000000
0.012226 0.122259 0.000000
0.024452 0.122259 0.000000
0.036678 0.122259 0.000000
0.048904 0.122259 0.000000
0.061130 0.122259 0.000000
0.073355 0.122259 0.000000
0.085581 0.122259 0.000000
0.097807 0.122259 0.000000
0.110033 0.122259 0.000000
0.122259 0.122259 0.000000
0.180112 0.163738 0.000000
0.248657 0.207214 0.000000
0.322303 0.247925 0.000000
0.394183 0.281559 0.000000
0.456358 0.304238 0.000000
0.500000 0.312500 0.000000
0.531250 0.312500 0.000000
0.562500 0.312500 0.000000
0.593750 0.312500 0.000000
0.625000 0.312500 0.000000
0.656250 0.312500 0.000000
0.687500 0.312500 0.000000
0.718750 0.312500 0.000000
0.750000 0.312500 0.000000
0.781250 0.312500 0.000000
0.812500 0.312500 0.000000
0.843750 0.312500 0.000000
0.875000 0.312500 0.000000
0.906250 0.312500 0.000000
0.937500 0.312500 0.000000
0.968750 0.312500 0.000000
1.000000 0.312500 0.000000
0.000000 0.180112 0.000000
0.016374 0.180112 0.000000
0.032748 0.180112 0.000000
0.049121 0.180112 0.000000
0.065495 0.180112 0.000000
0.081869 0.180112 0.000000
0.098243 0.180112 0.000000
0.114616 0.180112 0.000000
0.130990 0.180112 0.000000
0.147364 0.180112 0.000000
0.163738 0.180112 0.000000
0.180112 0.180112 0.000000
0.248657 0.227936 0.000000
0.322303 0.272718 0.000000
0.394183 0.309715 0.000000
0.456358 0.334662 0.000000
0.500000 0.343750 0.000000
0.531250 0.343750 0.000000
0.562500 0.343750 0.000000
0.593750 0.343750 0.000000
0.625000 0.343750 0.000000
0.656250 0.343750 0.000000
0.687500 0.343750 0.000000
0.718750 0.343750 0.000000
0.750000 0.343750 0.000000
0.781250 0.343750 0.000000
0.812500 0.343750 0.000000
0.843750 0.343750 0.000000
0.875000 0.343750 0.000000
0.906250 0.343750 0.000000
0.937500 0.343750 0.000000
0.968750 0.343750 0.000000
1.000000 0.343750 0.000000
0.000000 0.248657 0.000000
0.020721 0.248657 0.000000
0.041443 0.248657 0.000000
0.062164 0.248657 0.000000
0.082886 0.248657 0.000000
0.103607 0.248657 0.000000
0.124329 0.248657 0.000000
0.145050 0.248657 0.000000
0.165771 0.248657 0.000000
0.186493 0.248657 0.000000
0.207214 0.248657 0.000000
0.227936 0.248657 0.000000
0.248657 0.248657 0.000000
0.322303 0.297510 0.000000
0.394183 0.337871 0.000000
0.456358 0.365086 0.000000
0.500000 0.375000 0.000000
0.531250 0.375000 0.000000
0.562500 0.375000 0.000000
0.593750 0.375000 0.000000
0.625000 0.375000 0.000000
0.656250 0.375000 0.000000
0.687500 0.375000 0.000000
0.718750 0.375000 0.000000
0.750000 0.375000 0.000000
0.781250 0.375000 0.000000
0.812500 0.375000 0.000000
0.843750 0.375000 0.000000
0.875000 0.375000 0.000000
0.906250 0.375000 0.000000
0.937500 0.375000 0.000000
0.968750 0.375000 0.000000
1.000000 0.375000 0.000000
0.000000 0.322303 0.000000
0.024793 0.322303 0.000000
0.049585 0.322303 0.000000
0.074378 0.322303 0.000000
0.099170 0.322303 0.000000
0.123963 0.322303 0.000000
0.148755 0.322303 0.000000
0.173548 0.322303 0.000000
0.198340 0.322303 0.000000
0.223133 0.322303 0.000000
0.247925 0.322303 0.000000
0.272718 0.322303 0.000000
0.297510 0.322303 0.000000
0.322303 0.322303 0.000000
0.394183 0.366027 0.000000
0.456358 0.395510 0.000000
0.500000 0.406250 0.000000
0.531250 0.406250 0.000000
0.562500 0.406250 0.000000
0.593750 0.406250 0.000000
0.625000 0.406250 0.000000
0.656250 0.406250 0.000000
0.687500 0.406250 0.000000
0.718750 0.406250 0.000000
0.750000 0.406250 0.000000
0.781250 0.406250 0.000000
0.812500 0.406250 0.000000
0.843750 0.406250 0.000000
0.875000 0.406250 0.000000
0.906250 0.406250 0.000000
0.937500 0.406250 0.000000
0.968750 0.406250 0.000000
1.000000 0.406250 0.000000
0.000000 0.394183 0.000000
0.028156 0.394183 0.000000
0.056312 0.394183 0.000000
0.084468 0.394183 0.000000
0.112624 0.394183 0.000000
0.140780 0.394183 0.000000
0.168936 0.394183 0.000000
0.197092 0.394183 0.000000
0.225247 0.394183 0.000000
0.253403 0.394183 0.000000
0.281559 0.394183 0.000000
0.309715 0.394183 0.000000
0.337871 0.394183 0.000000
0.366027 0.394183 0.000000
0.394183 0.394183 0.000000
0.456358 0.425934 0.000000
0.500000 0.437500 0.000000
0.531250 0.437500 0.000000
0.562500 0.437500 0.000000
0.593750 0.437500 0.000000
0.625000 0.437500 0.000000
0.656250 0.437500 0.000000
0.687500 0.437500 0.000000
0.718750 0.437500 0.000000
0.750000 0.437500 0.000000
0.781250 0.437500 0.000000
0.812500 0.437500 0.000000
0.843750 0.437500 0.000000
0.875000 0.437500 0.000000
0.906250 0.437500 0.000000
0.937500 0.437500 0.000000
0.968750 0.437500 0.000000
1.000000 0.437500 0.000000
0.000000 0.456358 0.000000
0.030424 0.456358 0.000000
0.060848 0.456358 0.000000
0.091272 0.456358 0.000000
0.121695 0.456358 0.000000
0.152119 0.456358 0.000000
0.182543 0.456358 0.000000
0.212967 0.456358 0.000000
0.243391 0.456358 0.000000
0.273815 0.456358 0.000000
0.304238 0.456358 0.000000
0.334662 0.456358 0.000000
0.365086 0.456358 0.000000
0.395510 0.456358 0.000000
0.425934 0.456358 0.000000
0.456358 0.456358 0.000000
0.500000 0.468750 0.000000
0.531250 0.468750 0.000000
0.562500 0.468750 0.000000
0.593750 0.468750 0.000000
0.625000 0.468750 0.000000
0.656250 0.468750 0.000000
0.687500 0.468750 0.000000
0.718750 0.468750 0.000000
0.750000 0.468750 0.000000
0.781250 0.468750 0.000000
0.812500 0.468750 0.000000
0.843750 0.468750 0.000000
0.875000 0.468750 0.000000
0.906250 0.468750 0.000000
0.937500 0.468750 0.000000
0.968750 0.468750 0.000000
1.000000 0.468750 0.000000
0.000000 0.500000 0.000000
0.031250 0.500000 0.000000
0.062500 0.500000 0.000000
0.093750 0.500000 0.000000
0.125000 0.500000 0.000000
0.156250 0.500000 0.000000
0.187500 0.500000 0.000000
0.218750 0.500000 0.000000
0.250000 0.500000 0.000000
0.281250 0.500000 0.000000
0.312500 0.500000 0.000000
0.343750 0.500000 0.000000
0.375000 0.500000 0.000000
0.406250 0.500000 0.000000
0.437500 0.500000 0.000000
0.468750 0.500000 0.000000
0.500000 0.500000 0.000000
0.531250 0.500000 0.000000
0.562500 0.500000 0.000000
0.593750 0.500000 0.000000
0.625000 0.500000 0.000000
0.656250 0.500000 0.000000
0.687500 0.500000 0.000000
0.718750 0.500000 0.000000
0.750000 0.500000 0.000000
0.781250 0.500000 0.000000
0.812500 0.500000 0.000000
0.843750 0.500000 0.000000
0.875000 0.500000 0.000000
0.906250 0.500000 0.000000
0.937500 0.500000 0.000000
0.968750 0.500000 0.000000
1.000000 0.500000 0.000000
0.000000 0.531250 0.000000
0.031250 0.531250 0.000000
0.062500 0.531250 0.000000
0.093750 0.531250 0.000000
0.125000 0.531250 0.000000
0.156250 0.531250 0.000000
0.187500 0.531250 0.000000
0.218750 0.531250 0.000000
0.250000 0.531250 0.000000
0.281250 0.531250 0.000000
0.312500 0.531250 0.000000
0.343750 0.531250 0.000000
0.375000 0.531250 0.000000
0.406250 0.531250 0.000000
0.437500 0.531250 0.000000
0.468750 0.531250 0.000000
0.500000 0.531250 0.000000
0.531250 0.531250 0.000000
0.562500 0.531250 0.000000
0.593750 0.531250 0.000000
0.625000 0.531250 0.000000
0.656250 0.531250 0.000000
0.687500 0.531250 0.000000
0.718750 0.531250 0.000000
0.750000 0.531250 0.000000
0.781250 0.531250 0.000000
0.812500 0.531250 0.000000
0.843750 0.531250 0.000000
0.875000 0.531250 0.000000
0.906250 0.531250 0.000000
0.937500 0.531250 0.000000
0.968750 0.531250 0.000000
1.000000 0.531250 0.000000
0.000000 0.562500 0.000000
0.031250 0.562500 0.000000
0.062500 0.562500 0.000000
0.093750 0.562500 0.000000
0.125000 0.562500 0.000000
0.156250 0.562500 0.000000
0.187500 0.562500 0.000000
0.218750 0.562500 0.000000
0.250000 0.562500 0.000000
0.281250 0.562500 0.000000
0.312500 0.562500 0.000000
0.343750 0.562500 0.000000
0.375000 0.562500 0.000000
0.406250 0.562500 0.000000
0.437500 0.562500 0.000000
0.468750 0.562500 0.000000
0.500000 0.562500 0.000000
0.531250 0.562500 0.000000
0.562500 0.562500 0.000000
0.593750 0.562500 0.000000
0.625000 0.562500 0.000000
0.656250 0.562500 0.000000
0.687500 0.562500 0.000000
0.718750 0.562500 0.000000
0.750000 0.562500 0.000000
0.781250 0.562500 0.000000
0.812500 0.562500 0.000000
0.843750 0.562500 0.000000
0.875000 0.562500 0.000000
0.906250 0.562500 0.000000
0.937500 0.562500 0.000000
0.968750 0.562500 0.000000
1.000000 0.562500 0.000000
0.000000 0.593750 0.000000
0.031250 0.593750 0.000000
0.062500 0.593750 0.000000
0.093750 0.593750 0.000000
0.125000 0.593750 0.000000
0.156250 0.593750 0.000000
0.187500 0.593750 0.000000
0.218750 0.593750 0.000000
0.250000 0.593750 0.000000
0.281250 0.593750 0.000000
0.312500 0.593750 0.000000
0.343750 0.593750 0.000000
0.375000 0.593750 0.000000
0.406250 0.593750 0.000000
0.437500 0.593750 0.000000
0.468750 0.593750 0.000000
0.500000 0.593750 0.000000
0.531250 0.593750 0.000000
0.562500 0.593750 0.000000
0.593750 0.593750 0.000000
0.625000 0.593750 0.000000
0.656250 0.593750 0.000000
0.687500 0.593750 0.000000
0.718750 0.593750 0.000000
0.750000 0.593750 0.000000
0.781250 0.593750 0.000000
0.812500 0.593750 0.000000
0.843750 0.593750 0.000000
0.875000 0.593750 0.000000
0.906250 0.593750 0.000000
0.937500 0.593750 0.000000
0.968750 0.593750 0.000000
1.000000 0.593750 0.000000
0.000000 0.625000 0.000000
0.031250 0.625000 0.000000
0.062500 0.625000 0.000000
0.093750 0.625000 0.000000
0.125000 0.625000 0.000000
0.156250 0.625000 0.000000
0.187500 0.625000 0.000000
0.218750 0.625000 0.000000
0.250000 0.625000 0.000000
0.281250 0.625000 0.000000
0.312500 0.625000 0.000000
0.343750 0.625000 0.000000
0.375000 0.625000 0.000000
0.406250 0.625000 0.000000
0.437500 0.625000 0.000000
0.468750 0.625000 0.000000
0.500000 0.625000 0.000000
0.531250 0.625000 0.000000
0.562500 0.625000 0.000000
0.593750 0.625000 0.000000
0.625000 0.625000 0.000000
0.656250 0.625000 0.000000
0.687500 0.625000 0.000000
0.718750 0.625000 0.000000
0.750000 0.625000 0.000000
0.781250 0.625000 0.000000
0.812500 0.625000 0.000000
0.843750 0.625000 0.000000
0.875000 0.625000 0.000000
0.906250 0.625000 0.000000
0.937500 0.625000 0.000000
0.968750 0.625000 0.000000
1.000000 0.625000 0.000000
0.000000 0.656250 0.000000
0.031250 0.656250 0.000000
0.062500 0.656250 0.000000
0.093750 0.656250 0.000000
0.125000 0.656250 0.000000
0.156250 0.656250 0.000000
0.187500 0.656250 0.000000
0.218750 0.656250 0.000000
0.250000 0.656250 0.000000
0.281250 0.656250 0.000000
0.312500 0.656250 0.000000
0.343750 0.656250 0.000000
0.375000 0.656250 0.000000
0.406250 0.656250 0.000000
0.437500 0.656250 0.000000
0.468750 0.656250 0.000000
0.500000 0.656250 0.000000
0.531250 0.656250 0.000000
0.562500 0.656250 0.000000
0.593750 0.656250 0.000000
0.625000 0.656250 0.000000
0.656250 0.656250 0.000000
0.687500 0.656250 0.000000
0.718750 0.656250 0.000000
0.750000 0.656250 0.000000
0.781250 0.656250 0.000000
0.812500 0.656250 0.000000
0.843750 0.656250 0.000000
0.875000 0.656250 0.000000
0.906250 0.656250 0.000000
0.937500 0.656250 0.000000
0.968750 0.656250 0.000000
1.000000 0.656250 0.000000
0.000000 0.687500 0.000000
0.031250 0.687500 0.000000
0.062500 0.687500 0.000000
0.093750 0.687500 0.000000
0.125000 0.687500 0.000000
0.156250 0.687500 0.000000
0.187500 0.687500 0.000000
0.218750 0.687500 0.000000
0.250000 0.687500 0.000000
0.281250 0.687500 0.000000
0.312500 0.687500 0.000000
0.343750 0.687500 0.000000
0.375000 0.687500 0.000000
0.406250 0.687500 0.000000
0.437500 0.687500 0.000000
0.468750 0.687500 0.000000
0.500000 0.687500 0.000000
0.531250 0.687500 0.000000
0.562500 0.687500 0.000000
0.593750 0.687500 0.000000
0.625000 0.687500 0.000000
0.656250 0.687500 0.000000
0.687500 0.687500 0.000000
0.718750 0.687500 0.000000
0.750000 0.687500 0.000000
0.781250 0.687500 0.000000
0.812500 0.687500 0.000000
0.843750 0.687500 0.000000
0.875000 0.687500 0.000000
0.906250 0.687500 0.000000
0.937500 0.687500 0.000000
0.968750 0.687500 0.000000
1.000000 0.687500 0.000000
0.000000 0.718750 0.000000
0.031250 0.718750 0.000000
0.062500 0.718750 0.000000
0.093750 0.718750 0.000000
0.125000 0.718750 0.000000
0.156250 0.718750 0.000000
0.187500 0.718750 0.000000
0.218750 0.718750 0.000000
0.250000 0.718750 0.000000
0.281250 0.718750 0.000000
0.312500 0.718750 0.000000
0.343750 0.718750 0.000000
0.375000 0.718750 0.000000
0.406250 0.718750 0.000000
0.437500 0.718750 0.000000
0.468750 0.718750 0.000000
0.500000 0.718750 0.000000
0.531250 0.718750 0.000000
0.562500 0.718750 0.000000
0.593750 0.718750 0.000000
0.625000 0.718750 0.000000
0.656250 0.718750 0.000000
0.687500 0.718750 0.000000
0.718750 0.718750 0.000000
0.750000 0.718750 0.000000
0.781250 0.718750 0.000000
0.812500 0.718750 0.000000
0.843750 0.718750 0.000000
0.875000 0.718750 0.000000
0.906250 0.718750 0.000000
0.937500 0.718750 0.000000
0.968750 0.718750 0.000000
1.000000 0.718750 0.000000
0.000000 0.750000 0.000000
0.031250 0.750000 0.000000
0.062500 0.750000 0.000000
0.093750 0.750000 0.000000
0.125000 0.750000 0.000000
0.156250 0.750000 0.000000
0.187500 0.750000 0.000000
0.218750 0.750000 0.000000
0.250000 0.750000 0.000000
0.281250 0.750000 0.000000
0.312500 0.750000 0.000000
0.343750 0.750000 0.000000
0.375000 0.750000 0.000000
0.406250 0.750000 0.000000
0.437500 0.750000 0.000000
0.468750 0.750000 0.000000
0.500000 0.750000 0.000000
0.531250 0.750000 0.000000
0.562500 0.750000 0.000000
0.593750 0.750000 0.000000
0.625000 0.750000 0.000000
0.656250 0.750000 0.000000
0.687500 0.750000 0.000000
0.718750 0.750000 0.000000
0.750000 0.750000 0.000000
0.781250 0.750000 0.000000
0.812500 0.750000 0.000000
0.843750 0.750000 0.000000
0.875000 0.750000 0.000000
0.906250 0.750000 0.000000
0.937500 0.750000 0.000000
0.968750 0.750000 0.000000
1.000000 0.750000 0.000000
0.000000 0.781250 0.000000
0.031250 0.781250 0.000000
0.062500 0.781250 0.000000
0.093750 0.781250 0.000000
0.125000 0.781250 0.000000
0.156250 0.781250 0.000000
0.187500 0.781250 0.000000
0.218750 0.781250 0.000000
0.250000 0.781250 0.000000
0.281250 0.781250 0.000000
0.312500 0.781250 0.000000
0.343750 0.781250 0.000000
0.375000 0.781250 0.000000
0.406250 0.781250 0.000000
0.437500 0.781250 0.000000
0.468750 0.781250 0.000000
0.500000 0.781250 0.000000
0.531250 0.781250 0.000000
0.562500 0.781250 0.000000
0.593750 0.781250 0.000000
0.625000 0.781250 0.000000
0.656250 0.781250 0.000000
0.687500 0.781250 0.000000
0.718750 0.781250 0.000000
0.750000 0.781250 0.000000
0.781250 0.781250 0.000000
0.812500 0.781250 0.000000
0.843750 0.781250 0.000000
0.875000 0.781250 0.000000
0.906250 0.781250 0.000000
0.937500 0.781250 0.000000
0.968750 0.781250 0.000000
1.000000 0.781250 0.000000
0.000000 0.812500 0.000000
0.031250 0.812500 0.000000
0.062500 0.812500 0.000000
0.093750 0.812500 0.000000
0.125000 0.812500 0.000000
0.156250 0.812500 0.000000
0.187500 0.812500 0.000000
0.218750 0.812500 0.000000
0.250000 0.812500 0.000000
0.281250 0.812500 0.000000
0.312500 0.812500 0.000000
0.343750 0.812500 0.000000
0.375000 0.812500 0.000000
0.406250 0.812500 0.000000
0.437500 0.812500 0.000000
0.468750 0.812500 0.000000
0.500000 0.812500 0.000000
0.531250 0.812500 0.000000
0.562500 0.812500 0.000000
0.593750 0.812500 0.000000
0.625000 0.812500 0.000000
