correction_luts/black_lift.cube
# Lifts blacks for a vintage/faded look
# Strength: 1.0
# Color model: linear-light tone (v2)
TITLE "Black Lift - Faded Blacks"
LUT_3D_SIZE 9
0.046985 0.046985 0.046985
0.219877 0.000000 0.000000
0.345970 0.000000 0.000000
0.469632 0.000000 0.000000
0.591583 0.000000 0.000000
0.712215 0.000000 0.000000
0.831776 0.000000 0.000000
0.950435 0.000000 0.000000
1.000000 0.278233 0.278233
0.000000 0.182862 0.000000
0.176950 0.176950 0.000000
0.327850 0.163925 0.000000
0.460847 0.153616 0.000000
0.586614 0.146653 0.000000
0.709065 0.141813 0.000000
0.829610 0.138268 0.000000
0.948856 0.135551 0.000000
1.000000 0.294913 0.279421
0.000000 0.306601 0.000000
0.152598 0.305195 0.000000
0.300153 0.300153 0.000000
0.439451 0.292968 0.000000
0.571366 0.285683 0.000000
0.698144 0.279258 0.000000
0.821565 0.273855 0.000000
0.942740 0.269354 0.000000
1.000000 0.354487 0.284244
0.000000 0.427689 0.000000
0.142366 0.427099 0.000000
0.283165 0.424748 0.000000
0.420670 0.420670 0.000000
0.554025 0.415518 0.000000
0.683370 0.410022 0.000000
0.809359 0.404679 0.000000
0.932719 0.399737 0.000000
1.000000 0.444067 0.292955
0.000000 0.546973 0.000000
0.136663 0.546651 0.000000
0.272662 0.545324 0.000000
0.407133 0.542844 0.000000
0.539370 0.539370 0.000000
0.669031 0.535225 0.000000
0.796129 0.530753 0.000000
0.920900 0.526228 0.000000
1.000000 0.548127 0.304628
0.000000 0.664891 0.000000
0.132938 0.664689 0.000000
0.265536 0.663839 0.000000
0.397318 0.662196 0.000000
0.527820 0.659775 0.000000
0.656699 0.656699 0.000000
0.783780 0.653150 0.000000
0.909049 0.649321 0.000000
1.000000 0.658525 0.317984
0.000000 0.781714 0.000000
0.130262 0.781573 0.000000
0.260327 0.780981 0.000000
0.389908 0.779816 0.000000
0.518701 0.778051 0.000000
0.646438 0.775725 0.000000
0.772928 0.772928 0.000000
0.898069 0.769773 0.000000
1.000000 0.771594 0.331936
0.000000 0.897620 0.000000
0.128217 0.897517 0.000000
0.256308 0.897079 0.000000
0.384090 0.896209 0.000000
0.511354 0.894869 0.000000
0.637902 0.893063 0.000000
0.763571 0.890833 0.000000
0.888241 0.888241 0.000000
1.000000 0.885676 0.345762
0.344486 1.000000 0.344486
0.355953 1.000000 0.344599
0.400009 1.000000 0.345080
0.473054 1.000000 0.346044
0.564601 1.000000 0.347551
0.666721 1.000000 0.349626
0.774830 1.000000 0.352260
0.886399 1.000000 0.355420
1.000000 1.000000 0.359052
0.000000 0.000000 0.271809
0.209279 0.000000 0.209279
0.343491 0.000000 0.171745
0.468621 0.000000 0.156207
0.591046 0.000000 0.147762
0.711884 0.000000 0.142377
0.831551 0.000000 0.138592
0.950273 0.000000 0.135753
1.000000 0.278354 0.293931
0.000000 0.180609 0.180609
0.175353 0.175353 0.175353
0.326568 0.163284 0.163284
0.460089 0.153363 0.153363
0.586152 0.146538 0.146538
0.708762 0.141752 0.141752
0.829398 0.138233 0.138233
0.948700 0.135529 0.135529
1.000000 0.295022 0.295022
0.000000 0.306112 0.153056
0.152370 0.304741 0.152370
0.299808 0.299808 0.149904
0.439112 0.292742 0.146371
0.571086 0.285543 0.142772
0.697925 0.279170 0.139585
0.821395 0.273798 0.136899
0.942607 0.269316 0.134658
1.000000 0.354564 0.299462
0.000000 0.427487 0.142496
0.142301 0.426903 0.142301
0.283048 0.424572 0.141524
0.420526 0.420526 0.140175
0.553878 0.415408 0.138469
0.683234 0.409941 0.136647
0.809240 0.404620 0.134873
0.932618 0.399693 0.133231
1.000000 0.444114 0.307515
0.000000 0.546863 0.136716
0.136636 0.546543 0.136636
0.272611 0.545222 0.136306
0.407064 0.542752 0.135688
0.539291 0.539291 0.134823
0.668950 0.535160 0.133790
0.796051 0.530701 0.132675
0.920827 0.526187 0.131547
1.000000 0.548154 0.318370
0.000000 0.664822 0.132964
0.132924 0.664620 0.132924
0.265509 0.663773 0.132755
0.397280 0.662134 0.132427
0.527775 0.659718 0.131944
0.656649 0.656649 0.131330
0.783729 0.653107 0.130621
0.908998 0.649285 0.129857
1.000000 0.658539 0.330869
0.000000 0.781666 0.130278
0.130254 0.781526 0.130254
0.260312 0.780935 0.130156
0.389886 0.779772 0.129962
0.518673 0.778009 0.129668
0.646406 0.775687 0.129281
0.772894 0.772894 0.128816
0.898033 0.769743 0.128290
1.000000 0.771601 0.344005
0.000000 0.897585 0.128226
0.128212 0.897482 0.128212
0.256298 0.897045 0.128149
0.384075 0.896176 0.128025
0.511335 0.894837 0.127834
0.637881 0.893033 0.127576
0.763547 0.890805 0.127258
0.888216 0.888216 0.126888
1.000000 0.885679 0.357092
0.344525 1.000000 0.355882
0.355989 1.000000 0.355989
0.400038 1.000000 0.356445
0.473076 1.000000 0.357360
0.564616 1.000000 0.358791
0.666731 1.000000 0.360761
0.774835 1.000000 0.363265
0.886401 1.000000 0.366271
1.000000 1.000000 0.369730
0.000000 0.000000 0.399751
0.187470 0.000000 0.374940
0.334829 0.000000 0.334829
0.464635 0.000000 0.309757
0.588842 0.000000 0.294421
0.710501 0.000000 0.284201
0.830606 0.000000 0.276869
0.949586 0.000000 0.271310
1.000000 0.278869 0.350705
0.000000 0.173456 0.346911
0.169976 0.169976 0.339952
0.321748 0.160874 0.321748
0.457056 0.152352 0.304704
0.584248 0.146062 0.292124
0.707496 0.141499 0.282998
0.828506 0.138084 0.276169
0.948040 0.135434 0.270869
1.000000 0.295487 0.351528
0.000000 0.304151 0.304151
0.151456 0.302912 0.302912
0.298401 0.298401 0.298401
0.437713 0.291809 0.291809
0.569918 0.284959 0.284959
0.697006 0.278802 0.278802
0.820678 0.273559 0.273559
0.942042 0.269155 0.269155
1.000000 0.354893 0.354893
0.000000 0.426643 0.284429
0.142027 0.426082 0.284055
0.282558 0.423837 0.282558
0.419923 0.419923 0.279949
0.553260 0.414945 0.276630
0.682662 0.409597 0.273065
0.808736 0.404368 0.269579
0.932185 0.399508 0.266339
1.000000 0.444317 0.361063
0.000000 0.546400 0.273200
0.136522 0.546086 0.273043
0.272395 0.544790 0.272395
0.406773 0.542364 0.271182
0.538959 0.538959 0.269479
0.668607 0.534886 0.267443
0.795719 0.530479 0.265240
0.920518 0.526010 0.263005
1.000000 0.548271 0.369511
0.000000 0.664529 0.265812
0.132866 0.664329 0.265732
0.265397 0.663491 0.265397
0.397122 0.661870 0.264748
0.527583 0.659479 0.263791
0.656438 0.656438 0.262575
0.783510 0.652925 0.261170
0.908782 0.649130 0.259652
1.000000 0.658603 0.379408
0.000000 0.781463 0.260488
0.130221 0.781324 0.260441
0.260246 0.780737 0.260246
0.389791 0.779582 0.259861
0.518554 0.777831 0.259277
0.646270 0.775524 0.258508
0.772747 0.772747 0.257582
0.897881 0.769612 0.256537
1.000000 0.771632 0.389989
0.000000 0.897435 0.256410
0.128190 0.897333 0.256381
0.256256 0.896898 0.256256
0.384014 0.896033 0.256009
0.511257 0.894700 0.255629
0.637789 0.892905 0.255116
0.763445 0.890686 0.254482
0.888107 0.888107 0.253745
1.000000 0.885690 0.400698
0.344689 1.000000 0.399702
0.356144 1.000000 0.399790
0.400165 1.000000 0.400165
0.473169 1.000000 0.400919
0.564679 1.000000 0.402100
0.666772 1.000000 0.403729
0.774859 1.000000 0.405803
0.886412 1.000000 0.408301
1.000000 1.000000 0.411185
0.000000 0.000000 0.525534
0.171313 0.000000 0.513939
0.323022 0.000000 0.484533
0.457886 0.000000 0.457886
0.584778 0.000000 0.438584
0.707851 0.000000 0.424711
0.828758 0.000000 0.414379
0.948227 0.000000 0.406383
1.000000 0.279901 0.437607
0.000000 0.165008 0.495024
0.163055 0.163055 0.489166
0.314296 0.157148 0.471444
0.451753 0.150584 0.451753
0.580704 0.145176 0.435528
0.705060 0.141012 0.423036
0.826757 0.137793 0.413379
0.946732 0.135247 0.405742
1.000000 0.296419 0.438167
0.000000 0.300712 0.451068
0.149841 0.299682 0.449522
0.295856 0.295856 0.443784
0.435106 0.290071 0.435106
0.567684 0.283842 0.425763
0.695216 0.278086 0.417130
0.819266 0.273089 0.409633
0.940920 0.268834 0.403251
1.000000 0.355554 0.440467
0.000000 0.425028 0.425028
0.141503 0.424508 0.424508
0.281614 0.422421 0.422421
0.418752 0.418752 0.418752
0.552050 0.414038 0.414038
0.681533 0.408920 0.408920
0.807737 0.403869 0.403869
0.931323 0.399138 0.399138
1.000000 0.444724 0.444724
0.000000 0.545486 0.409115
0.136296 0.545184 0.408888
0.271968 0.543937 0.407953
0.406197 0.541596 0.406197
0.538299 0.538299 0.403724
0.667923 0.534338 0.400754
0.795054 0.530036 0.397527
0.919898 0.525656 0.394242
1.000000 0.548506 0.450635
0.000000 0.663944 0.398366
0.132750 0.663748 0.398249
0.265172 0.662929 0.397757
0.396806 0.661343 0.396806
0.527199 0.658999 0.395400
0.656014 0.656014 0.393608
0.783071 0.652560 0.391536
0.908347 0.648819 0.389292
1.000000 0.658731 0.457673
0.000000 0.781055 0.390527
0.130153 0.780918 0.390459
0.260113 0.780339 0.390170
0.389600 0.779201 0.389600
0.518316 0.777473 0.388737
0.645996 0.775195 0.387598
0.772451 0.772451 0.386225
0.897575 0.769350 0.384675
1.000000 0.771695 0.465324
0.000000 0.897134 0.384486
0.128147 0.897032 0.384442
0.256172 0.896601 0.384258
0.383891 0.895745 0.383891
0.511100 0.894425 0.383325
0.637604 0.892646 0.382562
0.763239 0.890446 0.381620
0.887887 0.887887 0.380523
1.000000 0.885714 0.473194
0.345020 1.000000 0.472456
0.356458 1.000000 0.472522
0.400423 1.000000 0.472799
0.473357 1.000000 0.473357
0.564809 1.000000 0.474233
0.666855 1.000000 0.475442
0.774907 1.000000 0.476987
0.886433 1.000000 0.478853
1.000000 1.000000 0.481014
0.000000 0.000000 0.649737
0.160835 0.000000 0.643340
0.311586 0.000000 0.623173
0.449630 0.000000 0.599507
0.579205 0.000000 0.579205
0.703999 0.000000 0.563199
0.825982 0.000000 0.550655
0.946147 0.000000 0.540655
1.000000 0.281513 0.540248
0.000000 0.157765 0.631058
0.156688 0.156688 0.626754
0.306102 0.153051 0.612203
0.444996 0.148332 0.593329
0.575772 0.143943 0.575772
0.701498 0.140300 0.561198
0.824125 0.137354 0.549417
0.944728 0.134961 0.539845
1.000000 0.297877 0.540615
0.000000 0.296311 0.592622
0.147754 0.295508 0.591016
0.292458 0.292458 0.584916
0.431470 0.287647 0.575293
0.564449 0.282225 0.564449
0.692549 0.277020 0.554040
0.817120 0.272373 0.544747
0.939193 0.268341 0.536682
1.000000 0.356592 0.542124
0.000000 0.422682 0.563576
0.140739 0.422218 0.562957
0.280230 0.420345 0.560460
0.417016 0.417016 0.556021
0.550233 0.412675 0.550233
0.679815 0.407889 0.543852
0.806201 0.403100 0.537467
0.929986 0.398565 0.531420
1.000000 0.445367 0.544936
0.000000 0.544096 0.544096
0.135953 0.543812 0.543812
0.271318 0.542636 0.542636
0.405315 0.540420 0.540420
0.537283 0.537283 0.537283
0.666865 0.533492 0.533492
0.794021 0.529347 0.529347
0.918930 0.525103 0.525103
1.000000 0.548878 0.548878
0.000000 0.663035 0.530428
0.132569 0.662846 0.530277
0.264822 0.662055 0.529644
0.396313 0.660522 0.528417
0.526601 0.658251 0.526601
0.655352 0.655352 0.524281
0.782384 0.651986 0.521589
0.907664 0.648331 0.518665
1.000000 0.658935 0.553627
0.000000 0.780414 0.520276
0.130047 0.780281 0.520187
0.259905 0.779715 0.519810
0.389301 0.778602 0.519068
0.517941 0.776911 0.517941
0.645565 0.774678 0.516452
0.771984 0.771984 0.514656
0.897091 0.768935 0.512624
1.000000 0.771796 0.558853
0.000000 0.896657 0.512376
0.128080 0.896557 0.512318
0.256038 0.896133 0.512076
0.383696 0.895290 0.511594
0.510851 0.893989 0.510851
0.637311 0.892236 0.509849
0.762914 0.890066 0.508609
0.887540 0.887540 0.507166
1.000000 0.885752 0.564291
0.345546 1.000000 0.563779
0.356957 1.000000 0.563824
0.400831 1.000000 0.564017
0.473657 1.000000 0.564405
0.565014 1.000000 0.565014
0.666987 1.000000 0.565857
0.774983 1.000000 0.566935
0.886466 1.000000 0.568240
1.000000 1.000000 0.569757
0.000000 0.000000 0.772694
0.153744 0.000000 0.768718
0.301872 0.000000 0.754681
0.441110 0.000000 0.735183
0.572718 0.000000 0.715898
0.699190 0.000000 0.699190
0.822372 0.000000 0.685310
0.943371 0.000000 0.673837
1.000000 0.283730 0.650721
0.000000 0.152089 0.760447
0.151469 0.151469 0.757344
0.298421 0.149211 0.746053
0.437734 0.145911 0.729556
0.569935 0.142484 0.712419
0.697019 0.139404 0.697019
0.820689 0.136782 0.683908
0.942050 0.134579 0.672893
1.000000 0.299885 0.650950
0.000000 0.291560 0.728899
0.145479 0.290958 0.727395
0.288620 0.288620 0.721551
0.427157 0.284772 0.711929
0.560431 0.280215 0.700538
0.689116 0.275646 0.689116
0.814285 0.271428 0.678570
0.936869 0.267677 0.669192
1.000000 0.358028 0.651897
0.000000 0.419759 0.699598
0.139786 0.419357 0.698929
0.278485 0.417728 0.696214
0.414795 0.414795 0.691324
0.547867 0.410900 0.684833
0.677539 0.406524 0.677539
0.804136 0.402068 0.670114
0.928169 0.397787 0.662978
1.000000 0.446260 0.653671
0.000000 0.542257 0.677822
0.135499 0.541995 0.677494
0.270454 0.540908 0.676134
0.404138 0.538850 0.673563
0.535918 0.535918 0.669898
0.665433 0.532346 0.665433
0.792613 0.528408 0.660510
0.917601 0.524343 0.655429
1.000000 0.549398 0.656176
0.000000 0.661797 0.661797
0.132324 0.661618 0.661618
0.264346 0.660864 0.660864
0.395640 0.659400 0.659400
0.525782 0.657227 0.657227
0.654442 0.654442 0.654442
0.781435 0.651196 0.651196
0.906718 0.647656 0.647656
1.000000 0.659220 0.659220
0.000000 0.779530 0.649608
0.129900 0.779400 0.649500
0.259617 0.778852 0.649044
0.388886 0.777773 0.648144
0.517421 0.776132 0.646776
0.644967 0.773960 0.644967
0.771335 0.771335 0.642779
0.896418 0.768358 0.640298
1.000000 0.771937 0.662599
0.000000 0.895993 0.639995
0.127985 0.895895 0.639925
0.255852 0.895480 0.639629
0.383424 0.894655 0.639039
0.510504 0.893382 0.638130
0.636903 0.891664 0.636903
0.762458 0.889535 0.635382
0.887053 0.887053 0.633609
1.000000 0.885806 0.666146
0.346285 1.000000 0.665811
0.357657 1.000000 0.665841
0.401406 1.000000 0.665967
0.474078 1.000000 0.666221
0.565303 1.000000 0.666620
0.667173 1.000000 0.667173
0.775090 1.000000 0.667881
0.886513 1.000000 0.668740
1.000000 1.000000 0.669740
0.000000 0.000000 0.894625
0.148656 0.000000 0.891937
0.293942 0.000000 0.881826
0.433079 0.000000 0.866158
0.565898 0.000000 0.848847
0.693755 0.000000 0.832506
0.818096 0.000000 0.818096
0.939982 0.000000 0.805699
1.000000 0.286539 0.765261
0.000000 0.147683 0.886098
0.147303 0.147303 0.883820
0.291708 0.145854 0.875125
0.430645 0.143548 0.861289
0.563695 0.140924 0.845543
0.691915 0.138383 0.830298
0.816603 0.136100 0.816603
0.938772 0.134110 0.804662
1.000000 0.302436 0.765391
0.000000 0.286903 0.860710
0.143230 0.286459 0.859378
0.284700 0.284700 0.854101
0.422536 0.281691 0.845073
0.555911 0.277956 0.833867
0.685096 0.274039 0.822116
0.810862 0.270287 0.810862
0.934001 0.266857 0.800572
1.000000 0.359864 0.765930
0.000000 0.416459 0.832918
0.138707 0.416120 0.832241
0.276492 0.414737 0.829475
0.412212 0.412212 0.824425
0.545059 0.408794 0.817589
0.674786 0.404872 0.809743
0.801594 0.400797 0.801594
0.925898 0.396813 0.793627
1.000000 0.447409 0.766944
0.000000 0.540033 0.810050
0.134949 0.539796 0.809694
0.269404 0.538809 0.808213
0.402699 0.536932 0.805398
0.534237 0.534237 0.801355
0.663652 0.530921 0.796382
0.790845 0.527230 0.790845
0.915919 0.523382 0.785073
1.000000 0.550071 0.768385
0.000000 0.660248 0.792298
0.132016 0.660079 0.792095
0.263748 0.659370 0.791244
0.394794 0.657990 0.789588
0.524748 0.655935 0.787122
0.653288 0.653288 0.783946
0.780227 0.650189 0.780227
0.905508 0.646791 0.776149
1.000000 0.659590 0.770149
0.000000 0.778401 0.778401
0.129713 0.778276 0.778276
0.259250 0.777751 0.777751
0.388357 0.776713 0.776713
0.516756 0.775134 0.775134
0.644199 0.773039 0.773039
0.770500 0.770500 0.770500
0.895549 0.767613 0.767613
1.000000 0.772121 0.772121
0.000000 0.895136 0.767260
0.127863 0.895041 0.767178
0.255611 0.894638 0.766833
0.383072 0.893836 0.766145
0.510055 0.892597 0.765083
0.636373 0.890923 0.763648
0.761868 0.888846 0.761868
0.886421 0.886421 0.759789
1.000000 0.885875 0.774206
0.347248 1.000000 0.774008
0.358570 1.000000 0.774026
0.402155 1.000000 0.774100
0.474629 1.000000 0.774250
0.565681 1.000000 0.774485
0.667416 1.000000 0.774812
0.775231 1.000000 0.775231
0.886574 1.000000 0.775739
1.000000 1.000000 0.776332
0.088403 0.088403 1.000000
0.158454 0.084677 1.000000
0.288778 0.063707 1.000000
0.425844 0.000000 0.993637
0.559168 0.000000 0.978545
0.688010 0.000000 0.963214
0.813354 0.000000 0.948913
0.936096 0.000000 0.936096
1.000000 0.289903 0.882015
0.074364 0.154493 1.000000
0.152708 0.152708 1.000000
0.286232 0.144273 1.000000
0.424079 0.141360 0.989517
0.557443 0.139361 0.975526
0.686478 0.137296 0.961069
0.812051 0.135342 0.947393
0.935005 0.133572 0.935005
1.000000 0.305499 0.882071
0.000000 0.282577 0.989020
0.141125 0.282249 0.987873
0.280930 0.280930 0.983255
0.417897 0.278598 0.975094
0.551159 0.275580 0.964529
0.680693 0.272277 0.952970
0.806989 0.268996 0.941487
0.930673 0.265907 0.930673
1.000000 0.362085 0.882305
0.000000 0.412977 0.963613
0.137565 0.412696 0.962958
0.274361 0.411542 0.960264
0.409405 0.409405 0.955278
0.541941 0.406456 0.948397
0.671661 0.402996 0.940325
0.798651 0.399325 0.931759
0.923226 0.395668 0.923226
1.000000 0.448811 0.882746
0.000000 0.537511 0.940644
0.134325 0.537299 0.940274
0.268209 0.536417 0.938730
0.401048 0.534731 0.935780
0.532289 0.532289 0.931506
0.661567 0.529254 0.926194
0.788753 0.525835 0.920212
0.913910 0.522234 0.913910
1.000000 0.550897 0.883377
0.000000 0.658420 0.921788
0.131653 0.658263 0.921569
0.263042 0.657604 0.920646
0.393791 0.656318 0.918846
0.523517 0.654396 0.916154
0.651908 0.651908 0.912671
0.778772 0.648977 0.908568
0.904043 0.645745 0.904043
1.000000 0.660048 0.884155
0.000000 0.777038 0.906545
0.129487 0.776920 0.906407
0.258807 0.776420 0.905823
0.387716 0.775432 0.904670
0.515949 0.773924 0.902911
0.643266 0.771920 0.900573
0.769483 0.769483 0.897730
0.894486 0.766702 0.894486
1.000000 0.772350 0.885031
0.000000 0.894088 0.894088
0.127714 0.893996 0.893996
0.255316 0.893607 0.893607
0.382642 0.892832 0.892832
0.509505 0.891634 0.891634
0.635724 0.890013 0.890013
0.761142 0.887999 0.887999
0.885643 0.885643 0.885643
1.000000 0.885962 0.885962
0.348442 1.000000 0.885874
0.359703 1.000000 0.885882
0.403086 1.000000 0.885915
0.475314 1.000000 0.885982
0.566152 1.000000 0.886088
0.667719 1.000000 0.886234
0.775406 1.000000 0.886422
0.886651 1.000000 0.886651
1.000000 1.000000 0.886917
0.224939 0.224939 1.000000
0.246609 0.225849 1.000000
0.318324 0.229580 1.000000
0.418213 0.236455 1.000000
0.529529 0.245936 1.000000
0.645429 0.257138 1.000000
0.763166 0.269222 1.000000
0.881543 0.281566 1.000000
1.000000 0.293765 1.000000
0.227942 0.248450 1.000000
0.249209 0.249209 1.000000
0.320019 0.252335 1.000000
0.419216 0.258159 1.000000
0.530106 0.266310 1.000000
0.645748 0.276097 1.000000
0.763327 0.286821 1.000000
0.881605 0.297925 1.000000
1.000000 0.309026 1.000000
0.239205 0.324292 1.000000
0.259056 0.324735 1.000000
0.326582 0.326582 1.000000
0.423172 0.330106 1.000000
0.532418 0.335208 1.000000
0.647044 0.341579 1.000000
0.763988 0.348836 1.000000
0.881863 0.356626 1.000000
1.000000 0.364665 1.000000
0.256824 0.426890 1.000000
0.274733 0.427119 1.000000
0.337457 0.428082 1.000000
0.429957 0.429957 1.000000
0.536495 0.432752 1.000000
0.649385 0.436366 1.000000
0.765205 0.440637 1.000000
0.882346 0.445388 1.000000
1.000000 0.450454 1.000000
0.277013 0.538797 1.000000
0.293030 0.538913 1.000000
0.350730 0.539404 1.000000
0.438573 0.540371 1.000000
0.541843 0.541843 1.000000
0.652543 0.543796 1.000000
0.766888 0.546171 1.000000
0.883028 0.548890 1.000000
1.000000 0.551872 1.000000
0.297225 0.653662 1.000000
0.311636 0.653720 1.000000
0.364773 0.653964 1.000000
0.448035 0.654450 1.000000
0.547895 0.655199 1.000000
0.656212 0.656212 1.000000
0.768891 0.657469 1.000000
0.883857 0.658941 1.000000
1.000000 0.660592 1.000000
0.316304 0.769274 1.000000
0.329407 0.769301 1.000000
0.378630 0.769414 1.000000
0.457673 0.769639 1.000000
0.554222 0.769991 1.000000
0.660134 0.770471 1.000000
0.771077 0.771077 1.000000
0.884781 0.771799 1.000000
1.000000 0.772623 1.000000
0.333864 0.884822 1.000000
0.345911 0.884832 1.000000
0.391834 0.884872 1.000000
0.467105 0.884954 1.000000
0.560549 0.885081 1.000000
0.664129 0.885258 1.000000
0.773343 0.885482 1.000000
0.885753 0.885753 1.000000
1.000000 0.886067 1.000000
0.349867 1.000000 1.000000
0.361055 1.000000 1.000000
0.404199 1.000000 1.000000
0.476134 1.000000 1.000000
0.566716 1.000000 1.000000
0.668083 1.000000 1.000000
0.775616 1.000000 1.000000
0.886743 1.000000 1.000000
1.000000 1.000000 1.000000
