correction_luts/black_lift.cube
# Lifts blacks for a vintage/faded look
# Strength: 1.0
# Color model: linear-light tone (v2)
TITLE "Black Lift - Faded Blacks"
LUT_3D_SIZE 5
0.046985 0.046985 0.046985
0.345970 0.000000 0.000000
0.591583 0.000000 0.000000
0.831776 0.000000 0.000000
1.000000 0.278233 0.278233
0.000000 0.306601 0.000000
0.300153 0.300153 0.000000
0.571366 0.285683 0.000000
0.821565 0.273855 0.000000
1.000000 0.354487 0.284244
0.000000 0.546973 0.000000
0.272662 0.545324 0.000000
0.539370 0.539370 0.000000
0.796129 0.530753 0.000000
1.000000 0.548127 0.304628
0.000000 0.781714 0.000000
0.260327 0.780981 0.000000
0.518701 0.778051 0.000000
0.772928 0.772928 0.000000
1.000000 0.771594 0.331936
0.344486 1.000000 0.344486
0.400009 1.000000 0.345080
0.564601 1.000000 0.347551
0.774830 1.000000 0.352260
1.000000 1.000000 0.359052
0.000000 0.000000 0.399751
0.334829 0.000000 0.334829
0.588842 0.000000 0.294421
0.830606 0.000000 0.276869
1.000000 0.278869 0.350705
0.000000 0.304151 0.304151
0.298401 0.298401 0.298401
0.569918 0.284959 0.284959
0.820678 0.273559 0.273559
1.000000 0.354893 0.354893
0.000000 0.546400 0.273200
0.272395 0.544790 0.272395
0.538959 0.538959 0.269479
0.795719 0.530479 0.265240
1.000000 0.548271 0.369511
0.000000 0.781463 0.260488
0.260246 0.780737 0.260246
0.518554 0.777831 0.259277
0.772747 0.772747 0.257582
1.000000 0.771632 0.389989
0.344689 1.000000 0.399702
0.400165 1.000000 0.400165
0.564679 1.000000 0.402100
0.774859 1.000000 0.405803
1.000000 1.000000 0.411185
0.000000 0.000000 0.649737
0.311586 0.000000 0.623173
0.579205 0.000000 0.579205
0.825982 0.000000 0.550655
1.000000 0.281513 0.540248
0.000000 0.296311 0.592622
0.292458 0.292458 0.584916
0.564449 0.282225 0.564449
0.817120 0.272373 0.544747
1.000000 0.356592 0.542124
0.000000 0.544096 0.544096
0.271318 0.542636 0.542636
0.537283 0.537283 0.537283
0.794021 0.529347 0.529347
1.000000 0.548878 0.548878
0.000000 0.780414 0.520276
0.259905 0.779715 0.519810
0.517941 0.776911 0.517941
0.771984 0.771984 0.514656
1.000000 0.771796 0.558853
0.345546 1.000000 0.563779
0.400831 1.000000 0.564017
0.565014 1.000000 0.565014
0.774983 1.000000 0.566935
1.000000 1.000000 0.569757
0.000000 0.000000 0.894625
0.293942 0.000000 0.881826
0.565898 0.000000 0.848847
0.818096 0.000000 0.818096
1.000000 0.286539 0.765261
0.000000 0.286903 0.860710
0.284700 0.284700 0.854101
0.555911 0.277956 0.833867
0.810862 0.270287 0.810862
1.000000 0.359864 0.765930
0.000000 0.540033 0.810050
0.269404 0.538809 0.808213
0.534237 0.534237 0.801355
0.790845 0.527230 0.790845
1.000000 0.550071 0.768385
0.000000 0.778401 0.778401
0.259250 0.777751 0.777751
0.516756 0.775134 0.775134
0.770500 0.770500 0.770500
1.000000 0.772121 0.772121
0.347248 1.000000 0.774008
0.402155 1.000000 0.774100
0.565681 1.000000 0.774485
0.775231 1.000000 0.775231
1.000000 1.000000 0.776332
0.224939 0.224939 1.000000
0.318324 0.229580 1.000000
0.529529 0.245936 1.000000
0.763166 0.269222 1.000000
1.000000 0.293765 1.000000
0.239205 0.324292 1.000000
0.326582 0.326582 1.000000
0.532418 0.335208 1.000000
0.763988 0.348836 1.000000
1.000000 0.364665 1.000000
0.277013 0.538797 1.000000
0.350730 0.539404 1.000000
0.541843 0.541843 1.000000
0.766888 0.546171 1.000000
1.000000 0.551872 1.000000
0.316304 0.769274 1.000000
0.378630 0.769414 1.000000
0.554222 0.769991 1.000000
0.771077 0.771077 1.000000
1.000000 0.772623 1.000000
0.349867 1.000000 1.000000
0.404199 1.000000 1.000000
0.566716 1.000000 1.000000
0.775616 1.000000 1.000000
1.000000 1.000000 1.000000
