correction_luts/black_lift.cube
# Lifts blacks for a vintage/faded look
# Strength: 1.0
# Color model: linear-light tone (v2)
TITLE "Black Lift - Faded Blacks"
LUT_3D_SIZE 33
0.046985 0.046985 0.046985
0.122750 0.000000 0.000000
0.155464 0.000000 0.000000
0.187816 0.000000 0.000000
0.219877 0.000000 0.000000
0.251692 0.000000 0.000000
0.283296 0.000000 0.000000
0.314715 0.000000 0.000000
0.345970 0.000000 0.000000
0.377077 0.000000 0.000000
0.408049 0.000000 0.000000
0.438898 0.000000 0.000000
0.469632 0.000000 0.000000
0.500262 0.000000 0.000000
0.530793 0.000000 0.000000
0.561231 0.000000 0.000000
0.591583 0.000000 0.000000
0.621853 0.000000 0.000000
0.652046 0.000000 0.000000
0.682166 0.000000 0.000000
0.712215 0.000000 0.000000
0.742198 0.000000 0.000000
0.772117 0.000000 0.000000
0.801976 0.000000 0.000000
0.831776 0.000000 0.000000
0.861520 0.000000 0.000000
0.891210 0.000000 0.000000
0.920847 0.000000 0.000000
0.950435 0.000000 0.000000
0.979975 0.000000 0.000000
1.000000 0.120074 0.120074
1.000000 0.218236 0.218236
1.000000 0.278233 0.278233
0.000000 0.087052 0.000000
0.081458 0.081458 0.000000
0.138640 0.069320 0.000000
0.179961 0.059987 0.000000
0.215597 0.053899 0.000000
0.249076 0.049815 0.000000
0.281559 0.046926 0.000000
0.313489 0.044784 0.000000
0.345064 0.043133 0.000000
0.376383 0.041820 0.000000
0.407502 0.040750 0.000000
0.438456 0.039860 0.000000
0.469269 0.039106 0.000000
0.499958 0.038458 0.000000
0.530535 0.037895 0.000000
0.561010 0.037401 0.000000
0.591391 0.036962 0.000000
0.621685 0.036570 0.000000
0.651898 0.036217 0.000000
0.682034 0.035897 0.000000
0.712097 0.035605 0.000000
0.742092 0.035338 0.000000
0.772021 0.035092 0.000000
0.801888 0.034865 0.000000
0.831696 0.034654 0.000000
0.861446 0.034458 0.000000
0.891142 0.034275 0.000000
0.920785 0.034103 0.000000
0.950378 0.033942 0.000000
0.979921 0.033790 0.000000
1.000000 0.122138 0.119868
1.000000 0.219124 0.218226
1.000000 0.278857 0.278276
0.000000 0.119414 0.000000
0.059084 0.118168 0.000000
0.113731 0.113731 0.000000
0.161262 0.107508 0.000000
0.202683 0.101341 0.000000
0.240117 0.096047 0.000000
0.275165 0.091722 0.000000
0.308775 0.088221 0.000000
0.341481 0.085370 0.000000
0.373585 0.083019 0.000000
0.405267 0.081053 0.000000
0.436636 0.079388 0.000000
0.467761 0.077960 0.000000
0.498690 0.076721 0.000000
0.529455 0.075636 0.000000
0.560080 0.074677 0.000000
0.590582 0.073823 0.000000
0.620975 0.073056 0.000000
0.651270 0.072363 0.000000
0.681475 0.071734 0.000000
0.711596 0.071160 0.000000
0.741640 0.070632 0.000000
0.771612 0.070147 0.000000
0.801516 0.069697 0.000000
0.831356 0.069280 0.000000
0.861134 0.068891 0.000000
0.890855 0.068527 0.000000
0.920519 0.068187 0.000000
0.950131 0.067867 0.000000
0.979692 0.067565 0.000000
1.000000 0.130463 0.118978
1.000000 0.222868 0.218183
1.000000 0.281503 0.278460
0.000000 0.151315 0.000000
0.050275 0.150824 0.000000
0.099249 0.148874 0.000000
0.145523 0.145523 0.000000
0.188468 0.141351 0.000000
0.228306 0.136983 0.000000
0.265659 0.132829 0.000000
0.301176 0.129075 0.000000
0.335375 0.125765 0.000000
0.368629 0.122876 0.000000
0.401194 0.120358 0.000000
0.433247 0.118158 0.000000
0.464909 0.116227 0.000000
0.496262 0.114522 0.000000
0.527368 0.113007 0.000000
0.558269 0.111654 0.000000
0.588997 0.110437 0.000000
0.619578 0.109337 0.000000
0.650030 0.108338 0.000000
0.680366 0.107426 0.000000
0.710600 0.106590 0.000000
0.740741 0.105820 0.000000
0.770796 0.105109 0.000000
0.800772 0.104448 0.000000
0.830674 0.103834 0.000000
0.860508 0.103261 0.000000
0.890277 0.102724 0.000000
0.919985 0.102221 0.000000
0.949636 0.101747 0.000000
0.979231 0.101300 0.000000
1.000000 0.145400 0.117126
1.000000 0.230209 0.218090
1.000000 0.286769 0.278832
0.000000 0.182862 0.000000
0.045652 0.182610 0.000000
0.090784 0.181568 0.000000
0.134725 0.179633 0.000000
0.176950 0.176950 0.000000
0.217238 0.173790 0.000000
0.255652 0.170435 0.000000
0.292427 0.167101 0.000000
0.327850 0.163925 0.000000
0.362197 0.160977 0.000000
0.395698 0.158279 0.000000
0.428535 0.155831 0.000000
0.460847 0.153616 0.000000
0.492741 0.151613 0.000000
0.524295 0.149799 0.000000
0.555571 0.148152 0.000000
0.586614 0.146653 0.000000
0.617460 0.145285 0.000000
0.648136 0.144030 0.000000
0.678666 0.142877 0.000000
0.709065 0.141813 0.000000
0.739348 0.140828 0.000000
0.769528 0.139914 0.000000
0.799612 0.139063 0.000000
0.829610 0.138268 0.000000
0.859528 0.137524 0.000000
0.889372 0.136826 0.000000
0.919146 0.136170 0.000000
0.948856 0.135551 0.000000
0.978505 0.134966 0.000000
1.000000 0.165574 0.114031
1.000000 0.241299 0.217932
1.000000 0.294913 0.279421
0.000000 0.214125 0.000000
0.042795 0.213973 0.000000
0.085336 0.213340 0.000000
0.127272 0.212119 0.000000
0.168266 0.210333 0.000000
0.208084 0.208084 0.000000
0.246626 0.205522 0.000000
0.283911 0.202794 0.000000
0.320042 0.200027 0.000000
0.355163 0.197313 0.000000
0.389424 0.194712 0.000000
0.422965 0.192257 0.000000
0.455910 0.189962 0.000000
0.488361 0.187831 0.000000
0.520401 0.185857 0.000000
0.552098 0.184033 0.000000
0.583506 0.182346 0.000000
0.614668 0.180785 0.000000
0.645619 0.179339 0.000000
0.676387 0.177997 0.000000
0.706994 0.176749 0.000000
0.737460 0.175586 0.000000
0.767800 0.174500 0.000000
0.798026 0.173484 0.000000
0.828149 0.172531 0.000000
0.858178 0.171636 0.000000
0.888122 0.170793 0.000000
0.917985 0.169997 0.000000
0.947775 0.169245 0.000000
0.977495 0.168534 0.000000
1.000000 0.189361 0.109318
1.000000 0.255907 0.217684
1.000000 0.305955 0.280248
0.000000 0.245148 0.000000
0.040841 0.245048 0.000000
0.081542 0.244626 0.000000
0.121900 0.243799 0.000000
0.161701 0.242552 0.000000
0.200767 0.240920 0.000000
0.238975 0.238975 0.000000
0.276271 0.236804 0.000000
0.312662 0.234497 0.000000
0.348198 0.232132 0.000000
0.382956 0.229774 0.000000
0.417023 0.227467 0.000000
0.450486 0.225243 0.000000
0.483429 0.223121 0.000000
0.515924 0.221110 0.000000
0.548035 0.219214 0.000000
0.579815 0.217431 0.000000
0.611310 0.215756 0.000000
0.642558 0.214186 0.000000
0.673590 0.212713 0.000000
0.704433 0.211330 0.000000
0.735108 0.210031 0.000000
0.765634 0.208809 0.000000
0.796027 0.207659 0.000000
0.826300 0.206575 0.000000
0.856463 0.205551 0.000000
0.886527 0.204583 0.000000
0.916499 0.203667 0.000000
0.946387 0.202797 0.000000
0.976197 0.201972 0.000000
1.000000 0.215511 0.102398
1.000000 0.273588 0.217313
1.000000 0.319746 0.281325
0.000000 0.275965 0.000000
0.039413 0.275894 0.000000
0.078741 0.275595 0.000000
0.117858 0.275003 0.000000
0.156625 0.274093 0.000000
0.194910 0.272875 0.000000
0.232611 0.271379 0.000000
0.269656 0.269656 0.000000
0.306013 0.267761 0.000000
0.341683 0.265754 0.000000
0.376694 0.263685 0.000000
0.411087 0.261601 0.000000
0.444918 0.259535 0.000000
0.478242 0.257515 0.000000
0.511115 0.255557 0.000000
0.543589 0.253675 0.000000
0.575712 0.251874 0.000000
0.607525 0.250157 0.000000
0.639066 0.248526 0.000000
0.670366 0.246977 0.000000
0.701453 0.245509 0.000000
0.732350 0.244117 0.000000
0.763078 0.242797 0.000000
0.793653 0.241547 0.000000
0.824091 0.240360 0.000000
0.854405 0.239233 0.000000
0.884605 0.238163 0.000000
0.914702 0.237145 0.000000
0.944703 0.236176 0.000000
0.974615 0.235252 0.000000
1.000000 0.243194 0.092206
1.000000 0.293822 0.216776
1.000000 0.336027 0.282657
0.000000 0.306601 0.000000
0.038319 0.306549 0.000000
0.076582 0.306327 0.000000
0.114706 0.305883 0.000000
0.152598 0.305195 0.000000
0.190162 0.304259 0.000000
0.227316 0.303088 0.000000
0.263994 0.301708 0.000000
0.300153 0.300153 0.000000
0.335773 0.298464 0.000000
0.370850 0.296680 0.000000
0.405401 0.294837 0.000000
0.439451 0.292968 0.000000
0.473036 0.291099 0.000000
0.506191 0.289252 0.000000
0.538955 0.287443 0.000000
0.571366 0.285683 0.000000
0.603460 0.283981 0.000000
0.635268 0.282342 0.000000
0.666821 0.280767 0.000000
0.698144 0.279258 0.000000
0.729260 0.277814 0.000000
0.760191 0.276433 0.000000
0.790954 0.275114 0.000000
0.821565 0.273855 0.000000
0.852038 0.272652 0.000000
0.882384 0.271503 0.000000
0.912615 0.270404 0.000000
0.942740 0.269354 0.000000
0.972767 0.268349 0.000000
1.000000 0.271881 0.076318
1.000000 0.316110 0.216017
1.000000 0.354487 0.284244
0.000000 0.337077 0.000000
0.037449 0.337037 0.000000
0.074859 0.336866 0.000000
0.112174 0.336522 0.000000
0.149327 0.335986 0.000000
0.186249 0.335248 0.000000
0.222875 0.334312 0.000000
0.259150 0.333193 0.000000
0.295031 0.331910 0.000000
0.330489 0.330489 0.000000
0.365509 0.328958 0.000000
0.400089 0.327346 0.000000
0.434239 0.325679 0.000000
0.467973 0.323981 0.000000
0.501315 0.322274 0.000000
0.534290 0.320574 0.000000
0.566926 0.318896 0.000000
0.599248 0.317249 0.000000
0.631285 0.315642 0.000000
0.663060 0.314081 0.000000
0.694598 0.312569 0.000000
0.725920 0.311109 0.000000
0.757045 0.309700 0.000000
0.787991 0.308344 0.000000
0.818773 0.307040 0.000000
0.849406 0.305786 0.000000
0.879902 0.304581 0.000000
0.910272 0.303424 0.000000
0.940526 0.302312 0.000000
0.970673 0.301243 0.000000
1.000000 0.301236 0.044945
1.000000 0.340019 0.214961
1.000000 0.374805 0.286080
0.000000 0.367409 0.000000
0.036738 0.367377 0.000000
0.073448 0.367241 0.000000
0.110090 0.366968 0.000000
0.146615 0.366538 0.000000
0.182972 0.365944 0.000000
0.219110 0.365183 0.000000
0.254983 0.364262 0.000000
0.290554 0.363192 0.000000
0.325792 0.361991 0.000000
0.360678 0.360678 0.000000
0.395200 0.359273 0.000000
0.429357 0.357798 0.000000
0.463153 0.356272 0.000000
0.496599 0.354714 0.000000
0.529710 0.353140 0.000000
0.562505 0.351565 0.000000
0.595001 0.350001 0.000000
0.627220 0.348455 0.000000
0.659181 0.346938 0.000000
0.690905 0.345452 0.000000
0.722409 0.344004 0.000000
0.753711 0.342596 0.000000
0.784827 0.341229 0.000000
0.815772 0.339905 0.000000
0.846559 0.338624 0.000000
0.877202 0.337385 0.000000
0.907710 0.336189 0.000000
0.938094 0.335034 0.000000
0.968363 0.333918 0.000000
0.998525 0.332842 0.000000
1.000000 0.365194 0.213515
1.000000 0.396681 0.288154
0.000000 0.397609 0.000000
0.036144 0.397583 0.000000
0.072268 0.397473 0.000000
0.108341 0.397250 0.000000
0.144327 0.396899 0.000000
0.180187 0.396411 0.000000
0.215881 0.395781 0.000000
0.251372 0.395013 0.000000
0.286628 0.394113 0.000000
0.321620 0.393091 0.000000
0.356327 0.391960 0.000000
0.390735 0.390735 0.000000
0.424835 0.389432 0.000000
0.458625 0.388067 0.000000
0.492109 0.386657 0.000000
0.525292 0.385214 0.000000
0.558186 0.383753 0.000000
0.590803 0.382285 0.000000
0.623158 0.380819 0.000000
0.655265 0.379364 0.000000
0.687141 0.377927 0.000000
0.718799 0.376514 0.000000
0.750255 0.375127 0.000000
0.781523 0.373772 0.000000
0.812616 0.372449 0.000000
0.843548 0.371161 0.000000
0.874328 0.369908 0.000000
0.904969 0.368691 0.000000
0.935479 0.367510 0.000000
0.965869 0.366364 0.000000
0.996145 0.365253 0.000000
1.000000 0.391354 0.211561
1.000000 0.419845 0.290451
0.000000 0.427689 0.000000
0.035639 0.427667 0.000000
0.071263 0.427576 0.000000
0.106848 0.427391 0.000000
0.142366 0.427099 0.000000
0.177788 0.426691 0.000000
0.213082 0.426163 0.000000
0.248217 0.425514 0.000000
0.283165 0.424748 0.000000
0.317903 0.423871 0.000000
0.352410 0.422892 0.000000
0.386669 0.421821 0.000000
0.420670 0.420670 0.000000
0.454406 0.419452 0.000000
0.487876 0.418179 0.000000
0.521080 0.416864 0.000000
0.554025 0.415518 0.000000
0.586716 0.414152 0.000000
0.619163 0.412775 0.000000
0.651377 0.411396 0.000000
0.683370 0.410022 0.000000
0.715152 0.408658 0.000000
0.746737 0.407311 0.000000
0.778135 0.405983 0.000000
0.809359 0.404679 0.000000
0.840419 0.403401 0.000000
0.871326 0.402150 0.000000
0.902090 0.400929 0.000000
0.932719 0.399737 0.000000
0.963224 0.398575 0.000000
0.993611 0.397444 0.000000
1.000000 0.418278 0.208948
1.000000 0.444067 0.292955
0.000000 0.457658 0.000000
0.035203 0.457640 0.000000
0.070394 0.457562 0.000000
0.105555 0.457407 0.000000
0.140665 0.457160 0.000000
0.175698 0.456815 0.000000
0.210630 0.456365 0.000000
0.245437 0.455811 0.000000
0.280094 0.455153 0.000000
0.314580 0.454394 0.000000
0.348877 0.453541 0.000000
0.382969 0.452600 0.000000
0.416844 0.451581 0.000000
0.450494 0.450494 0.000000
0.483912 0.449347 0.000000
0.517098 0.448151 0.000000
0.550052 0.446917 0.000000
0.582777 0.445653 0.000000
0.615279 0.444368 0.000000
0.647565 0.443071 0.000000
0.679642 0.441767 0.000000
0.711519 0.440464 0.000000
0.743205 0.439167 0.000000
0.774711 0.437880 0.000000
0.806045 0.436608 0.000000
0.837217 0.435353 0.000000
0.868236 0.434118 0.000000
0.899111 0.432905 0.000000
0.929850 0.431716 0.000000
0.960461 0.430551 0.000000
0.990952 0.429412 0.000000
1.000000 0.445797 0.205479
1.000000 0.469153 0.295645
0.000000 0.487523 0.000000
0.034822 0.487508 0.000000
0.069635 0.487442 0.000000
0.104423 0.487309 0.000000
0.139171 0.487098 0.000000
0.173858 0.486802 0.000000
0.208464 0.486415 0.000000
0.242968 0.485936 0.000000
0.277352 0.485365 0.000000
0.311595 0.484704 0.000000
0.345683 0.483956 0.000000
0.379599 0.483126 0.000000
0.413332 0.482220 0.000000
0.446872 0.481247 0.000000
0.480213 0.480213 0.000000
0.513351 0.479128 0.000000
0.546284 0.477998 0.000000
0.579011 0.476833 0.000000
0.611536 0.475639 0.000000
0.643862 0.474424 0.000000
0.675994 0.473196 0.000000
0.707938 0.471959 0.000000
0.739702 0.470719 0.000000
0.771291 0.469482 0.000000
0.802715 0.468251 0.000000
0.833981 0.467029 0.000000
0.865095 0.465821 0.000000
0.896067 0.464628 0.000000
0.926904 0.463452 0.000000
0.957611 0.462295 0.000000
0.988198 0.461159 0.000000
1.000000 0.473779 0.200889
1.000000 0.494942 0.298501
0.000000 0.517293 0.000000
0.034485 0.517280 0.000000
0.068963 0.517223 0.000000
0.103422 0.517108 0.000000
0.137847 0.516925 0.000000
0.172223 0.516668 0.000000
0.206533 0.516332 0.000000
0.240760 0.515915 0.000000
0.274888 0.515415 0.000000
0.308901 0.514834 0.000000
0.342783 0.514174 0.000000
0.376521 0.513438 0.000000
0.410104 0.512630 0.000000
0.443522 0.511757 0.000000
0.476768 0.510823 0.000000
0.509837 0.509837 0.000000
0.542724 0.508804 0.000000
0.575428 0.507731 0.000000
0.607950 0.506625 0.000000
0.640290 0.505492 0.000000
0.672451 0.504339 0.000000
0.704438 0.503170 0.000000
0.736255 0.501992 0.000000
0.767908 0.500809 0.000000
0.799401 0.499626 0.000000
0.830742 0.498445 0.000000
0.861937 0.497271 0.000000
0.892991 0.496106 0.000000
0.923912 0.494953 0.000000
0.954705 0.493813 0.000000
0.985376 0.492688 0.000000
1.000000 0.502121 0.194815
1.000000 0.521303 0.301503
0.000000 0.546973 0.000000
0.034185 0.546961 0.000000
0.068364 0.546911 0.000000
0.102527 0.546811 0.000000
0.136663 0.546651 0.000000
0.170758 0.546426 0.000000
0.204799 0.546132 0.000000
0.238772 0.545765 0.000000
0.272662 0.545324 0.000000
0.306456 0.544810 0.000000
0.340140 0.544224 0.000000
0.373702 0.543567 0.000000
0.407133 0.542844 0.000000
0.440422 0.542057 0.000000
0.473561 0.541213 0.000000
0.506545 0.540315 0.000000
0.539370 0.539370 0.000000
0.572031 0.538383 0.000000
0.604529 0.537359 0.000000
0.636862 0.536305 0.000000
0.669031 0.535225 0.000000
0.701040 0.534125 0.000000
0.732890 0.533011 0.000000
0.764585 0.531885 0.000000
0.796129 0.530753 0.000000
0.827528 0.529618 0.000000
0.858786 0.528484 0.000000
0.889908 0.527353 0.000000
0.920900 0.526228 0.000000
0.951766 0.525112 0.000000
0.982513 0.524007 0.000000
1.000000 0.530747 0.186722
1.000000 0.548127 0.304628
0.000000 0.576568 0.000000
0.033915 0.576558 0.000000
0.067825 0.576514 0.000000
0.101722 0.576425 0.000000
0.135596 0.576285 0.000000
0.169437 0.576086 0.000000
0.203232 0.575825 0.000000
0.236971 0.575500 0.000000
0.270640 0.575109 0.000000
0.304227 0.574651 0.000000
0.337722 0.574127 0.000000
0.371113 0.573539 0.000000
0.404391 0.572888 0.000000
0.437547 0.572177 0.000000
0.470574 0.571411 0.000000
0.503464 0.570592 0.000000
0.536213 0.569727 0.000000
0.568818 0.568818 0.000000
0.601275 0.567871 0.000000
0.633584 0.566891 0.000000
0.665744 0.565882 0.000000
0.697755 0.564849 0.000000
0.729620 0.563797 0.000000
0.761340 0.562730 0.000000
0.792919 0.561651 0.000000
0.824360 0.560564 0.000000
0.855666 0.559474 0.000000
0.886841 0.558382 0.000000
0.917891 0.557291 0.000000
0.948819 0.556204 0.000000
0.979629 0.555123 0.000000
1.000000 0.559597 0.175774
1.000000 0.575326 0.307857
0.000000 0.606083 0.000000
0.033671 0.606074 0.000000
0.067337 0.606035 0.000000
0.100993 0.605957 0.000000
0.134629 0.605832 0.000000
0.168237 0.605655 0.000000
0.201808 0.605423 0.000000
0.235329 0.605133 0.000000
0.268792 0.604783 0.000000
0.302186 0.604373 0.000000
0.335501 0.603902 0.000000
0.368727 0.603372 0.000000
0.401856 0.602784 0.000000
0.434878 0.602139 0.000000
0.467788 0.601442 0.000000
0.500578 0.600694 0.000000
0.533244 0.599899 0.000000
0.565781 0.599062 0.000000
0.598186 0.598186 0.000000
0.630457 0.597275 0.000000
0.662592 0.596333 0.000000
0.694592 0.595364 0.000000
0.726456 0.594373 0.000000
0.758187 0.593363 0.000000
0.789785 0.592338 0.000000
0.821252 0.591302 0.000000
0.852593 0.590256 0.000000
0.883808 0.589206 0.000000
0.914903 0.588152 0.000000
0.945880 0.587098 0.000000
0.976744 0.586046 0.000000
1.000000 0.588624 0.160511
1.000000 0.602830 0.311172
0.000000 0.635523 0.000000
0.033448 0.635515 0.000000
0.066893 0.635480 0.000000
0.100328 0.635410 0.000000
0.133747 0.635298 0.000000
0.167142 0.635140 0.000000
0.200505 0.634932 0.000000
0.233826 0.634671 0.000000
0.267098 0.634357 0.000000
0.300310 0.633987 0.000000
0.333454 0.633562 0.000000
0.366521 0.633083 0.000000
0.399504 0.632549 0.000000
0.432395 0.631962 0.000000
0.465187 0.631325 0.000000
0.497874 0.630640 0.000000
0.530450 0.629910 0.000000
0.562912 0.629137 0.000000
0.595256 0.628325 0.000000
0.627478 0.627478 0.000000
0.659578 0.626599 0.000000
0.691554 0.625691 0.000000
0.723405 0.624759 0.000000
0.755132 0.623805 0.000000
0.786736 0.622833 0.000000
0.818218 0.621846 0.000000
0.849580 0.620847 0.000000
0.880824 0.619839 0.000000
0.911952 0.618825 0.000000
0.942968 0.617806 0.000000
0.973873 0.616787 0.000000
1.000000 0.617796 0.137900
1.000000 0.630579 0.314552
0.000000 0.664891 0.000000
0.033244 0.664884 0.000000
0.066485 0.664853 0.000000
0.099718 0.664790 0.000000
0.132938 0.664689 0.000000
0.166137 0.664546 0.000000
0.199308 0.664358 0.000000
0.232443 0.664123 0.000000
0.265536 0.663839 0.000000
0.298577 0.663504 0.000000
0.331559 0.663119 0.000000
0.364475 0.662683 0.000000
0.397318 0.662196 0.000000
0.430079 0.661660 0.000000
0.462754 0.661077 0.000000
0.495336 0.660448 0.000000
0.527820 0.659775 0.000000
0.560201 0.659060 0.000000
0.592477 0.658308 0.000000
0.624643 0.657519 0.000000
0.656699 0.656699 0.000000
0.688641 0.655848 0.000000
0.720468 0.654971 0.000000
0.752182 0.654071 0.000000
0.783780 0.653150 0.000000
0.815265 0.652212 0.000000
0.846637 0.651260 0.000000
0.877898 0.650295 0.000000
0.909049 0.649321 0.000000
0.940093 0.648340 0.000000
0.971031 0.647354 0.000000
1.000000 0.647090 0.098708
1.000000 0.658525 0.317984
0.000000 0.694192 0.000000
0.033056 0.694185 0.000000
0.066110 0.694157 0.000000
0.099157 0.694099 0.000000
0.132192 0.694008 0.000000
0.165209 0.693879 0.000000
0.198202 0.693709 0.000000
0.231165 0.693495 0.000000
0.264090 0.693237 0.000000
0.296971 0.692932 0.000000
0.329801 0.692581 0.000000
0.362572 0.692183 0.000000
0.395279 0.691738 0.000000
0.427915 0.691247 0.000000
0.460474 0.690711 0.000000
0.492951 0.690131 0.000000
0.525341 0.689510 0.000000
0.557639 0.688848 0.000000
0.589842 0.688149 0.000000
0.621947 0.687415 0.000000
0.653950 0.686648 0.000000
0.685851 0.685851 0.000000
0.717647 0.685026 0.000000
0.749337 0.684177 0.000000
0.780921 0.683306 0.000000
0.812399 0.682415 0.000000
0.843772 0.681508 0.000000
0.875040 0.680586 0.000000
0.906204 0.679653 0.000000
0.937266 0.678710 0.000000
0.968228 0.677759 0.000000
0.999091 0.676803 0.000000
1.000000 0.686628 0.321450
0.000000 0.723427 0.000000
0.032883 0.723421 0.000000
0.065763 0.723395 0.000000
0.098638 0.723343 0.000000
0.131502 0.723260 0.000000
0.164350 0.723142 0.000000
0.197178 0.722987 0.000000
0.229979 0.722792 0.000000
0.262748 0.722557 0.000000
0.295478 0.722278 0.000000
0.328162 0.721957 0.000000
0.360796 0.721592 0.000000
0.393373 0.721183 0.000000
0.425887 0.720732 0.000000
0.458333 0.720238 0.000000
0.490706 0.719702 0.000000
0.523002 0.719127 0.000000
0.555215 0.718513 0.000000
0.587343 0.717863 0.000000
0.619381 0.717178 0.000000
0.651328 0.716461 0.000000
0.683181 0.715713 0.000000
0.714938 0.714938 0.000000
0.746598 0.714137 0.000000
0.778159 0.713313 0.000000
0.809622 0.712468 0.000000
0.840987 0.711605 0.000000
0.872254 0.710725 0.000000
0.903422 0.709832 0.000000
0.934494 0.708927 0.000000
0.965471 0.708012 0.000000
0.996354 0.707090 0.000000
1.000000 0.714858 0.324939
0.000000 0.752600 0.000000
0.032721 0.752594 0.000000
0.065441 0.752571 0.000000
0.098155 0.752523 0.000000
0.130860 0.752447 0.000000
0.163552 0.752339 0.000000
0.196225 0.752198 0.000000
0.228875 0.752019 0.000000
0.261497 0.751803 0.000000
0.294084 0.751548 0.000000
0.326632 0.751253 0.000000
0.359134 0.750917 0.000000
0.391586 0.750541 0.000000
0.423983 0.750124 0.000000
0.456319 0.749667 0.000000
0.488590 0.749172 0.000000
0.520792 0.748638 0.000000
0.552919 0.748067 0.000000
0.584970 0.747461 0.000000
0.616940 0.746822 0.000000
0.648826 0.746150 0.000000
0.680627 0.745448 0.000000
0.712339 0.744718 0.000000
0.743963 0.743963 0.000000
0.775495 0.743183 0.000000
0.806937 0.742382 0.000000
0.838286 0.741561 0.000000
0.869544 0.740723 0.000000
0.900710 0.739869 0.000000
0.931784 0.739001 0.000000
0.962768 0.738122 0.000000
0.993663 0.737234 0.000000
1.000000 0.743187 0.328437
0.000000 0.781714 0.000000
0.032571 0.781709 0.000000
0.065141 0.781687 0.000000
0.097705 0.781643 0.000000
0.130262 0.781573 0.000000
0.162807 0.781474 0.000000
0.195336 0.781344 0.000000
0.227844 0.781180 0.000000
0.260327 0.780981 0.000000
0.292780 0.780746 0.000000
0.325197 0.780474 0.000000
0.357575 0.780164 0.000000
0.389908 0.779816 0.000000
0.422192 0.779431 0.000000
0.454421 0.779008 0.000000
0.486592 0.778547 0.000000
0.518701 0.778051 0.000000
0.550743 0.777519 0.000000
0.582715 0.776954 0.000000
0.614614 0.776355 0.000000
0.646438 0.775725 0.000000
0.678183 0.775066 0.000000
0.709847 0.774379 0.000000
0.741430 0.773666 0.000000
0.772928 0.772928 0.000000
0.804342 0.772168 0.000000
0.835670 0.771388 0.000000
0.866912 0.770589 0.000000
0.898069 0.769773 0.000000
0.929139 0.768943 0.000000
0.960124 0.768099 0.000000
0.991023 0.767244 0.000000
1.000000 0.771594 0.331936
0.000000 0.810770 0.000000
0.032431 0.810766 0.000000
0.064860 0.810746 0.000000
0.097285 0.810705 0.000000
0.129703 0.810641 0.000000
0.162110 0.810550 0.000000
0.194503 0.810430 0.000000
0.226878 0.810278 0.000000
0.259230 0.810095 0.000000
0.291556 0.809877 0.000000
0.323850 0.809626 0.000000
0.356109 0.809339 0.000000
0.388328 0.809016 0.000000
0.420502 0.808659 0.000000
0.452629 0.808265 0.000000
0.484702 0.807837 0.000000
0.516720 0.807374 0.000000
0.548677 0.806878 0.000000
0.580571 0.806349 0.000000
0.612399 0.805788 0.000000
0.644158 0.805197 0.000000
0.675844 0.804577 0.000000
0.707458 0.803929 0.000000
0.738995 0.803255 0.000000
0.770455 0.802557 0.000000
0.801836 0.801836 0.000000
0.833138 0.801095 0.000000
0.864360 0.800333 0.000000
0.895501 0.799555 0.000000
0.926561 0.798760 0.000000
0.957541 0.797951 0.000000
0.988440 0.797129 0.000000
1.000000 0.800059 0.335425
0.000000 0.839772 0.000000
0.032299 0.839768 0.000000
0.064596 0.839750 0.000000
0.096890 0.839712 0.000000
0.129177 0.839653 0.000000
0.161455 0.839568 0.000000
0.193721 0.839457 0.000000
0.225970 0.839317 0.000000
0.258199 0.839147 0.000000
0.290404 0.838945 0.000000
0.322581 0.838712 0.000000
0.354727 0.838445 0.000000
0.386836 0.838146 0.000000
0.418906 0.837813 0.000000
0.450933 0.837446 0.000000
0.482912 0.837047 0.000000
0.514840 0.836615 0.000000
0.546714 0.836150 0.000000
0.578530 0.835654 0.000000
0.610286 0.835128 0.000000
0.641979 0.834572 0.000000
0.673606 0.833988 0.000000
0.705165 0.833377 0.000000
0.736655 0.832741 0.000000
0.768073 0.832079 0.000000
