correction_luts/black_crush_70.cube
# Crushes milky/lifted blacks to true black
# Only affects shadows below 25% luminance
# Apply AFTER LogC to Rec.709 conversion
# Compatible with DaVinci Resolve and Adobe Premiere Pro
# Strength: 0.7
TITLE "Black Crush - Shadow Floor"
LUT_3D_SIZE 33
0.000000 0.000000 0.000000
0.000397 0.000000 0.000000
0.001642 0.000000 0.000000
0.003771 0.000000 0.000000
0.006801 0.000000 0.000000
0.010746 0.000000 0.000000
0.015616 0.000000 0.000000
0.021420 0.000000 0.000000
0.029123 0.000000 0.000000
0.052426 0.000000 0.000000
0.095394 0.000000 0.000000
0.155657 0.000000 0.000000
0.228781 0.000000 0.000000
0.308460 0.000000 0.000000
0.386724 0.000000 0.000000
0.454136 0.000000 0.000000
0.500000 0.000000 0.000000
0.531250 0.000000 0.000000
0.562500 0.000000 0.000000
0.593750 0.000000 0.000000
0.625000 0.000000 0.000000
0.656250 0.000000 0.000000
0.687500 0.000000 0.000000
0.718750 0.000000 0.000000
0.750000 0.000000 0.000000
0.781250 0.000000 0.000000
0.812500 0.000000 0.000000
0.843750 0.000000 0.000000
0.875000 0.000000 0.000000
0.906250 0.000000 0.000000
0.937500 0.000000 0.000000
0.968750 0.000000 0.000000
1.000000 0.000000 0.000000
0.000000 0.000397 0.000000
0.000397 0.000397 0.000000
0.001642 0.000821 0.000000
0.003771 0.001257 0.000000
0.006801 0.001700 0.000000
0.010746 0.002149 0.000000
0.015616 0.002603 0.000000
0.021420 0.003060 0.000000
0.029123 0.003640 0.000000
0.052426 0.005825 0.000000
0.095394 0.009539 0.000000
0.155657 0.014151 0.000000
0.228781 0.019065 0.000000
0.308460 0.023728 0.000000
0.386724 0.027623 0.000000
0.454136 0.030276 0.000000
0.500000 0.031250 0.000000
0.531250 0.031250 0.000000
0.562500 0.031250 0.000000
0.593750 0.031250 0.000000
0.625000 0.031250 0.000000
0.656250 0.031250 0.000000
0.687500 0.031250 0.000000
0.718750 0.031250 0.000000
0.750000 0.031250 0.000000
0.781250 0.031250 0.000000
0.812500 0.031250 0.000000
0.843750 0.031250 0.000000
0.875000 0.031250 0.000000
0.906250 0.031250 0.000000
0.937500 0.031250 0.000000
0.968750 0.031250 0.000000
1.000000 0.031250 0.000000
0.000000 0.001642 0.000000
0.000821 0.001642 0.000000
0.001642 0.001642 0.000000
0.003771 0.002514 0.000000
0.006801 0.003401 0.000000
0.010746 0.004298 0.000000
0.015616 0.005205 0.000000
0.021420 0.006120 0.000000
0.029123 0.007281 0.000000
0.052426 0.011650 0.000000
0.095394 0.019079 0.000000
0.155657 0.028301 0.000000
0.228781 0.038130 0.000000
0.308460 0.047455 0.000000
0.386724 0.055246 0.000000
0.454136 0.060551 0.000000
0.500000 0.062500 0.000000
0.531250 0.062500 0.000000
0.562500 0.062500 0.000000
0.593750 0.062500 0.000000
0.625000 0.062500 0.000000
0.656250 0.062500 0.000000
0.687500 0.062500 0.000000
0.718750 0.062500 0.000000
0.750000 0.062500 0.000000
0.781250 0.062500 0.000000
0.812500 0.062500 0.000000
0.843750 0.062500 0.000000
0.875000 0.062500 0.000000
0.906250 0.062500 0.000000
0.937500 0.062500 0.000000
0.968750 0.062500 0.000000
1.000000 0.062500 0.000000
0.000000 0.003771 0.000000
0.001257 0.003771 0.000000
0.002514 0.003771 0.000000
0.003771 0.003771 0.000000
0.006801 0.005101 0.000000
0.010746 0.006448 0.000000
0.015616 0.007808 0.000000
0.021420 0.009180 0.000000
0.029123 0.010921 0.000000
0.052426 0.017475 0.000000
0.095394 0.028618 0.000000
0.155657 0.042452 0.000000
0.228781 0.057195 0.000000
0.308460 0.071183 0.000000
0.386724 0.082869 0.000000
0.454136 0.090827 0.000000
0.500000 0.093750 0.000000
0.531250 0.093750 0.000000
0.562500 0.093750 0.000000
0.593750 0.093750 0.000000
0.625000 0.093750 0.000000
0.656250 0.093750 0.000000
0.687500 0.093750 0.000000
0.718750 0.093750 0.000000
0.750000 0.093750 0.000000
0.781250 0.093750 0.000000
0.812500 0.093750 0.000000
0.843750 0.093750 0.000000
0.875000 0.093750 0.000000
0.906250 0.093750 0.000000
0.937500 0.093750 0.000000
0.968750 0.093750 0.000000
1.000000 0.093750 0.000000
0.000000 0.006801 0.000000
0.001700 0.006801 0.000000
0.003401 0.006801 0.000000
0.005101 0.006801 0.000000
0.006801 0.006801 0.000000
0.010746 0.008597 0.000000
0.015616 0.010411 0.000000
0.021420 0.012240 0.000000
0.029123 0.014562 0.000000
0.052426 0.023301 0.000000
0.095394 0.038158 0.000000
0.155657 0.056603 0.000000
0.228781 0.076260 0.000000
0.308460 0.094911 0.000000
0.386724 0.110493 0.000000
0.454136 0.121103 0.000000
0.500000 0.125000 0.000000
0.531250 0.125000 0.000000
0.562500 0.125000 0.000000
0.593750 0.125000 0.000000
0.625000 0.125000 0.000000
0.656250 0.125000 0.000000
0.687500 0.125000 0.000000
0.718750 0.125000 0.000000
0.750000 0.125000 0.000000
0.781250 0.125000 0.000000
0.812500 0.125000 0.000000
0.843750 0.125000 0.000000
0.875000 0.125000 0.000000
0.906250 0.125000 0.000000
0.937500 0.125000 0.000000
0.968750 0.125000 0.000000
1.000000 0.125000 0.000000
0.000000 0.010746 0.000000
0.002149 0.010746 0.000000
0.004298 0.010746 0.000000
0.006448 0.010746 0.000000
0.008597 0.010746 0.000000
0.010746 0.010746 0.000000
0.015616 0.013013 0.000000
0.021420 0.015300 0.000000
0.029123 0.018202 0.000000
0.052426 0.029126 0.000000
0.095394 0.047697 0.000000
0.155657 0.070753 0.000000
0.228781 0.095325 0.000000
0.308460 0.118639 0.000000
0.386724 0.138116 0.000000
0.454136 0.151379 0.000000
0.500000 0.156250 0.000000
0.531250 0.156250 0.000000
0.562500 0.156250 0.000000
0.593750 0.156250 0.000000
0.625000 0.156250 0.000000
0.656250 0.156250 0.000000
0.687500 0.156250 0.000000
0.718750 0.156250 0.000000
0.750000 0.156250 0.000000
0.781250 0.156250 0.000000
0.812500 0.156250 0.000000
0.843750 0.156250 0.000000
0.875000 0.156250 0.000000
0.906250 0.156250 0.000000
0.937500 0.156250 0.000000
0.968750 0.156250 0.000000
1.000000 0.156250 0.000000
0.000000 0.015616 0.000000
0.002603 0.015616 0.000000
0.005205 0.015616 0.000000
0.007808 0.015616 0.000000
0.010411 0.015616 0.000000
0.013013 0.015616 0.000000
0.015616 0.015616 0.000000
0.021420 0.018360 0.000000
0.029123 0.021842 0.000000
0.052426 0.034951 0.000000
0.095394 0.057236 0.000000
0.155657 0.084904 0.000000
0.228781 0.114390 0.000000
0.308460 0.142366 0.000000
0.386724 0.165739 0.000000
0.454136 0.181654 0.000000
0.500000 0.187500 0.000000
0.531250 0.187500 0.000000
0.562500 0.187500 0.000000
0.593750 0.187500 0.000000
0.625000 0.187500 0.000000
0.656250 0.187500 0.000000
0.687500 0.187500 0.000000
0.718750 0.187500 0.000000
0.750000 0.187500 0.000000
0.781250 0.187500 0.000000
0.812500 0.187500 0.000000
0.843750 0.187500 0.000000
0.875000 0.187500 0.000000
0.906250 0.187500 0.000000
0.937500 0.187500 0.000000
0.968750 0.187500 0.000000
1.000000 0.187500 0.000000
0.000000 0.021420 0.000000
0.003060 0.021420 0.000000
0.006120 0.021420 0.000000
0.009180 0.021420 0.000000
0.012240 0.021420 0.000000
0.015300 0.021420 0.000000
0.018360 0.021420 0.000000
0.021420 0.021420 0.000000
0.029123 0.025483 0.000000
0.052426 0.040776 0.000000
0.095394 0.066776 0.000000
0.155657 0.099055 0.000000
0.228781 0.133456 0.000000
0.308460 0.166094 0.000000
0.386724 0.193362 0.000000
0.454136 0.211930 0.000000
0.500000 0.218750 0.000000
0.531250 0.218750 0.000000
0.562500 0.218750 0.000000
0.593750 0.218750 0.000000
0.625000 0.218750 0.000000
0.656250 0.218750 0.000000
0.687500 0.218750 0.000000
0.718750 0.218750 0.000000
0.750000 0.218750 0.000000
0.781250 0.218750 0.000000
0.812500 0.218750 0.000000
0.843750 0.218750 0.000000
0.875000 0.218750 0.000000
0.906250 0.218750 0.000000
0.937500 0.218750 0.000000
0.968750 0.218750 0.000000
1.000000 0.218750 0.000000
0.000000 0.029123 0.000000
0.003640 0.029123 0.000000
0.007281 0.029123 0.000000
0.010921 0.029123 0.000000
0.014562 0.029123 0.000000
0.018202 0.029123 0.000000
0.021842 0.029123 0.000000
0.025483 0.029123 0.000000
0.029123 0.029123 0.000000
0.052426 0.046601 0.000000
0.095394 0.076315 0.000000
0.155657 0.113205 0.000000
0.228781 0.152521 0.000000
0.308460 0.189822 0.000000
0.386724 0.220985 0.000000
0.454136 0.242206 0.000000
0.500000 0.250000 0.000000
0.531250 0.250000 0.000000
0.562500 0.250000 0.000000
0.593750 0.250000 0.000000
0.625000 0.250000 0.000000
0.656250 0.250000 0.000000
0.687500 0.250000 0.000000
0.718750 0.250000 0.000000
0.750000 0.250000 0.000000
0.781250 0.250000 0.000000
0.812500 0.250000 0.000000
0.843750 0.250000 0.000000
0.875000 0.250000 0.000000
0.906250 0.250000 0.000000
0.937500 0.250000 0.000000
0.968750 0.250000 0.000000
1.000000 0.250000 0.000000
0.000000 0.052426 0.000000
0.005825 0.052426 0.000000
0.011650 0.052426 0.000000
0.017475 0.052426 0.000000
0.023301 0.052426 0.000000
0.029126 0.052426 0.000000
0.034951 0.052426 0.000000
0.040776 0.052426 0.000000
0.046601 0.052426 0.000000
0.052426 0.052426 0.000000
0.095394 0.085854 0.000000
0.155657 0.127356 0.000000
0.228781 0.171586 0.000000
0.308460 0.213549 0.000000
0.386724 0.248608 0.000000
0.454136 0.272482 0.000000
0.500000 0.281250 0.000000
0.531250 0.281250 0.000000
0.562500 0.281250 0.000000
0.593750 0.281250 0.000000
0.625000 0.281250 0.000000
0.656250 0.281250 0.000000
0.687500 0.281250 0.000000
0.718750 0.281250 0.000000
0.750000 0.281250 0.000000
0.781250 0.281250 0.000000
0.812500 0.281250 0.000000
0.843750 0.281250 0.000000
0.875000 0.281250 0.000000
0.906250 0.281250 0.000000
0.937500 0.281250 0.000000
0.968750 0.281250 0.000000
1.000000 0.281250 0.000000
0.000000 0.095394 0.000000
0.009539 0.095394 0.000000
0.019079 0.095394 0.000000
0.028618 0.095394 0.000000
0.038158 0.095394 0.000000
0.047697 0.095394 0.000000
0.057236 0.095394 0.000000
0.066776 0.095394 0.000000
0.076315 0.095394 0.000000
0.085854 0.095394 0.000000
0.095394 0.095394 0.000000
0.155657 0.141507 0.000000
0.228781 0.190651 0.000000
0.308460 0.237277 0.000000
0.386724 0.276231 0.000000
0.454136 0.302757 0.000000
0.500000 0.312500 0.000000
0.531250 0.312500 0.000000
0.562500 0.312500 0.000000
0.593750 0.312500 0.000000
0.625000 0.312500 0.000000
0.656250 0.312500 0.000000
0.687500 0.312500 0.000000
0.718750 0.312500 0.000000
0.750000 0.312500 0.000000
0.781250 0.312500 0.000000
0.812500 0.312500 0.000000
0.843750 0.312500 0.000000
0.875000 0.312500 0.000000
0.906250 0.312500 0.000000
0.937500 0.312500 0.000000
0.968750 0.312500 0.000000
1.000000 0.312500 0.000000
0.000000 0.155657 0.000000
0.014151 0.155657 0.000000
0.028301 0.155657 0.000000
0.042452 0.155657 0.000000
0.056603 0.155657 0.000000
0.070753 0.155657 0.000000
0.084904 0.155657 0.000000
0.099055 0.155657 0.000000
0.113205 0.155657 0.000000
0.127356 0.155657 0.000000
0.141507 0.155657 0.000000
0.155657 0.155657 0.000000
0.228781 0.209716 0.000000
0.308460 0.261005 0.000000
0.386724 0.303855 0.000000
0.454136 0.333033 0.000000
0.500000 0.343750 0.000000
0.531250 0.343750 0.000000
0.562500 0.343750 0.000000
0.593750 0.343750 0.000000
0.625000 0.343750 0.000000
0.656250 0.343750 0.000000
0.687500 0.343750 0.000000
0.718750 0.343750 0.000000
0.750000 0.343750 0.000000
0.781250 0.343750 0.000000
0.812500 0.343750 0.000000
0.843750 0.343750 0.000000
0.875000 0.343750 0.000000
0.906250 0.343750 0.000000
0.937500 0.343750 0.000000
0.968750 0.343750 0.000000
1.000000 0.343750 0.000000
0.000000 0.228781 0.000000
0.019065 0.228781 0.000000
0.038130 0.228781 0.000000
0.057195 0.228781 0.000000
0.076260 0.228781 0.000000
0.095325 0.228781 0.000000
0.114390 0.228781 0.000000
0.133456 0.228781 0.000000
0.152521 0.228781 0.000000
0.171586 0.228781 0.000000
0.190651 0.228781 0.000000
0.209716 0.228781 0.000000
0.228781 0.228781 0.000000
0.308460 0.284733 0.000000
0.386724 0.331478 0.000000
0.454136 0.363309 0.000000
0.500000 0.375000 0.000000
0.531250 0.375000 0.000000
0.562500 0.375000 0.000000
0.593750 0.375000 0.000000
0.625000 0.375000 0.000000
0.656250 0.375000 0.000000
0.687500 0.375000 0.000000
0.718750 0.375000 0.000000
0.750000 0.375000 0.000000
0.781250 0.375000 0.000000
0.812500 0.375000 0.000000
0.843750 0.375000 0.000000
0.875000 0.375000 0.000000
0.906250 0.375000 0.000000
0.937500 0.375000 0.000000
0.968750 0.375000 0.000000
1.000000 0.375000 0.000000
0.000000 0.308460 0.000000
0.023728 0.308460 0.000000
0.047455 0.308460 0.000000
0.071183 0.308460 0.000000
0.094911 0.308460 0.000000
0.118639 0.308460 0.000000
0.142366 0.308460 0.000000
0.166094 0.308460 0.000000
0.189822 0.308460 0.000000
0.213549 0.308460 0.000000
0.237277 0.308460 0.000000
0.261005 0.308460 0.000000
0.284733 0.308460 0.000000
0.308460 0.308460 0.000000
0.386724 0.359101 0.000000
0.454136 0.393585 0.000000
0.500000 0.406250 0.000000
0.531250 0.406250 0.000000
0.562500 0.406250 0.000000
0.593750 0.406250 0.000000
0.625000 0.406250 0.000000
0.656250 0.406250 0.000000
0.687500 0.406250 0.000000
0.718750 0.406250 0.000000
0.750000 0.406250 0.000000
0.781250 0.406250 0.000000
0.812500 0.406250 0.000000
0.843750 0.406250 0.000000
0.875000 0.406250 0.000000
0.906250 0.406250 0.000000
0.937500 0.406250 0.000000
0.968750 0.406250 0.000000
1.000000 0.406250 0.000000
0.000000 0.386724 0.000000
0.027623 0.386724 0.000000
0.055246 0.386724 0.000000
0.082869 0.386724 0.000000
0.110493 0.386724 0.000000
0.138116 0.386724 0.000000
0.165739 0.386724 0.000000
0.193362 0.386724 0.000000
0.220985 0.386724 0.000000
0.248608 0.386724 0.000000
0.276231 0.386724 0.000000
0.303855 0.386724 0.000000
0.331478 0.386724 0.000000
0.359101 0.386724 0.000000
0.386724 0.386724 0.000000
0.454136 0.423860 0.000000
0.500000 0.437500 0.000000
0.531250 0.437500 0.000000
0.562500 0.437500 0.000000
0.593750 0.437500 0.000000
0.625000 0.437500 0.000000
0.656250 0.437500 0.000000
0.687500 0.437500 0.000000
0.718750 0.437500 0.000000
0.750000 0.437500 0.000000
0.781250 0.437500 0.000000
0.812500 0.437500 0.000000
0.843750 0.437500 0.000000
0.875000 0.437500 0.000000
0.906250 0.437500 0.000000
0.937500 0.437500 0.000000
0.968750 0.437500 0.000000
1.000000 0.437500 0.000000
0.000000 0.454136 0.000000
0.030276 0.454136 0.000000
0.060551 0.454136 0.000000
0.090827 0.454136 0.000000
0.121103 0.454136 0.000000
0.151379 0.454136 0.000000
0.181654 0.454136 0.000000
0.211930 0.454136 0.000000
0.242206 0.454136 0.000000
0.272482 0.454136 0.000000
0.302757 0.454136 0.000000
0.333033 0.454136 0.000000
0.363309 0.454136 0.000000
0.393585 0.454136 0.000000
0.423860 0.454136 0.000000
0.454136 0.454136 0.000000
0.500000 0.468750 0.000000
0.531250 0.468750 0.000000
0.562500 0.468750 0.000000
0.593750 0.468750 0.000000
0.625000 0.468750 0.000000
0.656250 0.468750 0.000000
0.687500 0.468750 0.000000
0.718750 0.468750 0.000000
0.750000 0.468750 0.000000
0.781250 0.468750 0.000000
0.812500 0.468750 0.000000
0.843750 0.468750 0.000000
0.875000 0.468750 0.000000
0.906250 0.468750 0.000000
0.937500 0.468750 0.000000
0.968750 0.468750 0.000000
1.000000 0.468750 0.000000
0.000000 0.500000 0.000000
0.031250 0.500000 0.000000
0.062500 0.500000 0.000000
0.093750 0.500000 0.000000
0.125000 0.500000 0.000000
0.156250 0.500000 0.000000
0.187500 0.500000 0.000000
0.218750 0.500000 0.000000
0.250000 0.500000 0.000000
0.281250 0.500000 0.000000
0.312500 0.500000 0.000000
0.343750 0.500000 0.000000
0.375000 0.500000 0.000000
0.406250 0.500000 0.000000
0.437500 0.500000 0.000000
0.468750 0.500000 0.000000
0.500000 0.500000 0.000000
0.531250 0.500000 0.000000
0.562500 0.500000 0.000000
0.593750 0.500000 0.000000
0.625000 0.500000 0.000000
0.656250 0.500000 0.000000
0.687500 0.500000 0.000000
0.718750 0.500000 0.000000
0.750000 0.500000 0.000000
0.781250 0.500000 0.000000
0.812500 0.500000 0.000000
0.843750 0.500000 0.000000
0.875000 0.500000 0.000000
0.906250 0.500000 0.000000
0.937500 0.500000 0.000000
0.968750 0.500000 0.000000
1.000000 0.500000 0.000000
0.000000 0.531250 0.000000
0.031250 0.531250 0.000000
0.062500 0.531250 0.000000
0.093750 0.531250 0.000000
0.125000 0.531250 0.000000
0.156250 0.531250 0.000000
0.187500 0.531250 0.000000
0.218750 0.531250 0.000000
0.250000 0.531250 0.000000
0.281250 0.531250 0.000000
0.312500 0.531250 0.000000
0.343750 0.531250 0.000000
0.375000 0.531250 0.000000
0.406250 0.531250 0.000000
0.437500 0.531250 0.000000
0.468750 0.531250 0.000000
0.500000 0.531250 0.000000
0.531250 0.531250 0.000000
0.562500 0.531250 0.000000
0.593750 0.531250 0.000000
0.625000 0.531250 0.000000
0.656250 0.531250 0.000000
0.687500 0.531250 0.000000
0.718750 0.531250 0.000000
0.750000 0.531250 0.000000
0.781250 0.531250 0.000000
0.812500 0.531250 0.000000
0.843750 0.531250 0.000000
0.875000 0.531250 0.000000
0.906250 0.531250 0.000000
0.937500 0.531250 0.000000
0.968750 0.531250 0.000000
1.000000 0.531250 0.000000
0.000000 0.562500 0.000000
0.031250 0.562500 0.000000
0.062500 0.562500 0.000000
0.093750 0.562500 0.000000
0.125000 0.562500 0.000000
0.156250 0.562500 0.000000
0.187500 0.562500 0.000000
0.218750 0.562500 0.000000
0.250000 0.562500 0.000000
0.281250 0.562500 0.000000
0.312500 0.562500 0.000000
0.343750 0.562500 0.000000
0.375000 0.562500 0.000000
0.406250 0.562500 0.000000
0.437500 0.562500 0.000000
0.468750 0.562500 0.000000
0.500000 0.562500 0.000000
0.531250 0.562500 0.000000
0.562500 0.562500 0.000000
0.593750 0.562500 0.000000
0.625000 0.562500 0.000000
0.656250 0.562500 0.000000
0.687500 0.562500 0.000000
0.718750 0.562500 0.000000
0.750000 0.562500 0.000000
0.781250 0.562500 0.000000
0.812500 0.562500 0.000000
0.843750 0.562500 0.000000
0.875000 0.562500 0.000000
0.906250 0.562500 0.000000
0.937500 0.562500 0.000000
0.968750 0.562500 0.000000
1.000000 0.562500 0.000000
0.000000 0.593750 0.000000
0.031250 0.593750 0.000000
0.062500 0.593750 0.000000
0.093750 0.593750 0.000000
0.125000 0.593750 0.000000
0.156250 0.593750 0.000000
0.187500 0.593750 0.000000
0.218750 0.593750 0.000000
0.250000 0.593750 0.000000
0.281250 0.593750 0.000000
0.312500 0.593750 0.000000
0.343750 0.593750 0.000000
0.375000 0.593750 0.000000
0.406250 0.593750 0.000000
0.437500 0.593750 0.000000
0.468750 0.593750 0.000000
0.500000 0.593750 0.000000
0.531250 0.593750 0.000000
0.562500 0.593750 0.000000
0.593750 0.593750 0.000000
0.625000 0.593750 0.000000
0.656250 0.593750 0.000000
0.687500 0.593750 0.000000
0.718750 0.593750 0.000000
0.750000 0.593750 0.000000
0.781250 0.593750 0.000000
0.812500 0.593750 0.000000
0.843750 0.593750 0.000000
0.875000 0.593750 0.000000
0.906250 0.593750 0.000000
0.937500 0.593750 0.000000
0.968750 0.593750 0.000000
1.000000 0.593750 0.000000
0.000000 0.625000 0.000000
0.031250 0.625000 0.000000
0.062500 0.625000 0.000000
0.093750 0.625000 0.000000
0.125000 0.625000 0.000000
0.156250 0.625000 0.000000
0.187500 0.625000 0.000000
0.218750 0.625000 0.000000
0.250000 0.625000 0.000000
0.281250 0.625000 0.000000
0.312500 0.625000 0.000000
0.343750 0.625000 0.000000
0.375000 0.625000 0.000000
0.406250 0.625000 0.000000
0.437500 0.625000 0.000000
0.468750 0.625000 0.000000
0.500000 0.625000 0.000000
0.531250 0.625000 0.000000
0.562500 0.625000 0.000000
0.593750 0.625000 0.000000
0.625000 0.625000 0.000000
0.656250 0.625000 0.000000
0.687500 0.625000 0.000000
0.718750 0.625000 0.000000
0.750000 0.625000 0.000000
0.781250 0.625000 0.000000
0.812500 0.625000 0.000000
0.843750 0.625000 0.000000
0.875000 0.625000 0.000000
0.906250 0.625000 0.000000
0.937500 0.625000 0.000000
0.968750 0.625000 0.000000
1.000000 0.625000 0.000000
0.000000 0.656250 0.000000
0.031250 0.656250 0.000000
0.062500 0.656250 0.000000
0.093750 0.656250 0.000000
0.125000 0.656250 0.000000
0.156250 0.656250 0.000000
0.187500 0.656250 0.000000
0.218750 0.656250 0.000000
0.250000 0.656250 0.000000
0.281250 0.656250 0.000000
0.312500 0.656250 0.000000
0.343750 0.656250 0.000000
0.375000 0.656250 0.000000
0.406250 0.656250 0.000000
0.437500 0.656250 0.000000
0.468750 0.656250 0.000000
0.500000 0.656250 0.000000
0.531250 0.656250 0.000000
0.562500 0.656250 0.000000
0.593750 0.656250 0.000000
0.625000 0.656250 0.000000
0.656250 0.656250 0.000000
0.687500 0.656250 0.000000
0.718750 0.656250 0.000000
0.750000 0.656250 0.000000
0.781250 0.656250 0.000000
0.812500 0.656250 0.000000
0.843750 0.656250 0.000000
0.875000 0.656250 0.000000
0.906250 0.656250 0.000000
0.937500 0.656250 0.000000
0.968750 0.656250 0.000000
1.000000 0.656250 0.000000
0.000000 0.687500 0.000000
0.031250 0.687500 0.000000
0.062500 0.687500 0.000000
0.093750 0.687500 0.000000
0.125000 0.687500 0.000000
0.156250 0.687500 0.000000
0.187500 0.687500 0.000000
0.218750 0.687500 0.000000
0.250000 0.687500 0.000000
0.281250 0.687500 0.000000
0.312500 0.687500 0.000000
0.343750 0.687500 0.000000
0.375000 0.687500 0.000000
0.406250 0.687500 0.000000
0.437500 0.687500 0.000000
0.468750 0.687500 0.000000
0.500000 0.687500 0.000000
0.531250 0.687500 0.000000
0.562500 0.687500 0.000000
0.593750 0.687500 0.000000
0.625000 0.687500 0.000000
0.656250 0.687500 0.000000
0.687500 0.687500 0.000000
0.718750 0.687500 0.000000
0.750000 0.687500 0.000000
0.781250 0.687500 0.000000
0.812500 0.687500 0.000000
0.843750 0.687500 0.000000
0.875000 0.687500 0.000000
0.906250 0.687500 0.000000
0.937500 0.687500 0.000000
0.968750 0.687500 0.000000
1.000000 0.687500 0.000000
0.000000 0.718750 0.000000
0.031250 0.718750 0.000000
0.062500 0.718750 0.000000
0.093750 0.718750 0.000000
0.125000 0.718750 0.000000
0.156250 0.718750 0.000000
0.187500 0.718750 0.000000
0.218750 0.718750 0.000000
0.250000 0.718750 0.000000
0.281250 0.718750 0.000000
0.312500 0.718750 0.000000
0.343750 0.718750 0.000000
0.375000 0.718750 0.000000
0.406250 0.718750 0.000000
0.437500 0.718750 0.000000
0.468750 0.718750 0.000000
0.500000 0.718750 0.000000
0.531250 0.718750 0.000000
0.562500 0.718750 0.000000
0.593750 0.718750 0.000000
0.625000 0.718750 0.000000
0.656250 0.718750 0.000000
0.687500 0.718750 0.000000
0.718750 0.718750 0.000000
0.750000 0.718750 0.000000
0.781250 0.718750 0.000000
0.812500 0.718750 0.000000
0.843750 0.718750 0.000000
0.875000 0.718750 0.000000
0.906250 0.718750 0.000000
0.937500 0.718750 0.000000
0.968750 0.718750 0.000000
1.000000 0.718750 0.000000
0.000000 0.750000 0.000000
0.031250 0.750000 0.000000
0.062500 0.750000 0.000000
0.093750 0.750000 0.000000
0.125000 0.750000 0.000000
0.156250 0.750000 0.000000
0.187500 0.750000 0.000000
0.218750 0.750000 0.000000
0.250000 0.750000 0.000000
0.281250 0.750000 0.000000
0.312500 0.750000 0.000000
0.343750 0.750000 0.000000
0.375000 0.750000 0.000000
0.406250 0.750000 0.000000
0.437500 0.750000 0.000000
0.468750 0.750000 0.000000
0.500000 0.750000 0.000000
0.531250 0.750000 0.000000
0.562500 0.750000 0.000000
0.593750 0.750000 0.000000
0.625000 0.750000 0.000000
0.656250 0.750000 0.000000
0.687500 0.750000 0.000000
0.718750 0.750000 0.000000
0.750000 0.750000 0.000000
0.781250 0.750000 0.000000
0.812500 0.750000 0.000000
0.843750 0.750000 0.000000
0.875000 0.750000 0.000000
0.906250 0.750000 0.000000
0.937500 0.750000 0.000000
0.968750 0.750000 0.000000
1.000000 0.750000 0.000000
0.000000 0.781250 0.000000
0.031250 0.781250 0.000000
0.062500 0.781250 0.000000
0.093750 0.781250 0.000000
0.125000 0.781250 0.000000
0.156250 0.781250 0.000000
0.187500 0.781250 0.000000
0.218750 0.781250 0.000000
0.250000 0.781250 0.000000
0.281250 0.781250 0.000000
0.312500 0.781250 0.000000
0.343750 0.781250 0.000000
0.375000 0.781250 0.000000
0.406250 0.781250 0.000000
0.437500 0.781250 0.000000
0.468750 0.781250 0.000000
0.500000 0.781250 0.000000
0.531250 0.781250 0.000000
0.562500 0.781250 0.000000
0.593750 0.781250 0.000000
0.625000 0.781250 0.000000
0.656250 0.781250 0.000000
0.687500 0.781250 0.000000
0.718750 0.781250 0.000000
0.750000 0.781250 0.000000
0.781250 0.781250 0.000000
0.812500 0.781250 0.000000
0.843750 0.781250 0.000000
0.875000 0.781250 0.000000
0.906250 0.781250 0.000000
0.937500 0.781250 0.000000
0.968750 0.781250 0.000000
1.000000 0.781250 0.000000
0.000000 0.812500 0.000000
0.031250 0.812500 0.000000
0.062500 0.812500 0.000000
0.093750 0.812500 0.000000
0.125000 0.812500 0.000000
0.156250 0.812500 0.000000
0.187500 0.812500 0.000000
0.218750 0.812500 0.000000
0.250000 0.812500 0.000000
0.281250 0.812500 0.000000
0.312500 0.812500 0.000000
0.343750 0.812500 0.000000
0.375000 0.812500 0.000000
0.406250 0.812500 0.000000
0.437500 0.812500 0.000000
0.468750 0.812500 0.000000
0.500000 0.812500 0.000000
0.531250 0.812500 0.000000
0.562500 0.812500 0.000000
0.593750 0.812500 0.000000
0.625000 0.812500 0.000000
