correction_luts/cinema_dark.cube
# Strong gamma pull + highlight rolloff for dark cinematic look
# Much darker than film_contrast — use for moody/dramatic scenes
# Strength: 1.0
# Color model: linear-light tone (v2)
TITLE "Cinema Dark - Deep Moody Contrast"
LUT_3D_SIZE 5
0.003439 0.003439 0.003439
0.120029 0.000000 0.000000
0.296406 0.000000 0.000000
0.515087 0.000000 0.000000
0.767768 0.000000 0.000000
0.000000 0.139154 0.000000
0.144248 0.144248 0.000000
0.318815 0.159408 0.000000
0.533062 0.177687 0.000000
0.782381 0.195595 0.000000
0.000000 0.356757 0.000000
0.179956 0.359912 0.000000
0.372098 0.372098 0.000000
0.588337 0.392225 0.000000
0.833657 0.416829 0.000000
0.000000 0.628382 0.000000
0.210209 0.630626 0.000000
0.426552 0.639828 0.000000
0.656825 0.656825 0.000000
0.907184 0.680388 0.000000
0.000000 0.949578 0.000000
0.237548 0.950190 0.000000
0.475645 0.951291 0.000000
0.710065 0.946753 0.000000
0.924087 0.924087 0.000000
0.000000 0.000000 0.109089
0.123963 0.000000 0.123963
0.299087 0.000000 0.149543
0.517044 0.000000 0.172348
0.769304 0.000000 0.192326
0.000000 0.140994 0.140994
0.145783 0.145783 0.145783
0.320686 0.160343 0.160343
0.534722 0.178241 0.178241
0.783787 0.195947 0.195947
0.000000 0.357844 0.178922
0.180477 0.360954 0.180477
0.372988 0.372988 0.186494
0.589378 0.392919 0.196459
0.834703 0.417351 0.208676
0.000000 0.629148 0.209716
0.210460 0.631379 0.210460
0.427022 0.640533 0.213511
0.657449 0.657449 0.219150
0.907995 0.680996 0.226999
0.000000 0.949802 0.237450
0.237592 0.950366 0.237592
0.475639 0.951277 0.237819
0.709807 0.946410 0.236602
0.923332 0.923332 0.230833
0.000000 0.000000 0.256604
0.135730 0.000000 0.271460
0.309356 0.000000 0.309356
0.525034 0.000000 0.350022
0.775716 0.000000 0.387858
0.000000 0.147708 0.295415
0.151552 0.151552 0.303104
0.328131 0.164065 0.328131
0.541559 0.180520 0.361039
0.789671 0.197418 0.394835
0.000000 0.362322 0.362322
0.182628 0.365256 0.365256
0.376684 0.376684 0.376684
0.593738 0.395825 0.395825
0.839108 0.419554 0.419554
0.000000 0.632378 0.421585
0.211519 0.634557 0.423038
0.429005 0.643508 0.429005
0.660090 0.660090 0.440060
0.913708 0.685281 0.456854
0.000000 0.950577 0.475288
0.237736 0.950944 0.475472
0.475531 0.951062 0.475531
0.708608 0.944811 0.472406
0.920005 0.920005 0.460003
0.000000 0.000000 0.437868
0.150024 0.000000 0.450071
0.326097 0.000000 0.489145
0.539656 0.000000 0.539656
0.788018 0.000000 0.591013
0.000000 0.157877 0.473630
0.160682 0.160682 0.482045
0.341100 0.170550 0.511650
0.554291 0.184764 0.554291
0.801022 0.200256 0.600767
0.000000 0.370676 0.556014
0.186657 0.373314 0.559971
0.383700 0.383700 0.575550
0.602156 0.401437 0.602156
0.847738 0.423869 0.635804
0.000000 0.638711 0.638711
0.213597 0.640792 0.640792
0.432907 0.649361 0.649361
0.665309 0.665309 0.665309
0.923846 0.692885 0.692885
0.000000 0.951282 0.713462
0.237817 0.951269 0.713452
0.474930 0.949860 0.712395
0.705704 0.940939 0.705704
0.912781 0.912781 0.684585
0.000000 0.000000 0.646469
0.164128 0.000000 0.656513
0.346323 0.000000 0.692646
0.559692 0.000000 0.746256
0.805986 0.000000 0.805986
0.000000 0.169409 0.677635
0.171419 0.171419 0.685677
0.357867 0.178934 0.715735
0.572136 0.190712 0.762848
0.817739 0.204435 0.817739
0.000000 0.382413 0.764827
0.192347 0.384695 0.769389
0.393795 0.393795 0.787589
0.614567 0.409711 0.819422
0.860742 0.430371 0.860742
0.000000 0.648268 0.864357
0.216737 0.650212 0.866950
0.438827 0.658241 0.877654
0.673279 0.673279 0.897705
0.936331 0.702249 0.936331
0.000000 0.950164 0.950164
0.237399 0.949596 0.949596
0.472978 0.945956 0.945956
0.699836 0.933115 0.933115
0.900000 0.900000 0.900000
