correction_luts/cinema_dark.cube
# Strong gamma pull + highlight rolloff for dark cinematic look
# Much darker than film_contrast — use for moody/dramatic scenes
# Strength: 1.0
# Color model: linear-light tone (v2)
TITLE "Cinema Dark - Deep Moody Contrast"
LUT_3D_SIZE 9
0.003439 0.003439 0.003439
0.052765 0.000000 0.000000
0.120029 0.000000 0.000000
0.202162 0.000000 0.000000
0.296406 0.000000 0.000000
0.401096 0.000000 0.000000
0.515087 0.000000 0.000000
0.637531 0.000000 0.000000
0.767768 0.000000 0.000000
0.000000 0.057391 0.000000
0.058847 0.058847 0.000000
0.126908 0.063454 0.000000
0.208047 0.069349 0.000000
0.301341 0.075335 0.000000
0.405297 0.081059 0.000000
0.518731 0.086455 0.000000
0.640743 0.091535 0.000000
0.770638 0.096330 0.000000
0.000000 0.139154 0.000000
0.070098 0.140196 0.000000
0.144248 0.144248 0.000000
0.226531 0.151020 0.000000
0.318815 0.159408 0.000000
0.421195 0.168478 0.000000
0.533062 0.177687 0.000000
0.653682 0.186766 0.000000
0.782381 0.195595 0.000000
0.000000 0.240188 0.000000
0.080320 0.240959 0.000000
0.162749 0.244124 0.000000
0.249989 0.249989 0.000000
0.344214 0.258160 0.000000
0.446601 0.267961 0.000000
0.557492 0.278746 0.000000
0.676734 0.290029 0.000000
0.803954 0.301483 0.000000
0.000000 0.356757 0.000000
0.089341 0.357365 0.000000
0.179956 0.359912 0.000000
0.273625 0.364834 0.000000
0.372098 0.372098 0.000000
0.476725 0.381380 0.000000
0.588337 0.392225 0.000000
0.707301 0.404172 0.000000
0.833657 0.416829 0.000000
0.000000 0.486654 0.000000
0.097431 0.487156 0.000000
0.195711 0.489278 0.000000
0.296075 0.493458 0.000000
0.399851 0.499814 0.000000
0.508238 0.508238 0.000000
0.622166 0.518472 0.000000
0.742261 0.530186 0.000000
0.868860 0.543038 0.000000
0.000000 0.628382 0.000000
0.104802 0.628810 0.000000
0.210209 0.630626 0.000000
0.317120 0.634240 0.000000
0.426552 0.639828 0.000000
0.539497 0.647396 0.000000
0.656825 0.656825 0.000000
0.779224 0.667907 0.000000
0.907184 0.680388 0.000000
0.000000 0.780838 0.000000
0.111602 0.781211 0.000000
0.223657 0.782798 0.000000
0.336847 0.785976 0.000000
0.451964 0.790938 0.000000
0.571999 0.800798 0.000000
0.698055 0.814398 0.000000
0.825660 0.825660 0.000000
0.950728 0.831887 0.000000
0.000000 0.949578 0.000000
0.118713 0.949705 0.000000
0.237548 0.950190 0.000000
0.356587 0.950898 0.000000
0.475645 0.951291 0.000000
0.593988 0.950381 0.000000
0.710065 0.946753 0.000000
0.821316 0.938647 0.000000
0.924087 0.924087 0.000000
0.000000 0.000000 0.051771
0.053552 0.000000 0.053552
0.120833 0.000000 0.060417
0.202799 0.000000 0.067600
0.296923 0.000000 0.074231
0.401530 0.000000 0.080306
0.515460 0.000000 0.085910
0.637859 0.000000 0.091123
0.768060 0.000000 0.096007
0.000000 0.057910 0.057910
0.059297 0.059297 0.059297
0.127497 0.063748 0.063748
0.208594 0.069531 0.069531
0.301816 0.075454 0.075454
0.405709 0.081142 0.081142
0.519092 0.086515 0.086515
0.641063 0.091580 0.091580
0.770925 0.096366 0.096366
0.000000 0.139512 0.069756
0.070270 0.140541 0.070270
0.144545 0.144545 0.072273
0.226883 0.151255 0.075628
0.319174 0.159587 0.079793
0.421536 0.168614 0.084307
0.533378 0.177793 0.088896
0.653973 0.186849 0.093425
0.782649 0.195662 0.097831
0.000000 0.240451 0.080150
0.080406 0.241218 0.080406
0.162911 0.244366 0.081455
0.250205 0.250205 0.083402
0.344460 0.258345 0.086115
0.446858 0.268115 0.089372
0.557748 0.278874 0.092958
0.676981 0.290135 0.096712
0.804190 0.301571 0.100524
0.000000 0.356964 0.089241
0.089393 0.357571 0.089393
0.180055 0.360111 0.090028
0.273765 0.365020 0.091255
0.372267 0.372267 0.093067
0.476913 0.381531 0.095383
0.588535 0.392357 0.098089
0.707501 0.404286 0.101072
0.833856 0.416928 0.104232
0.000000 0.486825 0.097365
0.097465 0.487326 0.097465
0.195778 0.489445 0.097889
0.296171 0.493618 0.098724
0.399972 0.499964 0.099993
0.508377 0.508377 0.101675
0.622319 0.518599 0.103720
0.742421 0.530301 0.106060
0.869024 0.543140 0.108628
0.000000 0.628527 0.104755
0.104826 0.628955 0.104826
0.210256 0.630769 0.105128
0.317190 0.634380 0.105730
0.426641 0.639962 0.106660
0.539603 0.647523 0.107921
0.656943 0.656943 0.109491
0.779352 0.668016 0.111336
0.907318 0.680489 0.113415
0.000000 0.780965 0.111566
0.111620 0.781338 0.111620
0.223692 0.782924 0.111846
0.336900 0.786099 0.112300
0.452033 0.791057 0.113008
0.572146 0.801005 0.114429
0.698182 0.814546 0.116364
0.825745 0.825745 0.117964
0.950752 0.831908 0.118844
0.000000 0.949622 0.118703
0.118718 0.949747 0.118718
0.237556 0.950225 0.118778
0.356595 0.950919 0.118865
0.475645 0.951289 0.118911
0.593969 0.950351 0.118794
0.710017 0.946689 0.118336
0.821227 0.938545 0.117318
0.923944 0.923944 0.115493
0.000000 0.000000 0.109089
0.056450 0.000000 0.112900
0.123963 0.000000 0.123963
0.205410 0.000000 0.136940
0.299087 0.000000 0.149543
0.403361 0.000000 0.161344
0.517044 0.000000 0.172348
0.639252 0.000000 0.182643
0.769304 0.000000 0.192326
0.000000 0.059867 0.119734
0.061024 0.061024 0.122049
0.129857 0.064929 0.129857
0.210854 0.070285 0.140569
0.303810 0.075953 0.151905
0.407450 0.081490 0.162980
0.520622 0.086770 0.173541
0.642424 0.091775 0.183550
0.772148 0.096518 0.193037
0.000000 0.140994 0.140994
0.070984 0.141968 0.141968
0.145783 0.145783 0.145783
0.228362 0.152241 0.152241
0.320686 0.160343 0.160343
0.422981 0.169193 0.169193
0.534722 0.178241 0.178241
0.655211 0.187203 0.187203
0.783787 0.195947 0.195947
0.000000 0.241561 0.161041
0.080770 0.242310 0.161540
0.163594 0.245391 0.163594
0.251119 0.251119 0.167413
0.345503 0.259127 0.172752
0.447950 0.268770 0.179180
0.558834 0.279417 0.186278
0.678032 0.290585 0.193723
0.805192 0.301947 0.201298
0.000000 0.357844 0.178922
0.089611 0.358443 0.179222
0.180477 0.360954 0.180477
0.274358 0.365811 0.182905
0.372988 0.372988 0.186494
0.477715 0.382172 0.191086
0.589378 0.392919 0.196459
0.708357 0.404775 0.202388
0.834703 0.417351 0.208676
0.000000 0.487553 0.195021
0.097610 0.488051 0.195220
0.196062 0.490154 0.196062
0.296580 0.494300 0.197720
0.400485 0.500607 0.200243
0.508971 0.508971 0.203588
0.622969 0.519141 0.207656
0.743105 0.530789 0.212316
0.869724 0.543577 0.217431
0.000000 0.629148 0.209716
0.104929 0.629574 0.209858
0.210460 0.631379 0.210460
0.317487 0.634974 0.211658
0.427022 0.640533 0.213511
0.540053 0.648064 0.216021
0.657449 0.657449 0.219150
0.779899 0.668485 0.222828
0.907995 0.680996 0.226999
0.000000 0.781506 0.223288
0.111697 0.781878 0.223394
0.223845 0.783459 0.223845
0.337125 0.786625 0.224750
0.452324 0.791567 0.226162
0.572770 0.801878 0.229108
0.698718 0.815171 0.232906
0.826103 0.826103 0.236029
0.950851 0.831994 0.237713
0.000000 0.949802 0.237450
0.118740 0.949919 0.237480
0.237592 0.950366 0.237592
0.356625 0.950999 0.237750
0.475639 0.951277 0.237819
0.593886 0.950217 0.237554
0.709807 0.946410 0.236602
0.820840 0.938103 0.234526
0.923332 0.923332 0.230833
0.000000 0.000000 0.178043
0.060561 0.000000 0.181684
0.129210 0.000000 0.193815
0.210224 0.000000 0.210224
0.303250 0.000000 0.227437
0.406959 0.000000 0.244175
0.520189 0.000000 0.260095
0.642038 0.000000 0.275159
0.771801 0.000000 0.289425
0.000000 0.062975 0.188924
0.063855 0.063855 0.191566
0.134030 0.067015 0.201045
0.215085 0.071695 0.215085
0.307666 0.076917 0.230750
0.410877 0.082175 0.246526
0.523666 0.087278 0.261833
0.645146 0.092164 0.276491
0.774602 0.096825 0.290476
0.000000 0.143773 0.215660
0.072327 0.144654 0.216982
0.148141 0.148141 0.222211
0.231223 0.154148 0.231223
0.323652 0.161826 0.242739
0.425844 0.170338 0.255507
0.537403 0.179134 0.268701
0.657691 0.187912 0.281868
0.786076 0.196519 0.294778
0.000000 0.243739 0.243739
0.081485 0.244456 0.244456
0.164940 0.247411 0.247411
0.252926 0.252926 0.252926
0.347577 0.260683 0.260683
0.450129 0.270077 0.270077
0.561010 0.280505 0.280505
0.680144 0.291490 0.291490
0.807211 0.302704 0.302704
0.000000 0.359599 0.269699
0.090046 0.360184 0.270138
0.181319 0.362639 0.271979
0.275544 0.367392 0.275544
0.374430 0.374430 0.280823
0.479324 0.383459 0.287594
0.591074 0.394049 0.295537
0.710079 0.405759 0.304320
0.836411 0.418205 0.313654
0.000000 0.489015 0.293409
0.097901 0.489506 0.293704
0.196632 0.491581 0.294948
0.297403 0.495671 0.297403
0.401520 0.501900 0.301140
0.510168 0.510168 0.306101
0.624279 0.520233 0.312140
0.744484 0.531775 0.319065
0.871137 0.544460 0.326676
0.000000 0.630400 0.315200
0.105137 0.630822 0.315411
0.210870 0.632611 0.316305
0.318087 0.636174 0.318087
0.427790 0.641685 0.320843
0.540963 0.649156 0.324578
0.658471 0.658471 0.329236
0.781003 0.669432 0.334716
0.910252 0.682689 0.341344
0.000000 0.782601 0.335400
0.111853 0.782970 0.335559
0.224154 0.784540 0.336232
0.337580 0.787687 0.337580
0.452914 0.792599 0.339685
0.574005 0.803607 0.344403
0.699772 0.816400 0.349886
0.826795 0.826795 0.354341
0.951019 0.832142 0.356632
0.000000 0.950134 0.356300
0.118780 0.950237 0.356339
0.237656 0.950622 0.356483
0.356675 0.951133 0.356675
0.475612 0.951225 0.356709
0.593700 0.949920 0.356220
0.709365 0.945819 0.354682
0.820038 0.937186 0.351445
0.922070 0.922070 0.345776
0.000000 0.000000 0.256604
0.064949 0.000000 0.259795
0.135730 0.000000 0.271460
0.216888 0.000000 0.289185
0.309356 0.000000 0.309356
0.412403 0.000000 0.329922
0.525034 0.000000 0.350022
0.646376 0.000000 0.369358
0.775716 0.000000 0.387858
0.000000 0.066645 0.266581
0.067297 0.067297 0.269190
0.139520 0.069760 0.279041
0.221062 0.073687 0.294750
0.313366 0.078342 0.313366
0.416079 0.083216 0.332863
0.528361 0.088060 0.352240
0.649386 0.092769 0.371078
0.778451 0.097306 0.389226
0.000000 0.147708 0.295415
0.074238 0.148476 0.296952
0.151552 0.151552 0.303104
0.235456 0.156971 0.313941
0.328131 0.164065 0.328131
0.430235 0.172094 0.344188
0.541559 0.180520 0.361039
0.661566 0.189019 0.378038
0.789671 0.197418 0.394835
0.000000 0.247033 0.329378
0.082568 0.247704 0.330273
0.166986 0.250479 0.333972
0.255691 0.255691 0.340921
0.350772 0.263079 0.350772
0.453510 0.272106 0.362808
0.564408 0.282204 0.376272
0.683458 0.292911 0.390548
0.810390 0.303896 0.405195
0.000000 0.362322 0.362322
0.090722 0.362886 0.362886
0.182628 0.365256 0.365256
0.277391 0.369854 0.369854
0.376684 0.376684 0.376684
0.481844 0.385475 0.385475
0.593738 0.395825 0.395825
0.712793 0.407310 0.407310
0.839108 0.419554 0.419554
0.000000 0.491311 0.393049
0.098358 0.491791 0.393433
0.197529 0.493822 0.395057
0.298697 0.497828 0.398262
0.403148 0.503935 0.403148
0.512055 0.512055 0.409644
0.626348 0.521957 0.417565
0.746666 0.533333 0.426666
0.873374 0.545859 0.436687
0.000000 0.632378 0.421585
0.105466 0.632793 0.421862
0.211519 0.634557 0.423038
0.319035 0.638071 0.425380
0.429005 0.643508 0.429005
0.542403 0.650884 0.433923
0.660090 0.660090 0.440060
0.782755 0.670933 0.447288
0.913708 0.685281 0.456854
0.000000 0.784336 0.448192
0.112100 0.784701 0.448401
0.224645 0.786256 0.449289
0.338302 0.789371 0.451069
0.453849 0.794236 0.453849
0.575890 0.806246 0.460712
0.701365 0.818259 0.467576
0.827812 0.827812 0.473035
0.951204 0.832304 0.475602
0.000000 0.950577 0.475288
0.118832 0.950657 0.475328
0.237736 0.950944 0.475472
0.356723 0.951262 0.475631
0.475531 0.951062 0.475531
0.593358 0.949372 0.474686
0.708608 0.944811 0.472406
0.818706 0.935664 0.467832
0.920005 0.920005 0.460003
0.000000 0.000000 0.343506
0.069258 0.000000 0.346288
0.142808 0.000000 0.357021
0.224837 0.000000 0.374728
0.317105 0.000000 0.396382
0.419575 0.000000 0.419575
0.531565 0.000000 0.442970
0.652309 0.000000 0.465935
0.781122 0.000000 0.488201
0.000000 0.070486 0.352431
0.070974 0.070974 0.354868
0.145765 0.072882 0.364412
0.228340 0.076113 0.380566
0.320663 0.080166 0.400829
0.422960 0.084592 0.422960
0.534702 0.089117 0.445585
0.655192 0.093599 0.467994
0.783770 0.097971 0.489856
0.000000 0.152509 0.381272
0.076582 0.153163 0.382908
0.155813 0.155813 0.389533
0.240882 0.160588 0.401470
0.334016 0.167008 0.417520
0.436122 0.174449 0.436122
0.547212 0.182404 0.456010
0.666893 0.190541 0.476352
0.794649 0.198662 0.496656
0.000000 0.251370 0.418950
0.083995 0.251986 0.419977
0.169696 0.254544 0.424240
0.259383 0.259383 0.432305
0.355083 0.266312 0.443854
0.458115 0.274869 0.458115
0.569074 0.284537 0.474228
0.688040 0.294874 0.491457
0.814807 0.305553 0.509255
0.000000 0.366029 0.457536
0.091642 0.366567 0.458208
0.184413 0.368827 0.461034
0.279918 0.373223 0.466529
0.379778 0.379778 0.474723
0.485320 0.388256 0.485320
0.597429 0.398286 0.497858
0.716567 0.409467 0.511833
0.842873 0.421436 0.526795
0.000000 0.494488 0.494488
0.098991 0.494954 0.494954
0.198770 0.496925 0.496925
0.300491 0.500818 0.500818
0.405409 0.506761 0.506761
0.514681 0.514681 0.514681
0.629233 0.524361 0.524361
0.749715 0.535511 0.535511
0.876507 0.547817 0.547817
0.000000 0.635139 0.529282
0.105924 0.635546 0.529622
0.212425 0.637275 0.531062
0.320360 0.640720 0.533934
0.430705 0.646057 0.538381
0.544419 0.653303 0.544419
0.662359 0.662359 0.551966
0.785212 0.673039 0.560866
0.918305 0.688728 0.573940
0.000000 0.786770 0.561979
0.112447 0.787130 0.562236
0.225332 0.788663 0.563331
0.339315 0.791735 0.565525
0.456331 0.798578 0.570413
0.578385 0.809739 0.578385
0.703437 0.820677 0.586198
0.829070 0.829070 0.592193
0.951291 0.832380 0.594557
0.000000 0.951020 0.594387
0.118883 0.951068 0.594417
0.237805 0.951220 0.594512
0.356727 0.951271 0.594545
0.475334 0.950667 0.594167
0.592778 0.948445 0.592778
0.707434 0.943246 0.589529
0.816712 0.933385 0.583366
0.916972 0.916972 0.573107
0.000000 0.000000 0.437868
0.073386 0.000000 0.440317
0.150024 0.000000 0.450071
0.233546 0.000000 0.467092
0.326097 0.000000 0.489145
0.428232 0.000000 0.513878
0.539656 0.000000 0.539656
0.659787 0.000000 0.565532
0.788018 0.000000 0.591013
0.000000 0.074307 0.445842
0.074679 0.074679 0.448077
0.152349 0.076174 0.457046
0.236459 0.078820 0.472919
0.329207 0.082302 0.493811
0.431302 0.086260 0.517563
0.542577 0.090429 0.542577
0.662521 0.094646 0.567875
0.790560 0.098820 0.592920
0.000000 0.157877 0.473630
0.079214 0.158427 0.475282
0.160682 0.160682 0.482045
0.247243 0.164829 0.494486
0.341100 0.170550 0.511650
0.443366 0.177346 0.532039
0.554291 0.184764 0.554291
0.673648 0.192471 0.577413
0.801022 0.200256 0.600767
0.000000 0.256600 0.513200
0.085719 0.257158 0.514316
0.172987 0.259481 0.518961
0.263909 0.263909 0.527819
0.360428 0.270321 0.540642
0.463890 0.278334 0.556668
0.574985 0.287492 0.574985
0.693892 0.297382 0.594765
0.820489 0.307683 0.615367
0.000000 0.370676 0.556014
0.092796 0.371182 0.556774
0.186657 0.373314 0.559971
0.283104 0.377472 0.566208
0.383700 0.383700 0.575550
0.489749 0.391799 0.587699
0.602156 0.401437 0.602156
0.721424 0.412243 0.618364
0.847738 0.423869 0.635804
0.000000 0.498552 0.598263
0.099800 0.499001 0.598801
0.200359 0.500898 0.601078
0.302791 0.504651 0.605581
0.408314 0.510393 0.612471
0.518063 0.518063 0.621676
0.632961 0.527467 0.632961
0.753665 0.538332 0.645999
0.880577 0.550361 0.660433
0.000000 0.638711 0.638711
0.106518 0.639107 0.639107
0.213597 0.640792 0.640792
0.322076 0.644152 0.644152
0.432907 0.649361 0.649361
0.547036 0.656444 0.656444
0.665309 0.665309 0.665309
0.788411 0.675781 0.675781
0.923846 0.692885 0.692885
0.000000 0.789941 0.677092
0.112899 0.790294 0.677395
0.226228 0.791800 0.678685
0.340844 0.795302 0.681687
0.459387 0.803927 0.689080
0.581370 0.813918 0.697644
0.705850 0.823492 0.705850
0.830409 0.830409 0.711779
0.951099 0.832212 0.713324
0.000000 0.951282 0.713462
0.118911 0.951289 0.713467
0.237817 0.951269 0.713452
0.356618 0.950980 0.713235
0.474930 0.949860 0.712395
0.591848 0.946956 0.710217
0.705704 0.940939 0.705704
0.813893 0.930163 0.697622
0.912781 0.912781 0.684585
0.000000 0.000000 0.539028
0.077316 0.000000 0.541209
0.157163 0.000000 0.550070
0.242630 0.000000 0.566136
0.335943 0.000000 0.587901
0.438076 0.000000 0.613306
0.549109 0.000000 0.640627
0.668694 0.000000 0.668694
0.796342 0.000000 0.696799
0.000000 0.078028 0.546195
0.078319 0.078319 0.548236
0.159019 0.079510 0.556567
0.245053 0.081684 0.571791
0.338640 0.084660 0.592620
0.440832 0.088166 0.617165
0.551800 0.091967 0.643766
0.671261 0.095894 0.671261
0.798762 0.099845 0.698917
0.000000 0.163567 0.572486
0.082015 0.164030 0.574106
0.165940 0.165940 0.580790
0.254275 0.169516 0.593307
0.349132 0.174566 0.610981
0.451771 0.180708 0.632479
0.562657 0.187552 0.656434
0.681748 0.194785 0.681748
0.808747 0.202187 0.707654
0.000000 0.262542 0.612597
0.087680 0.263041 0.613763
0.176752 0.265128 0.618633
0.269138 0.269138 0.627990
0.366678 0.275008 0.641686
0.470728 0.282437 0.659019
0.582062 0.291031 0.679073
0.700969 0.300415 0.700969
0.827413 0.310280 0.723987
0.000000 0.376175 0.658306
0.094162 0.376648 0.659133
0.189319 0.378638 0.662616
0.286900 0.382534 0.669434
0.388397 0.388397 0.679695
0.495087 0.396070 0.693122
0.607889 0.405260 0.709204
0.727350 0.415629 0.727350
0.853706 0.426853 0.746992
0.000000 0.503474 0.704863
0.100780 0.503902 0.705463
0.202286 0.505715 0.708001
0.305584 0.509307 0.713030
0.411851 0.514814 0.720740
0.522194 0.522194 0.731072
0.637528 0.531274 0.743783
0.758522 0.541801 0.758522
0.885598 0.553499 0.774898
0.000000 0.643094 0.750276
0.107246 0.643479 0.750725
0.215037 0.645111 0.752630
0.324185 0.648370 0.756431
0.435618 0.653427 0.762331
0.550262 0.660314 0.770366
0.668950 0.668950 0.780442
0.792369 0.679174 0.792369
0.930005 0.697504 0.813754
0.000000 0.793864 0.793864
0.113459 0.794210 0.794210
0.227706 0.796970 0.796970
0.343872 0.802367 0.802367
0.462807 0.809911 0.809911
0.584648 0.818507 0.818507
0.708384 0.826448 0.826448
0.831592 0.831592 0.831592
0.950376 0.831579 0.831579
0.000000 0.951107 0.832219
0.118883 0.951065 0.832182
0.237709 0.950836 0.831982
0.356302 0.950138 0.831370
0.474196 0.948393 0.829844
0.590416 0.944665 0.826582
0.703243 0.937657 0.820450
0.810049 0.925770 0.810049
0.907209 0.907209 0.793808
0.000000 0.000000 0.646469
0.081054 0.000000 0.648432
0.164128 0.000000 0.656513
0.251835 0.000000 0.671560
0.346323 0.000000 0.692646
0.448810 0.000000 0.718096
0.559692 0.000000 0.746256
0.678864 0.000000 0.775844
0.805986 0.000000 0.805986
0.000000 0.081620 0.652959
0.081853 0.081853 0.654828
0.165635 0.082817 0.662540
0.253862 0.084621 0.676966
0.348656 0.087164 0.697312
0.451267 0.090253 0.722028
0.562152 0.093692 0.749536
0.681256 0.097322 0.778578
0.808275 0.101034 0.808275
0.000000 0.169409 0.677635
0.084899 0.169799 0.679194
0.171419 0.171419 0.685677
0.261748 0.174498 0.697993
0.357867 0.178934 0.715735
0.461115 0.184446 0.737784
0.572136 0.190712 0.762848
0.691065 0.197447 0.789789
0.817739 0.204435 0.817739
0.000000 0.269016 0.717375
0.089820 0.269460 0.718561
0.180882 0.271323 0.723528
0.274928 0.274928 0.733141
0.373681 0.280260 0.747361
0.478487 0.287092 0.765580
0.590192 0.295096 0.786922
0.709182 0.303935 0.810494
0.835521 0.313321 0.835521
0.000000 0.382413 0.764827
0.095713 0.382850 0.765701
0.192347 0.384695 0.769389
0.291237 0.388316 0.776632
0.393795 0.393795 0.787589
0.501261 0.401009 0.802018
0.614567 0.409711 0.819422
0.734298 0.419599 0.839197
0.860742 0.430371 0.860742
0.000000 0.509195 0.814712
0.101920 0.509601 0.815362
0.204529 0.511322 0.818116
0.308842 0.514737 0.823579
0.415989 0.519986 0.831978
0.527043 0.527043 0.843269
0.642910 0.535758 0.857213
0.764267 0.545905 0.873448
0.891558 0.557224 0.891558
0.000000 0.648268 0.864357
0.108106 0.648638 0.864851
0.216737 0.650212 0.866950
0.326678 0.653356 0.871141
0.438827 0.658241 0.877654
0.554087 0.664905 0.886539
0.673279 0.673279 0.897705
0.799592 0.685365 0.913820
0.936331 0.702249 0.936331
0.000000 0.802205 0.916805
0.114685 0.802794 0.917478
0.230067 0.805234 0.920268
0.347062 0.809812 0.925500
0.466358 0.816126 0.932716
0.587949 0.823129 0.940718
0.710743 0.829201 0.947658
0.832308 0.832308 0.951209
0.948799 0.830199 0.948799
0.000000 0.950164 0.950164
0.118758 0.950065 0.950065
0.237399 0.949596 0.949596
0.355659 0.948423 0.948423
0.472978 0.945956 0.945956
0.588296 0.941273 0.941273
0.699836 0.933115 0.933115
0.804944 0.919936 0.919936
0.900000 0.900000 0.900000
