correction_luts/cinema_dark.cube
# Strong gamma pull + highlight rolloff for dark cinematic look
# Much darker than film_contrast — use for moody/dramatic scenes
# Strength: 1.0
# Color model: linear-light tone (v2)
TITLE "Cinema Dark - Deep Moody Contrast"
LUT_3D_SIZE 33
0.003439 0.003439 0.003439
0.015416 0.000000 0.000000
0.026301 0.000000 0.000000
0.038827 0.000000 0.000000
0.052765 0.000000 0.000000
0.067958 0.000000 0.000000
0.084290 0.000000 0.000000
0.101671 0.000000 0.000000
0.120029 0.000000 0.000000
0.139304 0.000000 0.000000
0.159446 0.000000 0.000000
0.180411 0.000000 0.000000
0.202162 0.000000 0.000000
0.224665 0.000000 0.000000
0.247890 0.000000 0.000000
0.271812 0.000000 0.000000
0.296406 0.000000 0.000000
0.321650 0.000000 0.000000
0.347525 0.000000 0.000000
0.374013 0.000000 0.000000
0.401096 0.000000 0.000000
0.428758 0.000000 0.000000
0.456987 0.000000 0.000000
0.485767 0.000000 0.000000
0.515087 0.000000 0.000000
0.544934 0.000000 0.000000
0.575297 0.000000 0.000000
0.606166 0.000000 0.000000
0.637531 0.000000 0.000000
0.669382 0.000000 0.000000
0.701711 0.000000 0.000000
0.734509 0.000000 0.000000
0.767768 0.000000 0.000000
0.000000 0.013498 0.000000
0.013276 0.013276 0.000000
0.025916 0.012958 0.000000
0.038961 0.012987 0.000000
0.053047 0.013262 0.000000
0.068276 0.013655 0.000000
0.084608 0.014101 0.000000
0.101977 0.014568 0.000000
0.120319 0.015040 0.000000
0.139577 0.015509 0.000000
0.159703 0.015970 0.000000
0.180653 0.016423 0.000000
0.202390 0.016866 0.000000
0.224880 0.017298 0.000000
0.248094 0.017721 0.000000
0.272006 0.018134 0.000000
0.296590 0.018537 0.000000
0.321826 0.018931 0.000000
0.347694 0.019316 0.000000
0.374174 0.019693 0.000000
0.401250 0.020063 0.000000
0.428907 0.020424 0.000000
0.457130 0.020779 0.000000
0.485905 0.021126 0.000000
0.515220 0.021467 0.000000
0.545062 0.021802 0.000000
0.575421 0.022132 0.000000
0.606286 0.022455 0.000000
0.637648 0.022773 0.000000
0.669495 0.023086 0.000000
0.701821 0.023394 0.000000
0.734616 0.023697 0.000000
0.767872 0.023996 0.000000
0.000000 0.025988 0.000000
0.013011 0.026022 0.000000
0.026184 0.026184 0.000000
0.039816 0.026544 0.000000
0.054214 0.027107 0.000000
0.069555 0.027822 0.000000
0.085896 0.028632 0.000000
0.103228 0.029494 0.000000
0.121513 0.030378 0.000000
0.140710 0.031269 0.000000
0.160774 0.032155 0.000000
0.181666 0.033030 0.000000
0.203349 0.033891 0.000000
0.225789 0.034737 0.000000
0.248958 0.035565 0.000000
0.272827 0.036377 0.000000
0.297373 0.037172 0.000000
0.322574 0.037950 0.000000
0.348409 0.038712 0.000000
0.374860 0.039459 0.000000
0.401908 0.040191 0.000000
0.429540 0.040909 0.000000
0.457739 0.041613 0.000000
0.486492 0.042304 0.000000
0.515787 0.042982 0.000000
0.545610 0.043649 0.000000
0.575952 0.044304 0.000000
0.606800 0.044948 0.000000
0.638145 0.045582 0.000000
0.669979 0.046205 0.000000
0.702290 0.046819 0.000000
0.735072 0.047424 0.000000
0.768315 0.048020 0.000000
0.000000 0.040740 0.000000
0.013599 0.040797 0.000000
0.027359 0.041039 0.000000
0.041507 0.041507 0.000000
0.056265 0.042199 0.000000
0.071800 0.043080 0.000000
0.088207 0.044104 0.000000
0.105524 0.045225 0.000000
0.123750 0.046406 0.000000
0.142864 0.047621 0.000000
0.162836 0.048851 0.000000
0.183634 0.050082 0.000000
0.205225 0.051306 0.000000
0.227578 0.052518 0.000000
0.250664 0.053714 0.000000
0.274457 0.054891 0.000000
0.298932 0.056050 0.000000
0.324066 0.057188 0.000000
0.349840 0.058307 0.000000
0.376233 0.059405 0.000000
0.403229 0.060484 0.000000
0.430811 0.061544 0.000000
0.458965 0.062586 0.000000
0.487675 0.063610 0.000000
0.516929 0.064616 0.000000
0.546715 0.065606 0.000000
0.577021 0.066579 0.000000
0.607837 0.067537 0.000000
0.639151 0.068480 0.000000
0.670955 0.069409 0.000000
0.703239 0.070324 0.000000
0.735994 0.071225 0.000000
0.769213 0.072114 0.000000
0.000000 0.057391 0.000000
0.014362 0.057448 0.000000
0.028842 0.057684 0.000000
0.043611 0.058148 0.000000
0.058847 0.058847 0.000000
0.074704 0.059763 0.000000
0.091294 0.060863 0.000000
0.108685 0.062106 0.000000
0.126908 0.063454 0.000000
0.145971 0.064876 0.000000
0.165861 0.066345 0.000000
0.186562 0.067841 0.000000
0.208047 0.069349 0.000000
0.230293 0.070859 0.000000
0.253273 0.072364 0.000000
0.276964 0.073857 0.000000
0.301341 0.075335 0.000000
0.326382 0.076796 0.000000
0.352068 0.078237 0.000000
0.378379 0.079659 0.000000
0.405297 0.081059 0.000000
0.432806 0.082439 0.000000
0.460891 0.083798 0.000000
0.489537 0.085137 0.000000
0.518731 0.086455 0.000000
0.548460 0.087754 0.000000
0.578712 0.089033 0.000000
0.609477 0.090293 0.000000
0.640743 0.091535 0.000000
0.672502 0.092759 0.000000
0.704743 0.093966 0.000000
0.737458 0.095156 0.000000
0.770638 0.096330 0.000000
0.000000 0.075707 0.000000
0.015152 0.075759 0.000000
0.030390 0.075976 0.000000
0.045843 0.076406 0.000000
0.061653 0.077066 0.000000
0.077951 0.077951 0.000000
0.094850 0.079042 0.000000
0.112433 0.080309 0.000000
0.130753 0.081720 0.000000
0.149838 0.083244 0.000000
0.169701 0.084850 0.000000
0.190337 0.086517 0.000000
0.211737 0.088224 0.000000
0.233882 0.089955 0.000000
0.256755 0.091698 0.000000
0.280335 0.093445 0.000000
0.304602 0.095188 0.000000
0.329535 0.096922 0.000000
0.355116 0.098643 0.000000
0.381326 0.100349 0.000000
0.408148 0.102037 0.000000
0.435564 0.103706 0.000000
0.463561 0.105355 0.000000
0.492124 0.106983 0.000000
0.521238 0.108591 0.000000
0.550892 0.110178 0.000000
0.581073 0.111745 0.000000
0.611771 0.113291 0.000000
0.642973 0.114817 0.000000
0.674671 0.116323 0.000000
0.706854 0.117809 0.000000
0.739514 0.119276 0.000000
0.772642 0.120725 0.000000
0.000000 0.095520 0.000000
0.015928 0.095566 0.000000
0.031921 0.095763 0.000000
0.048078 0.096155 0.000000
0.064510 0.096765 0.000000
0.081330 0.097595 0.000000
0.098639 0.098639 0.000000
0.116521 0.099875 0.000000
0.135042 0.101282 0.000000
0.154246 0.102830 0.000000
0.174158 0.104495 0.000000
0.194794 0.106251 0.000000
0.216153 0.108077 0.000000
0.238232 0.109953 0.000000
0.261020 0.111866 0.000000
0.284502 0.113801 0.000000
0.308664 0.115749 0.000000
0.333489 0.117702 0.000000
0.358961 0.119654 0.000000
0.385062 0.121598 0.000000
0.411776 0.123533 0.000000
0.439089 0.125454 0.000000
0.466985 0.127360 0.000000
0.495450 0.129248 0.000000
0.524471 0.131118 0.000000
0.554035 0.132968 0.000000
0.584131 0.134799 0.000000
0.614745 0.136610 0.000000
0.645869 0.138401 0.000000
0.677492 0.140171 0.000000
0.709603 0.141921 0.000000
0.742195 0.143651 0.000000
0.775257 0.145361 0.000000
0.000000 0.116702 0.000000
0.016678 0.116744 0.000000
0.033406 0.116923 0.000000
0.050263 0.117280 0.000000
0.067337 0.117840 0.000000
0.084722 0.118611 0.000000
0.102508 0.119592 0.000000
0.120773 0.120773 0.000000
0.139586 0.122137 0.000000
0.158997 0.123664 0.000000
0.179044 0.125331 0.000000
0.199752 0.127115 0.000000
0.221136 0.128996 0.000000
0.243200 0.130954 0.000000
0.265943 0.132971 0.000000
0.289359 0.135034 0.000000
0.313438 0.137129 0.000000
0.338170 0.139246 0.000000
0.363541 0.141377 0.000000
0.389537 0.143514 0.000000
0.416146 0.145651 0.000000
0.443351 0.147784 0.000000
0.471141 0.149909 0.000000
0.499502 0.152022 0.000000
0.528422 0.154123 0.000000
0.557887 0.156208 0.000000
0.587886 0.158277 0.000000
0.618407 0.160328 0.000000
0.649441 0.162360 0.000000
0.680977 0.164374 0.000000
0.713005 0.166368 0.000000
0.745517 0.168342 0.000000
0.778502 0.170297 0.000000
0.000000 0.139154 0.000000
0.017399 0.139192 0.000000
0.034839 0.139355 0.000000
0.052381 0.139682 0.000000
0.070098 0.140196 0.000000
0.088069 0.140910 0.000000
0.106371 0.141828 0.000000
0.125076 0.142944 0.000000
0.144248 0.144248 0.000000
0.163942 0.145726 0.000000
0.184200 0.147360 0.000000
0.205055 0.149131 0.000000
0.226531 0.151020 0.000000
0.248640 0.153009 0.000000
0.271390 0.155080 0.000000
0.294783 0.157217 0.000000
0.318815 0.159408 0.000000
0.343482 0.161639 0.000000
0.368774 0.163900 0.000000
0.394682 0.166182 0.000000
0.421195 0.168478 0.000000
0.448301 0.170781 0.000000
0.475989 0.173087 0.000000
0.504246 0.175390 0.000000
0.533062 0.177687 0.000000
0.562424 0.179976 0.000000
0.592322 0.182253 0.000000
0.622745 0.184517 0.000000
0.653682 0.186766 0.000000
0.685124 0.189000 0.000000
0.717060 0.191216 0.000000
0.749482 0.193415 0.000000
0.782381 0.195595 0.000000
0.000000 0.162792 0.000000
0.018092 0.162827 0.000000
0.036217 0.162976 0.000000
0.054426 0.163277 0.000000
0.072778 0.163752 0.000000
0.091341 0.164414 0.000000
0.110180 0.165270 0.000000
0.129360 0.166320 0.000000
0.148941 0.167558 0.000000
0.168975 0.168975 0.000000
0.189507 0.170557 0.000000
0.210575 0.172289 0.000000
0.232206 0.174154 0.000000
0.254421 0.176137 0.000000
0.277234 0.178222 0.000000
0.300653 0.180392 0.000000
0.324682 0.182634 0.000000
0.349321 0.184935 0.000000
0.374565 0.187283 0.000000
0.400410 0.189668 0.000000
0.426848 0.192082 0.000000
0.453870 0.194516 0.000000
0.481467 0.196964 0.000000
0.509630 0.199420 0.000000
0.538347 0.201880 0.000000
0.567610 0.204340 0.000000
0.597408 0.206795 0.000000
0.627731 0.209244 0.000000
0.658569 0.211683 0.000000
0.689913 0.214111 0.000000
0.721753 0.216526 0.000000
0.754081 0.218927 0.000000
0.786888 0.221312 0.000000
0.000000 0.187548 0.000000
0.018758 0.187581 0.000000
0.037544 0.187718 0.000000
0.056399 0.187996 0.000000
0.075374 0.188436 0.000000
0.094526 0.189052 0.000000
0.113911 0.189852 0.000000
0.133587 0.190839 0.000000
0.153609 0.192011 0.000000
0.174025 0.193361 0.000000
0.194881 0.194881 0.000000
0.216214 0.196558 0.000000
0.238057 0.198381 0.000000
0.260434 0.200334 0.000000
0.283364 0.202403 0.000000
0.306860 0.204573 0.000000
0.330932 0.206833 0.000000
0.355584 0.209167 0.000000
0.380818 0.211566 0.000000
0.406632 0.214017 0.000000
0.433022 0.216511 0.000000
0.459983 0.219039 0.000000
0.487508 0.221595 0.000000
0.515591 0.224170 0.000000
0.544223 0.226760 0.000000
0.573396 0.229358 0.000000
0.603100 0.231962 0.000000
0.633328 0.234566 0.000000
0.664069 0.237168 0.000000
0.695316 0.239764 0.000000
0.727060 0.242353 0.000000
0.759292 0.244933 0.000000
0.792005 0.247501 0.000000
0.000000 0.213364 0.000000
0.019399 0.213394 0.000000
0.038822 0.213522 0.000000
0.058304 0.213780 0.000000
0.077887 0.214189 0.000000
0.097620 0.214764 0.000000
0.117553 0.215513 0.000000
0.137736 0.216442 0.000000
0.158218 0.217550 0.000000
0.179046 0.218834 0.000000
0.200262 0.220288 0.000000
0.221904 0.221904 0.000000
0.244004 0.223671 0.000000
0.266591 0.225577 0.000000
0.289687 0.227611 0.000000
0.313309 0.229760 0.000000
0.337470 0.232010 0.000000
0.362178 0.234351 0.000000
0.387441 0.236769 0.000000
0.413259 0.239255 0.000000
0.439633 0.241798 0.000000
0.466561 0.244389 0.000000
0.494039 0.247020 0.000000
0.522063 0.249682 0.000000
0.550627 0.252371 0.000000
0.579723 0.255078 0.000000
0.609346 0.257800 0.000000
0.639488 0.260532 0.000000
0.670140 0.263269 0.000000
0.701296 0.266009 0.000000
0.732947 0.268747 0.000000
0.765086 0.271482 0.000000
0.797704 0.274211 0.000000
0.000000 0.240188 0.000000
0.020018 0.240216 0.000000
0.040056 0.240335 0.000000
0.060144 0.240576 0.000000
0.080320 0.240959 0.000000
0.100624 0.241497 0.000000
0.121101 0.242201 0.000000
0.141794 0.243076 0.000000
0.162749 0.244124 0.000000
0.184008 0.245344 0.000000
0.205610 0.246732 0.000000
0.227593 0.248284 0.000000
0.249989 0.249989 0.000000
0.272827 0.251841 0.000000
0.296131 0.253827 0.000000
0.319921 0.255937 0.000000
0.344214 0.258160 0.000000
0.369020 0.260485 0.000000
0.394350 0.262900 0.000000
0.420209 0.265395 0.000000
0.446601 0.267961 0.000000
0.473527 0.270587 0.000000
0.500986 0.273265 0.000000
0.528975 0.275987 0.000000
0.557492 0.278746 0.000000
0.586532 0.281535 0.000000
0.616090 0.284349 0.000000
0.646159 0.287182 0.000000
0.676734 0.290029 0.000000
0.707807 0.292886 0.000000
0.739373 0.295749 0.000000
0.771425 0.298616 0.000000
0.803954 0.301483 0.000000
0.000000 0.267977 0.000000
0.020616 0.268003 0.000000
0.041248 0.268115 0.000000
0.061925 0.268341 0.000000
0.082677 0.268700 0.000000
0.103541 0.269206 0.000000
0.124555 0.269868 0.000000
0.145758 0.270694 0.000000
0.167192 0.271687 0.000000
0.188894 0.272846 0.000000
0.210901 0.274172 0.000000
0.233249 0.275658 0.000000
0.255970 0.277301 0.000000
0.279091 0.279091 0.000000
0.302639 0.281022 0.000000
0.326635 0.283084 0.000000
0.351097 0.285266 0.000000
0.376039 0.287560 0.000000
0.401475 0.289954 0.000000
0.427411 0.292439 0.000000
0.453855 0.295006 0.000000
0.480810 0.297644 0.000000
0.508279 0.300347 0.000000
0.536261 0.303104 0.000000
0.564756 0.305909 0.000000
0.593761 0.308756 0.000000
0.623272 0.311636 0.000000
0.653287 0.314545 0.000000
0.683799 0.317478 0.000000
0.714803 0.320429 0.000000
0.746295 0.323395 0.000000
0.778268 0.326371 0.000000
0.810717 0.329354 0.000000
0.000000 0.296691 0.000000
0.021194 0.296716 0.000000
0.042403 0.296820 0.000000
0.063650 0.297033 0.000000
0.084963 0.297371 0.000000
0.106374 0.297848 0.000000
0.127917 0.298474 0.000000
0.149628 0.299255 0.000000
0.171541 0.300197 0.000000
0.193693 0.301300 0.000000
0.216118 0.302565 0.000000
0.238848 0.303989 0.000000
0.261915 0.305568 0.000000
0.285346 0.307296 0.000000
0.309167 0.309167 0.000000
0.333401 0.311174 0.000000
0.358065 0.313307 0.000000
0.383178 0.315559 0.000000
0.408753 0.317919 0.000000
0.434800 0.320379 0.000000
0.461329 0.322930 0.000000
0.488346 0.325564 0.000000
0.515854 0.328271 0.000000
0.543857 0.331043 0.000000
0.572355 0.333874 0.000000
0.601349 0.336755 0.000000
0.630836 0.339681 0.000000
0.660815 0.342645 0.000000
0.691282 0.345641 0.000000
0.722234 0.348665 0.000000
0.753666 0.351711 0.000000
0.785573 0.354775 0.000000
0.817950 0.357853 0.000000
0.000000 0.326295 0.000000
0.021755 0.326318 0.000000
0.043522 0.326417 0.000000
0.065323 0.326617 0.000000
0.087183 0.326937 0.000000
0.109129 0.327388 0.000000
0.131192 0.327981 0.000000
0.153404 0.328722 0.000000
0.175796 0.329617 0.000000
0.198401 0.330668 0.000000
0.221250 0.331876 0.000000
0.244376 0.333239 0.000000
0.267805 0.334756 0.000000
0.291566 0.336423 0.000000
0.315684 0.338233 0.000000
0.340181 0.340181 0.000000
0.365077 0.342260 0.000000
0.390390 0.344462 0.000000
0.416134 0.346779 0.000000
0.442324 0.349203 0.000000
0.468968 0.351726 0.000000
0.496076 0.354340 0.000000
0.523653 0.357036 0.000000
0.551704 0.359807 0.000000
0.580233 0.362646 0.000000
0.609240 0.365544 0.000000
0.638727 0.368496 0.000000
0.668691 0.371495 0.000000
0.699133 0.374535 0.000000
0.730049 0.377612 0.000000
0.761436 0.380718 0.000000
0.793292 0.383851 0.000000
0.825611 0.387005 0.000000
0.000000 0.356757 0.000000
0.022299 0.356779 0.000000
0.044609 0.356873 0.000000
0.066949 0.357063 0.000000
0.089341 0.357365 0.000000
0.111810 0.357793 0.000000
0.134383 0.358356 0.000000
0.157089 0.359060 0.000000
0.179956 0.359912 0.000000
0.203015 0.360915 0.000000
0.226293 0.362070 0.000000
0.249821 0.363376 0.000000
0.273625 0.364834 0.000000
0.297732 0.366439 0.000000
0.322165 0.368188 0.000000
0.346947 0.370077 0.000000
0.372098 0.372098 0.000000
0.397636 0.374246 0.000000
0.423578 0.376514 0.000000
0.449937 0.378894 0.000000
0.476725 0.381380 0.000000
0.503952 0.383963 0.000000
0.531626 0.386637 0.000000
0.559752 0.389393 0.000000
0.588337 0.392225 0.000000
0.617383 0.395125 0.000000
0.646891 0.398087 0.000000
0.676864 0.401105 0.000000
0.707301 0.404172 0.000000
0.738200 0.407283 0.000000
0.769561 0.410433 0.000000
0.801381 0.413616 0.000000
0.833657 0.416829 0.000000
0.000000 0.388049 0.000000
0.022828 0.388070 0.000000
0.045666 0.388159 0.000000
0.068530 0.388339 0.000000
0.091442 0.388627 0.000000
0.114422 0.389034 0.000000
0.137495 0.389569 0.000000
0.160687 0.390240 0.000000
0.184025 0.391053 0.000000
0.207535 0.392011 0.000000
0.231245 0.393116 0.000000
0.255180 0.394369 0.000000
0.279367 0.395770 0.000000
0.303830 0.397317 0.000000
0.328593 0.399006 0.000000
0.353677 0.400834 0.000000
0.379103 0.402797 0.000000
0.404889 0.404889 0.000000
0.431051 0.407103 0.000000
0.457604 0.409435 0.000000
0.484560 0.411876 0.000000
0.511932 0.414421 0.000000
0.539728 0.417062 0.000000
0.567955 0.419793 0.000000
0.596620 0.422606 0.000000
0.625729 0.425495 0.000000
0.655283 0.428454 0.000000
0.685286 0.431476 0.000000
0.715738 0.434556 0.000000
0.746642 0.437686 0.000000
0.777995 0.440864 0.000000
0.809796 0.444082 0.000000
0.842045 0.447337 0.000000
0.000000 0.420145 0.000000
0.023342 0.420165 0.000000
0.046694 0.420249 0.000000
0.070070 0.420421 0.000000
0.093488 0.420695 0.000000
0.116967 0.421083 0.000000
0.140531 0.421593 0.000000
0.164202 0.422234 0.000000
0.188005 0.423011 0.000000
0.211964 0.423927 0.000000
0.236104 0.424986 0.000000
0.260449 0.426189 0.000000
0.285024 0.427536 0.000000
0.309853 0.429027 0.000000
0.334956 0.430658 0.000000
0.360356 0.432428 0.000000
0.386073 0.434332 0.000000
0.412123 0.436366 0.000000
0.438525 0.438525 0.000000
0.465293 0.440804 0.000000
0.492441 0.443197 0.000000
0.519980 0.445697 0.000000
0.547921 0.448299 0.000000
0.576273 0.450996 0.000000
0.605043 0.453782 0.000000
0.634236 0.456650 0.000000
0.663859 0.459594 0.000000
0.693914 0.462609 0.000000
0.724403 0.465688 0.000000
0.755330 0.468825 0.000000
0.786694 0.472016 0.000000
0.818495 0.475255 0.000000
0.850734 0.478538 0.000000
0.000000 0.453021 0.000000
0.023844 0.453040 0.000000
0.047697 0.453120 0.000000
0.071571 0.453284 0.000000
0.095483 0.453546 0.000000
0.119452 0.453916 0.000000
0.143496 0.454404 0.000000
0.167638 0.455017 0.000000
0.191899 0.455760 0.000000
0.216302 0.456639 0.000000
0.240871 0.457655 0.000000
0.265627 0.458811 0.000000
0.290594 0.460107 0.000000
0.315793 0.461544 0.000000
0.341246 0.463119 0.000000
0.366973 0.464832 0.000000
0.392992 0.466678 0.000000
0.419323 0.468655 0.000000
0.445981 0.470758 0.000000
0.472983 0.472983 0.000000
0.500341 0.475324 0.000000
0.528068 0.477776 0.000000
0.556175 0.480333 0.000000
0.584673 0.482990 0.000000
0.613568 0.485741 0.000000
0.642869 0.488580 0.000000
0.672581 0.491501 0.000000
0.702709 0.494499 0.000000
0.733256 0.497567 0.000000
0.764226 0.500700 0.000000
0.795620 0.503892 0.000000
0.827439 0.507140 0.000000
0.859684 0.510438 0.000000
0.000000 0.486654 0.000000
0.024334 0.486672 0.000000
0.048675 0.486750 0.000000
0.073036 0.486906 0.000000
0.097431 0.487156 0.000000
0.121878 0.487511 0.000000
0.146393 0.487978 0.000000
0.170998 0.488565 0.000000
0.195711 0.489278 0.000000
0.220554 0.490121 0.000000
0.245549 0.491097 0.000000
0.270715 0.492209 0.000000
0.296075 0.493458 0.000000
0.321649 0.494844 0.000000
0.347456 0.496366 0.000000
0.373518 0.498024 0.000000
0.399851 0.499814 0.000000
0.426474 0.501734 0.000000
0.453403 0.503781 0.000000
0.480652 0.505950 0.000000
0.508238 0.508238 0.000000
0.536171 0.510639 0.000000
0.564463 0.513148 0.000000
0.593125 0.515761 0.000000
0.622166 0.518472 0.000000
0.651594 0.521275 0.000000
0.681416 0.524166 0.000000
0.711636 0.527138 0.000000
0.742261 0.530186 0.000000
0.773293 0.533305 0.000000
0.804735 0.536490 0.000000
0.836591 0.539736 0.000000
0.868860 0.543038 0.000000
0.000000 0.521025 0.000000
0.024812 0.521043 0.000000
0.049630 0.521117 0.000000
0.074467 0.521267 0.000000
0.099335 0.521507 0.000000
0.124249 0.521846 0.000000
0.149227 0.522295 0.000000
0.174286 0.522858 0.000000
0.199445 0.523543 0.000000
0.224723 0.524353 0.000000
0.250139 0.525292 0.000000
0.275714 0.526363 0.000000
0.301467 0.527567 0.000000
0.327417 0.528905 0.000000
0.353584 0.530376 0.000000
0.379986 0.531981 0.000000
0.406641 0.533716 0.000000
0.433566 0.535581 0.000000
0.460776 0.537572 0.000000
0.488288 0.539686 0.000000
0.516114 0.541920 0.000000
0.544268 0.544268 0.000000
0.572762 0.546728 0.000000
0.601607 0.549293 0.000000
0.630812 0.551960 0.000000
0.660385 0.554723 0.000000
0.690334 0.557578 0.000000
0.720666 0.560518 0.000000
0.751386 0.563540 0.000000
0.782499 0.566637 0.000000
0.814008 0.569806 0.000000
0.845917 0.573040 0.000000
0.878227 0.576337 0.000000
0.000000 0.556115 0.000000
0.025279 0.556132 0.000000
0.050564 0.556203 0.000000
0.075866 0.556347 0.000000
0.101196 0.556577 0.000000
0.126569 0.556904 0.000000
0.152000 0.557334 0.000000
0.177506 0.557876 0.000000
0.203103 0.558534 0.000000
0.228810 0.559314 0.000000
0.254645 0.560219 0.000000
0.280625 0.561251 0.000000
0.306771 0.562413 0.000000
0.333099 0.563705 0.000000
0.359627 0.565128 0.000000
0.386374 0.566682 0.000000
0.413357 0.568366 0.000000
0.440591 0.570177 0.000000
0.468093 0.572113 0.000000
0.495877 0.574173 0.000000
0.523956 0.576352 0.000000
0.552345 0.578648 0.000000
0.581055 0.581055 0.000000
0.610097 0.583572 0.000000
0.639482 0.586191 0.000000
0.669217 0.588911 0.000000
0.699311 0.591725 0.000000
0.729771 0.594628 0.000000
0.760604 0.597618 0.000000
0.791815 0.600687 0.000000
0.823408 0.603832 0.000000
0.855387 0.607049 0.000000
0.887755 0.610332 0.000000
0.000000 0.591906 0.000000
0.025736 0.591922 0.000000
0.051477 0.591990 0.000000
0.077234 0.592129 0.000000
0.103017 0.592351 0.000000
0.128840 0.592664 0.000000
0.154716 0.593079 0.000000
0.180661 0.593600 0.000000
0.206690 0.594234 0.000000
0.232820 0.594986 0.000000
0.259069 0.595858 0.000000
0.285452 0.596854 0.000000
0.311988 0.597977 0.000000
0.338693 0.599226 0.000000
0.365585 0.600604 0.000000
0.392680 0.602109 0.000000
0.419995 0.603742 0.000000
0.447544 0.605501 0.000000
0.475345 0.607385 0.000000
0.503410 0.609391 0.000000
0.531754 0.611517 0.000000
0.560389 0.613759 0.000000
0.589327 0.616115 0.000000
0.618580 0.618580 0.000000
0.648158 0.621151 0.000000
0.678070 0.623824 0.000000
0.708324 0.626594 0.000000
0.738929 0.629458 0.000000
0.769891 0.632410 0.000000
0.801215 0.635447 0.000000
0.832908 0.638563 0.000000
0.864974 0.641755 0.000000
0.897416 0.645018 0.000000
0.000000 0.628382 0.000000
0.026183 0.628397 0.000000
0.052372 0.628463 0.000000
0.078575 0.628597 0.000000
0.104802 0.628810 0.000000
0.131065 0.629112 0.000000
0.157378 0.629511 0.000000
0.183754 0.630014 0.000000
0.210209 0.630626 0.000000
0.236756 0.631351 0.000000
0.263414 0.632193 0.000000
0.290196 0.633155 0.000000
0.317120 0.634240 0.000000
0.344202 0.635450 0.000000
0.371457 0.636784 0.000000
0.398902 0.638243 0.000000
0.426552 0.639828 0.000000
0.454422 0.641537 0.000000
0.482527 0.643370 0.000000
0.510881 0.645323 0.000000
0.539497 0.647396 0.000000
0.568388 0.649586 0.000000
0.597565 0.651890 0.000000
0.627041 0.654304 0.000000
0.656825 0.656825 0.000000
0.686927 0.659450 0.000000
0.717356 0.662174 0.000000
0.748119 0.664995 0.000000
0.779224 0.667907 0.000000
0.810678 0.670906 0.000000
0.842486 0.673989 0.000000
0.874653 0.677151 0.000000
0.907184 0.680388 0.000000
0.000000 0.665527 0.000000
0.026622 0.665542 0.000000
0.053248 0.665605 0.000000
0.079888 0.665734 0.000000
0.106550 0.665940 0.000000
0.133246 0.666231 0.000000
0.159988 0.666617 0.000000
0.186789 0.667102 0.000000
0.213662 0.667692 0.000000
0.240621 0.668393 0.000000
0.267683 0.669207 0.000000
0.294861 0.670138 0.000000
0.322170 0.671187 0.000000
0.349626 0.672358 0.000000
0.377245 0.673652 0.000000
0.405040 0.675067 0.000000
0.433028 0.676606 0.000000
0.461222 0.678267 0.000000
0.489636 0.680050 0.000000
0.518284 0.681953 0.000000
0.547180 0.683975 0.000000
0.576335 0.686113 0.000000
0.605761 0.688364 0.000000
0.635469 0.690727 0.000000
0.665470 0.693198 0.000000
0.695774 0.695774 0.000000
0.726389 0.698451 0.000000
0.757324 0.701226 0.000000
0.788587 0.704095 0.000000
0.820183 0.707055 0.000000
0.853138 0.710949 0.000000
0.888691 0.716686 0.000000
0.924136 0.721981 0.000000
0.000000 0.703327 0.000000
0.027052 0.703341 0.000000
0.054108 0.703403 0.000000
0.081176 0.703527 0.000000
0.108265 0.703726 0.000000
0.135386 0.704007 0.000000
0.162549 0.704380 0.000000
0.189767 0.704848 0.000000
0.217052 0.705419 0.000000
0.244418 0.706097 0.000000
0.271879 0.706884 0.000000
0.299448 0.707785 0.000000
0.327139 0.708802 0.000000
0.354969 0.709937 0.000000
0.382949 0.711191 0.000000
0.411095 0.712566 0.000000
0.439422 0.714060 0.000000
0.467942 0.715676 0.000000
0.496669 0.717411 0.000000
0.525616 0.719265 0.000000
0.554797 0.721236 0.000000
0.584222 0.723323 0.000000
