correction_luts/cool_shift.cube
# Subtle cool shift via RGB rebalance
# Strength: 1.0
# Color model: linear-light tone (v2)
TITLE "Cool Shift - Add Coolness"
LUT_3D_SIZE 33
0.000000 0.000000 0.000000
0.030469 0.000000 0.000000
0.060000 0.000000 0.000000
0.090000 0.000000 0.000000
0.120000 0.000000 0.000000
0.150000 0.000000 0.000000
0.180000 0.000000 0.000000
0.210000 0.000000 0.000000
0.240000 0.000000 0.000000
0.270000 0.000000 0.000000
0.300000 0.000000 0.000000
0.330000 0.000000 0.000000
0.360000 0.000000 0.000000
0.390000 0.000000 0.000000
0.420000 0.000000 0.000000
0.450000 0.000000 0.000000
0.480000 0.000000 0.000000
0.510000 0.000000 0.000000
0.540000 0.000000 0.000000
0.570000 0.000000 0.000000
0.600000 0.000000 0.000000
0.630000 0.000000 0.000000
0.660000 0.000000 0.000000
0.690000 0.000000 0.000000
0.720000 0.000000 0.000000
0.750000 0.000000 0.000000
0.780000 0.000000 0.000000
0.810000 0.000000 0.000000
0.840000 0.000000 0.000000
0.870000 0.000000 0.000000
0.900000 0.000000 0.000000
0.930000 0.000000 0.000000
0.960000 0.000000 0.000000
0.000000 0.031250 0.000000
0.030469 0.031250 0.000000
0.060000 0.031250 0.000000
0.090000 0.031250 0.000000
0.120000 0.031250 0.000000
0.150000 0.031250 0.000000
0.180000 0.031250 0.000000
0.210000 0.031250 0.000000
0.240000 0.031250 0.000000
0.270000 0.031250 0.000000
0.300000 0.031250 0.000000
0.330000 0.031250 0.000000
0.360000 0.031250 0.000000
0.390000 0.031250 0.000000
0.420000 0.031250 0.000000
0.450000 0.031250 0.000000
0.480000 0.031250 0.000000
0.510000 0.031250 0.000000
0.540000 0.031250 0.000000
0.570000 0.031250 0.000000
0.600000 0.031250 0.000000
0.630000 0.031250 0.000000
0.660000 0.031250 0.000000
0.690000 0.031250 0.000000
0.720000 0.031250 0.000000
0.750000 0.031250 0.000000
0.780000 0.031250 0.000000
0.810000 0.031250 0.000000
0.840000 0.031250 0.000000
0.870000 0.031250 0.000000
0.900000 0.031250 0.000000
0.930000 0.031250 0.000000
0.960000 0.031250 0.000000
0.000000 0.062500 0.000000
0.030000 0.062500 0.000000
0.060000 0.062500 0.000000
0.090000 0.062500 0.000000
0.120000 0.062500 0.000000
0.150000 0.062500 0.000000
0.180000 0.062500 0.000000
0.210000 0.062500 0.000000
0.240000 0.062500 0.000000
0.270000 0.062500 0.000000
0.300000 0.062500 0.000000
0.330000 0.062500 0.000000
0.360000 0.062500 0.000000
0.390000 0.062500 0.000000
0.420000 0.062500 0.000000
0.450000 0.062500 0.000000
0.480000 0.062500 0.000000
0.510000 0.062500 0.000000
0.540000 0.062500 0.000000
0.570000 0.062500 0.000000
0.600000 0.062500 0.000000
0.630000 0.062500 0.000000
0.660000 0.062500 0.000000
0.690000 0.062500 0.000000
0.720000 0.062500 0.000000
0.750000 0.062500 0.000000
0.780000 0.062500 0.000000
0.810000 0.062500 0.000000
0.840000 0.062500 0.000000
0.870000 0.062500 0.000000
0.900000 0.062500 0.000000
0.930000 0.062500 0.000000
0.960000 0.062500 0.000000
0.000000 0.093750 0.000000
0.030000 0.093750 0.000000
0.060000 0.093750 0.000000
0.090000 0.093750 0.000000
0.120000 0.093750 0.000000
0.150000 0.093750 0.000000
0.180000 0.093750 0.000000
0.210000 0.093750 0.000000
0.240000 0.093750 0.000000
0.270000 0.093750 0.000000
0.300000 0.093750 0.000000
0.330000 0.093750 0.000000
0.360000 0.093750 0.000000
0.390000 0.093750 0.000000
0.420000 0.093750 0.000000
0.450000 0.093750 0.000000
0.480000 0.093750 0.000000
0.510000 0.093750 0.000000
0.540000 0.093750 0.000000
0.570000 0.093750 0.000000
0.600000 0.093750 0.000000
0.630000 0.093750 0.000000
0.660000 0.093750 0.000000
0.690000 0.093750 0.000000
0.720000 0.093750 0.000000
0.750000 0.093750 0.000000
0.780000 0.093750 0.000000
0.810000 0.093750 0.000000
0.840000 0.093750 0.000000
0.870000 0.093750 0.000000
0.900000 0.093750 0.000000
0.930000 0.093750 0.000000
0.960000 0.093750 0.000000
0.000000 0.125000 0.000000
0.030000 0.125000 0.000000
0.060000 0.125000 0.000000
0.090000 0.125000 0.000000
0.120000 0.125000 0.000000
0.150000 0.125000 0.000000
0.180000 0.125000 0.000000
0.210000 0.125000 0.000000
0.240000 0.125000 0.000000
0.270000 0.125000 0.000000
0.300000 0.125000 0.000000
0.330000 0.125000 0.000000
0.360000 0.125000 0.000000
0.390000 0.125000 0.000000
0.420000 0.125000 0.000000
0.450000 0.125000 0.000000
0.480000 0.125000 0.000000
0.510000 0.125000 0.000000
0.540000 0.125000 0.000000
0.570000 0.125000 0.000000
0.600000 0.125000 0.000000
0.630000 0.125000 0.000000
0.660000 0.125000 0.000000
0.690000 0.125000 0.000000
0.720000 0.125000 0.000000
0.750000 0.125000 0.000000
0.780000 0.125000 0.000000
0.810000 0.125000 0.000000
0.840000 0.125000 0.000000
0.870000 0.125000 0.000000
0.900000 0.125000 0.000000
0.930000 0.125000 0.000000
0.960000 0.125000 0.000000
0.000000 0.156250 0.000000
0.030000 0.156250 0.000000
0.060000 0.156250 0.000000
0.090000 0.156250 0.000000
0.120000 0.156250 0.000000
0.150000 0.156250 0.000000
0.180000 0.156250 0.000000
0.210000 0.156250 0.000000
0.240000 0.156250 0.000000
0.270000 0.156250 0.000000
0.300000 0.156250 0.000000
0.330000 0.156250 0.000000
0.360000 0.156250 0.000000
0.390000 0.156250 0.000000
0.420000 0.156250 0.000000
0.450000 0.156250 0.000000
0.480000 0.156250 0.000000
0.510000 0.156250 0.000000
0.540000 0.156250 0.000000
0.570000 0.156250 0.000000
0.600000 0.156250 0.000000
0.630000 0.156250 0.000000
0.660000 0.156250 0.000000
0.690000 0.156250 0.000000
0.720000 0.156250 0.000000
0.750000 0.156250 0.000000
0.780000 0.156250 0.000000
0.810000 0.156250 0.000000
0.840000 0.156250 0.000000
0.870000 0.156250 0.000000
0.900000 0.156250 0.000000
0.930000 0.156250 0.000000
0.960000 0.156250 0.000000
0.000000 0.187500 0.000000
0.030000 0.187500 0.000000
0.060000 0.187500 0.000000
0.090000 0.187500 0.000000
0.120000 0.187500 0.000000
0.150000 0.187500 0.000000
0.180000 0.187500 0.000000
0.210000 0.187500 0.000000
0.240000 0.187500 0.000000
0.270000 0.187500 0.000000
0.300000 0.187500 0.000000
0.330000 0.187500 0.000000
0.360000 0.187500 0.000000
0.390000 0.187500 0.000000
0.420000 0.187500 0.000000
0.450000 0.187500 0.000000
0.480000 0.187500 0.000000
0.510000 0.187500 0.000000
0.540000 0.187500 0.000000
0.570000 0.187500 0.000000
0.600000 0.187500 0.000000
0.630000 0.187500 0.000000
0.660000 0.187500 0.000000
0.690000 0.187500 0.000000
0.720000 0.187500 0.000000
0.750000 0.187500 0.000000
0.780000 0.187500 0.000000
0.810000 0.187500 0.000000
0.840000 0.187500 0.000000
0.870000 0.187500 0.000000
0.900000 0.187500 0.000000
0.930000 0.187500 0.000000
0.960000 0.187500 0.000000
0.000000 0.218750 0.000000
0.030000 0.218750 0.000000
0.060000 0.218750 0.000000
0.090000 0.218750 0.000000
0.120000 0.218750 0.000000
0.150000 0.218750 0.000000
0.180000 0.218750 0.000000
0.210000 0.218750 0.000000
0.240000 0.218750 0.000000
0.270000 0.218750 0.000000
0.300000 0.218750 0.000000
0.330000 0.218750 0.000000
0.360000 0.218750 0.000000
0.390000 0.218750 0.000000
0.420000 0.218750 0.000000
0.450000 0.218750 0.000000
0.480000 0.218750 0.000000
0.510000 0.218750 0.000000
0.540000 0.218750 0.000000
0.570000 0.218750 0.000000
0.600000 0.218750 0.000000
0.630000 0.218750 0.000000
0.660000 0.218750 0.000000
0.690000 0.218750 0.000000
0.720000 0.218750 0.000000
0.750000 0.218750 0.000000
0.780000 0.218750 0.000000
0.810000 0.218750 0.000000
0.840000 0.218750 0.000000
0.870000 0.218750 0.000000
0.900000 0.218750 0.000000
0.930000 0.218750 0.000000
0.960000 0.218750 0.000000
0.000000 0.250000 0.000000
0.030000 0.250000 0.000000
0.060000 0.250000 0.000000
0.090000 0.250000 0.000000
0.120000 0.250000 0.000000
0.150000 0.250000 0.000000
0.180000 0.250000 0.000000
0.210000 0.250000 0.000000
0.240000 0.250000 0.000000
0.270000 0.250000 0.000000
0.300000 0.250000 0.000000
0.330000 0.250000 0.000000
0.360000 0.250000 0.000000
0.390000 0.250000 0.000000
0.420000 0.250000 0.000000
0.450000 0.250000 0.000000
0.480000 0.250000 0.000000
0.510000 0.250000 0.000000
0.540000 0.250000 0.000000
0.570000 0.250000 0.000000
0.600000 0.250000 0.000000
0.630000 0.250000 0.000000
0.660000 0.250000 0.000000
0.690000 0.250000 0.000000
0.720000 0.250000 0.000000
0.750000 0.250000 0.000000
0.780000 0.250000 0.000000
0.810000 0.250000 0.000000
0.840000 0.250000 0.000000
0.870000 0.250000 0.000000
0.900000 0.250000 0.000000
0.930000 0.250000 0.000000
0.960000 0.250000 0.000000
0.000000 0.281250 0.000000
0.030000 0.281250 0.000000
0.060000 0.281250 0.000000
0.090000 0.281250 0.000000
0.120000 0.281250 0.000000
0.150000 0.281250 0.000000
0.180000 0.281250 0.000000
0.210000 0.281250 0.000000
0.240000 0.281250 0.000000
0.270000 0.281250 0.000000
0.300000 0.281250 0.000000
0.330000 0.281250 0.000000
0.360000 0.281250 0.000000
0.390000 0.281250 0.000000
0.420000 0.281250 0.000000
0.450000 0.281250 0.000000
0.480000 0.281250 0.000000
0.510000 0.281250 0.000000
0.540000 0.281250 0.000000
0.570000 0.281250 0.000000
0.600000 0.281250 0.000000
0.630000 0.281250 0.000000
0.660000 0.281250 0.000000
0.690000 0.281250 0.000000
0.720000 0.281250 0.000000
0.750000 0.281250 0.000000
0.780000 0.281250 0.000000
0.810000 0.281250 0.000000
0.840000 0.281250 0.000000
0.870000 0.281250 0.000000
0.900000 0.281250 0.000000
0.930000 0.281250 0.000000
0.960000 0.281250 0.000000
0.000000 0.312500 0.000000
0.030000 0.312500 0.000000
0.060000 0.312500 0.000000
0.090000 0.312500 0.000000
0.120000 0.312500 0.000000
0.150000 0.312500 0.000000
0.180000 0.312500 0.000000
0.210000 0.312500 0.000000
0.240000 0.312500 0.000000
0.270000 0.312500 0.000000
0.300000 0.312500 0.000000
0.330000 0.312500 0.000000
0.360000 0.312500 0.000000
0.390000 0.312500 0.000000
0.420000 0.312500 0.000000
0.450000 0.312500 0.000000
0.480000 0.312500 0.000000
0.510000 0.312500 0.000000
0.540000 0.312500 0.000000
0.570000 0.312500 0.000000
0.600000 0.312500 0.000000
0.630000 0.312500 0.000000
0.660000 0.312500 0.000000
0.690000 0.312500 0.000000
0.720000 0.312500 0.000000
0.750000 0.312500 0.000000
0.780000 0.312500 0.000000
0.810000 0.312500 0.000000
0.840000 0.312500 0.000000
0.870000 0.312500 0.000000
0.900000 0.312500 0.000000
0.930000 0.312500 0.000000
0.960000 0.312500 0.000000
0.000000 0.343750 0.000000
0.030000 0.343750 0.000000
0.060000 0.343750 0.000000
0.090000 0.343750 0.000000
0.120000 0.343750 0.000000
0.150000 0.343750 0.000000
0.180000 0.343750 0.000000
0.210000 0.343750 0.000000
0.240000 0.343750 0.000000
0.270000 0.343750 0.000000
0.300000 0.343750 0.000000
0.330000 0.343750 0.000000
0.360000 0.343750 0.000000
0.390000 0.343750 0.000000
0.420000 0.343750 0.000000
0.450000 0.343750 0.000000
0.480000 0.343750 0.000000
0.510000 0.343750 0.000000
0.540000 0.343750 0.000000
0.570000 0.343750 0.000000
0.600000 0.343750 0.000000
0.630000 0.343750 0.000000
0.660000 0.343750 0.000000
0.690000 0.343750 0.000000
0.720000 0.343750 0.000000
0.750000 0.343750 0.000000
0.780000 0.343750 0.000000
0.810000 0.343750 0.000000
0.840000 0.343750 0.000000
0.870000 0.343750 0.000000
0.900000 0.343750 0.000000
0.930000 0.343750 0.000000
0.960000 0.343750 0.000000
0.000000 0.375000 0.000000
0.030000 0.375000 0.000000
0.060000 0.375000 0.000000
0.090000 0.375000 0.000000
0.120000 0.375000 0.000000
0.150000 0.375000 0.000000
0.180000 0.375000 0.000000
0.210000 0.375000 0.000000
0.240000 0.375000 0.000000
0.270000 0.375000 0.000000
0.300000 0.375000 0.000000
0.330000 0.375000 0.000000
0.360000 0.375000 0.000000
0.390000 0.375000 0.000000
0.420000 0.375000 0.000000
0.450000 0.375000 0.000000
0.480000 0.375000 0.000000
0.510000 0.375000 0.000000
0.540000 0.375000 0.000000
0.570000 0.375000 0.000000
0.600000 0.375000 0.000000
0.630000 0.375000 0.000000
0.660000 0.375000 0.000000
0.690000 0.375000 0.000000
0.720000 0.375000 0.000000
0.750000 0.375000 0.000000
0.780000 0.375000 0.000000
0.810000 0.375000 0.000000
0.840000 0.375000 0.000000
0.870000 0.375000 0.000000
0.900000 0.375000 0.000000
0.930000 0.375000 0.000000
0.960000 0.375000 0.000000
0.000000 0.406250 0.000000
0.030000 0.406250 0.000000
0.060000 0.406250 0.000000
0.090000 0.406250 0.000000
0.120000 0.406250 0.000000
0.150000 0.406250 0.000000
0.180000 0.406250 0.000000
0.210000 0.406250 0.000000
0.240000 0.406250 0.000000
0.270000 0.406250 0.000000
0.300000 0.406250 0.000000
0.330000 0.406250 0.000000
0.360000 0.406250 0.000000
0.390000 0.406250 0.000000
0.420000 0.406250 0.000000
0.450000 0.406250 0.000000
0.480000 0.406250 0.000000
0.510000 0.406250 0.000000
0.540000 0.406250 0.000000
0.570000 0.406250 0.000000
0.600000 0.406250 0.000000
0.630000 0.406250 0.000000
0.660000 0.406250 0.000000
0.690000 0.406250 0.000000
0.720000 0.406250 0.000000
0.750000 0.406250 0.000000
0.780000 0.406250 0.000000
0.810000 0.406250 0.000000
0.840000 0.406250 0.000000
0.870000 0.406250 0.000000
0.900000 0.406250 0.000000
0.930000 0.406250 0.000000
0.960000 0.406250 0.000000
0.000000 0.437500 0.000000
0.030000 0.437500 0.000000
0.060000 0.437500 0.000000
0.090000 0.437500 0.000000
0.120000 0.437500 0.000000
0.150000 0.437500 0.000000
0.180000 0.437500 0.000000
0.210000 0.437500 0.000000
0.240000 0.437500 0.000000
0.270000 0.437500 0.000000
0.300000 0.437500 0.000000
0.330000 0.437500 0.000000
0.360000 0.437500 0.000000
0.390000 0.437500 0.000000
0.420000 0.437500 0.000000
0.450000 0.437500 0.000000
0.480000 0.437500 0.000000
0.510000 0.437500 0.000000
0.540000 0.437500 0.000000
0.570000 0.437500 0.000000
0.600000 0.437500 0.000000
0.630000 0.437500 0.000000
0.660000 0.437500 0.000000
0.690000 0.437500 0.000000
0.720000 0.437500 0.000000
0.750000 0.437500 0.000000
0.780000 0.437500 0.000000
0.810000 0.437500 0.000000
0.840000 0.437500 0.000000
0.870000 0.437500 0.000000
0.900000 0.437500 0.000000
0.930000 0.437500 0.000000
0.960000 0.437500 0.000000
0.000000 0.468750 0.000000
0.030000 0.468750 0.000000
0.060000 0.468750 0.000000
0.090000 0.468750 0.000000
0.120000 0.468750 0.000000
0.150000 0.468750 0.000000
0.180000 0.468750 0.000000
0.210000 0.468750 0.000000
0.240000 0.468750 0.000000
0.270000 0.468750 0.000000
0.300000 0.468750 0.000000
0.330000 0.468750 0.000000
0.360000 0.468750 0.000000
0.390000 0.468750 0.000000
0.420000 0.468750 0.000000
0.450000 0.468750 0.000000
0.480000 0.468750 0.000000
0.510000 0.468750 0.000000
0.540000 0.468750 0.000000
0.570000 0.468750 0.000000
0.600000 0.468750 0.000000
0.630000 0.468750 0.000000
0.660000 0.468750 0.000000
0.690000 0.468750 0.000000
0.720000 0.468750 0.000000
0.750000 0.468750 0.000000
0.780000 0.468750 0.000000
0.810000 0.468750 0.000000
0.840000 0.468750 0.000000
0.870000 0.468750 0.000000
0.900000 0.468750 0.000000
0.930000 0.468750 0.000000
0.960000 0.468750 0.000000
0.000000 0.500000 0.000000
0.030000 0.500000 0.000000
0.060000 0.500000 0.000000
0.090000 0.500000 0.000000
0.120000 0.500000 0.000000
0.150000 0.500000 0.000000
0.180000 0.500000 0.000000
0.210000 0.500000 0.000000
0.240000 0.500000 0.000000
0.270000 0.500000 0.000000
0.300000 0.500000 0.000000
0.330000 0.500000 0.000000
0.360000 0.500000 0.000000
0.390000 0.500000 0.000000
0.420000 0.500000 0.000000
0.450000 0.500000 0.000000
0.480000 0.500000 0.000000
0.510000 0.500000 0.000000
0.540000 0.500000 0.000000
0.570000 0.500000 0.000000
0.600000 0.500000 0.000000
0.630000 0.500000 0.000000
0.660000 0.500000 0.000000
0.690000 0.500000 0.000000
0.720000 0.500000 0.000000
0.750000 0.500000 0.000000
0.780000 0.500000 0.000000
0.810000 0.500000 0.000000
0.840000 0.500000 0.000000
0.870000 0.500000 0.000000
0.900000 0.500000 0.000000
0.930000 0.500000 0.000000
0.960000 0.500000 0.000000
0.000000 0.531250 0.000000
0.030000 0.531250 0.000000
0.060000 0.531250 0.000000
0.090000 0.531250 0.000000
0.120000 0.531250 0.000000
0.150000 0.531250 0.000000
0.180000 0.531250 0.000000
0.210000 0.531250 0.000000
0.240000 0.531250 0.000000
0.270000 0.531250 0.000000
0.300000 0.531250 0.000000
0.330000 0.531250 0.000000
0.360000 0.531250 0.000000
0.390000 0.531250 0.000000
0.420000 0.531250 0.000000
0.450000 0.531250 0.000000
0.480000 0.531250 0.000000
0.510000 0.531250 0.000000
0.540000 0.531250 0.000000
0.570000 0.531250 0.000000
0.600000 0.531250 0.000000
0.630000 0.531250 0.000000
0.660000 0.531250 0.000000
0.690000 0.531250 0.000000
0.720000 0.531250 0.000000
0.750000 0.531250 0.000000
0.780000 0.531250 0.000000
0.810000 0.531250 0.000000
0.840000 0.531250 0.000000
0.870000 0.531250 0.000000
0.900000 0.531250 0.000000
0.930000 0.531250 0.000000
0.960000 0.531250 0.000000
0.000000 0.562500 0.000000
0.030000 0.562500 0.000000
0.060000 0.562500 0.000000
0.090000 0.562500 0.000000
0.120000 0.562500 0.000000
0.150000 0.562500 0.000000
0.180000 0.562500 0.000000
0.210000 0.562500 0.000000
0.240000 0.562500 0.000000
0.270000 0.562500 0.000000
0.300000 0.562500 0.000000
0.330000 0.562500 0.000000
0.360000 0.562500 0.000000
0.390000 0.562500 0.000000
0.420000 0.562500 0.000000
0.450000 0.562500 0.000000
0.480000 0.562500 0.000000
0.510000 0.562500 0.000000
0.540000 0.562500 0.000000
0.570000 0.562500 0.000000
0.600000 0.562500 0.000000
0.630000 0.562500 0.000000
0.660000 0.562500 0.000000
0.690000 0.562500 0.000000
0.720000 0.562500 0.000000
0.750000 0.562500 0.000000
0.780000 0.562500 0.000000
0.810000 0.562500 0.000000
0.840000 0.562500 0.000000
0.870000 0.562500 0.000000
0.900000 0.562500 0.000000
0.930000 0.562500 0.000000
0.960000 0.562500 0.000000
0.000000 0.593750 0.000000
0.030000 0.593750 0.000000
0.060000 0.593750 0.000000
0.090000 0.593750 0.000000
0.120000 0.593750 0.000000
0.150000 0.593750 0.000000
0.180000 0.593750 0.000000
0.210000 0.593750 0.000000
0.240000 0.593750 0.000000
0.270000 0.593750 0.000000
0.300000 0.593750 0.000000
0.330000 0.593750 0.000000
0.360000 0.593750 0.000000
0.390000 0.593750 0.000000
0.420000 0.593750 0.000000
0.450000 0.593750 0.000000
0.480000 0.593750 0.000000
0.510000 0.593750 0.000000
0.540000 0.593750 0.000000
0.570000 0.593750 0.000000
0.600000 0.593750 0.000000
0.630000 0.593750 0.000000
0.660000 0.593750 0.000000
0.690000 0.593750 0.000000
0.720000 0.593750 0.000000
0.750000 0.593750 0.000000
0.780000 0.593750 0.000000
0.810000 0.593750 0.000000
0.840000 0.593750 0.000000
0.870000 0.593750 0.000000
0.900000 0.593750 0.000000
0.930000 0.593750 0.000000
0.960000 0.593750 0.000000
0.000000 0.625000 0.000000
0.030000 0.625000 0.000000
0.060000 0.625000 0.000000
0.090000 0.625000 0.000000
0.120000 0.625000 0.000000
0.150000 0.625000 0.000000
0.180000 0.625000 0.000000
0.210000 0.625000 0.000000
0.240000 0.625000 0.000000
0.270000 0.625000 0.000000
0.300000 0.625000 0.000000
0.330000 0.625000 0.000000
0.360000 0.625000 0.000000
0.390000 0.625000 0.000000
0.420000 0.625000 0.000000
0.450000 0.625000 0.000000
0.480000 0.625000 0.000000
0.510000 0.625000 0.000000
0.540000 0.625000 0.000000
0.570000 0.625000 0.000000
0.600000 0.625000 0.000000
0.630000 0.625000 0.000000
0.660000 0.625000 0.000000
0.690000 0.625000 0.000000
0.720000 0.625000 0.000000
0.750000 0.625000 0.000000
0.780000 0.625000 0.000000
0.810000 0.625000 0.000000
0.840000 0.625000 0.000000
0.870000 0.625000 0.000000
0.900000 0.625000 0.000000
0.930000 0.625000 0.000000
0.960000 0.625000 0.000000
0.000000 0.656250 0.000000
0.030000 0.656250 0.000000
0.060000 0.656250 0.000000
0.090000 0.656250 0.000000
0.120000 0.656250 0.000000
0.150000 0.656250 0.000000
0.180000 0.656250 0.000000
0.210000 0.656250 0.000000
0.240000 0.656250 0.000000
0.270000 0.656250 0.000000
0.300000 0.656250 0.000000
0.330000 0.656250 0.000000
0.360000 0.656250 0.000000
0.390000 0.656250 0.000000
0.420000 0.656250 0.000000
0.450000 0.656250 0.000000
0.480000 0.656250 0.000000
0.510000 0.656250 0.000000
0.540000 0.656250 0.000000
0.570000 0.656250 0.000000
0.600000 0.656250 0.000000
0.630000 0.656250 0.000000
0.660000 0.656250 0.000000
0.690000 0.656250 0.000000
0.720000 0.656250 0.000000
0.750000 0.656250 0.000000
0.780000 0.656250 0.000000
0.810000 0.656250 0.000000
0.840000 0.656250 0.000000
0.870000 0.656250 0.000000
0.900000 0.656250 0.000000
0.930000 0.656250 0.000000
0.960000 0.656250 0.000000
0.000000 0.687500 0.000000
0.030000 0.687500 0.000000
0.060000 0.687500 0.000000
0.090000 0.687500 0.000000
0.120000 0.687500 0.000000
0.150000 0.687500 0.000000
0.180000 0.687500 0.000000
0.210000 0.687500 0.000000
0.240000 0.687500 0.000000
0.270000 0.687500 0.000000
0.300000 0.687500 0.000000
0.330000 0.687500 0.000000
0.360000 0.687500 0.000000
0.390000 0.687500 0.000000
0.420000 0.687500 0.000000
0.450000 0.687500 0.000000
0.480000 0.687500 0.000000
0.510000 0.687500 0.000000
0.540000 0.687500 0.000000
0.570000 0.687500 0.000000
0.600000 0.687500 0.000000
0.630000 0.687500 0.000000
0.660000 0.687500 0.000000
0.690000 0.687500 0.000000
0.720000 0.687500 0.000000
0.750000 0.687500 0.000000
0.780000 0.687500 0.000000
0.810000 0.687500 0.000000
0.840000 0.687500 0.000000
0.870000 0.687500 0.000000
0.900000 0.687500 0.000000
0.930000 0.687500 0.000000
0.960000 0.687500 0.000000
0.000000 0.718750 0.000000
0.030000 0.718750 0.000000
0.060000 0.718750 0.000000
0.090000 0.718750 0.000000
0.120000 0.718750 0.000000
0.150000 0.718750 0.000000
0.180000 0.718750 0.000000
0.210000 0.718750 0.000000
0.240000 0.718750 0.000000
0.270000 0.718750 0.000000
0.300000 0.718750 0.000000
0.330000 0.718750 0.000000
0.360000 0.718750 0.000000
0.390000 0.718750 0.000000
0.420000 0.718750 0.000000
0.450000 0.718750 0.000000
0.480000 0.718750 0.000000
0.510000 0.718750 0.000000
0.540000 0.718750 0.000000
0.570000 0.718750 0.000000
0.600000 0.718750 0.000000
0.630000 0.718750 0.000000
0.660000 0.718750 0.000000
0.690000 0.718750 0.000000
0.720000 0.718750 0.000000
0.750000 0.718750 0.000000
0.780000 0.718750 0.000000
0.810000 0.718750 0.000000
0.840000 0.718750 0.000000
0.870000 0.718750 0.000000
0.900000 0.718750 0.000000
0.930000 0.718750 0.000000
0.960000 0.718750 0.000000
0.000000 0.750000 0.000000
0.030000 0.750000 0.000000
0.060000 0.750000 0.000000
0.090000 0.750000 0.000000
0.120000 0.750000 0.000000
0.150000 0.750000 0.000000
0.180000 0.750000 0.000000
0.210000 0.750000 0.000000
0.240000 0.750000 0.000000
0.270000 0.750000 0.000000
0.300000 0.750000 0.000000
0.330000 0.750000 0.000000
0.360000 0.750000 0.000000
0.390000 0.750000 0.000000
0.420000 0.750000 0.000000
0.450000 0.750000 0.000000
0.480000 0.750000 0.000000
0.510000 0.750000 0.000000
0.540000 0.750000 0.000000
0.570000 0.750000 0.000000
0.600000 0.750000 0.000000
0.630000 0.750000 0.000000
0.660000 0.750000 0.000000
0.690000 0.750000 0.000000
0.720000 0.750000 0.000000
0.750000 0.750000 0.000000
0.780000 0.750000 0.000000
0.810000 0.750000 0.000000
0.840000 0.750000 0.000000
0.870000 0.750000 0.000000
0.900000 0.750000 0.000000
0.930000 0.750000 0.000000
0.960000 0.750000 0.000000
0.000000 0.781250 0.000000
0.030000 0.781250 0.000000
0.060000 0.781250 0.000000
0.090000 0.781250 0.000000
0.120000 0.781250 0.000000
0.150000 0.781250 0.000000
0.180000 0.781250 0.000000
0.210000 0.781250 0.000000
0.240000 0.781250 0.000000
0.270000 0.781250 0.000000
0.300000 0.781250 0.000000
0.330000 0.781250 0.000000
0.360000 0.781250 0.000000
0.390000 0.781250 0.000000
0.420000 0.781250 0.000000
0.450000 0.781250 0.000000
0.480000 0.781250 0.000000
0.510000 0.781250 0.000000
0.540000 0.781250 0.000000
0.570000 0.781250 0.000000
0.600000 0.781250 0.000000
0.630000 0.781250 0.000000
0.660000 0.781250 0.000000
0.690000 0.781250 0.000000
0.720000 0.781250 0.000000
0.750000 0.781250 0.000000
0.780000 0.781250 0.000000
0.810000 0.781250 0.000000
0.840000 0.781250 0.000000
0.870000 0.781250 0.000000
0.900000 0.781250 0.000000
0.930000 0.781250 0.000000
0.960000 0.781250 0.000000
0.000000 0.812500 0.000000
0.030000 0.812500 0.000000
0.060000 0.812500 0.000000
0.090000 0.812500 0.000000
0.120000 0.812500 0.000000
0.150000 0.812500 0.000000
0.180000 0.812500 0.000000
0.210000 0.812500 0.000000
0.240000 0.812500 0.000000
0.270000 0.812500 0.000000
0.300000 0.812500 0.000000
0.330000 0.812500 0.000000
0.360000 0.812500 0.000000
0.390000 0.812500 0.000000
0.420000 0.812500 0.000000
0.450000 0.812500 0.000000
0.480000 0.812500 0.000000
0.510000 0.812500 0.000000
0.540000 0.812500 0.000000
0.570000 0.812500 0.000000
0.600000 0.812500 0.000000
0.630000 0.812500 0.000000
0.660000 0.812500 0.000000
0.690000 0.812500 0.000000
0.720000 0.812500 0.000000
