correction_luts/cool_shift.cube
# Subtle cool shift via RGB rebalance
# Strength: 1.0
# Color model: linear-light tone (v2)
TITLE "Cool Shift - Add Coolness"
LUT_3D_SIZE 9
0.000000 0.000000 0.000000
0.120000 0.000000 0.000000
0.240000 0.000000 0.000000
0.360000 0.000000 0.000000
0.480000 0.000000 0.000000
0.600000 0.000000 0.000000
0.720000 0.000000 0.000000
0.840000 0.000000 0.000000
0.960000 0.000000 0.000000
0.000000 0.125000 0.000000
0.120000 0.125000 0.000000
0.240000 0.125000 0.000000
0.360000 0.125000 0.000000
0.480000 0.125000 0.000000
0.600000 0.125000 0.000000
0.720000 0.125000 0.000000
0.840000 0.125000 0.000000
0.960000 0.125000 0.000000
0.000000 0.250000 0.000000
0.120000 0.250000 0.000000
0.240000 0.250000 0.000000
0.360000 0.250000 0.000000
0.480000 0.250000 0.000000
0.600000 0.250000 0.000000
0.720000 0.250000 0.000000
0.840000 0.250000 0.000000
0.960000 0.250000 0.000000
0.000000 0.375000 0.000000
0.120000 0.375000 0.000000
0.240000 0.375000 0.000000
0.360000 0.375000 0.000000
0.480000 0.375000 0.000000
0.600000 0.375000 0.000000
0.720000 0.375000 0.000000
0.840000 0.375000 0.000000
0.960000 0.375000 0.000000
0.000000 0.500000 0.000000
0.120000 0.500000 0.000000
0.240000 0.500000 0.000000
0.360000 0.500000 0.000000
0.480000 0.500000 0.000000
0.600000 0.500000 0.000000
0.720000 0.500000 0.000000
0.840000 0.500000 0.000000
0.960000 0.500000 0.000000
0.000000 0.625000 0.000000
0.120000 0.625000 0.000000
0.240000 0.625000 0.000000
0.360000 0.625000 0.000000
0.480000 0.625000 0.000000
0.600000 0.625000 0.000000
0.720000 0.625000 0.000000
0.840000 0.625000 0.000000
0.960000 0.625000 0.000000
0.000000 0.750000 0.000000
0.120000 0.750000 0.000000
0.240000 0.750000 0.000000
0.360000 0.750000 0.000000
0.480000 0.750000 0.000000
0.600000 0.750000 0.000000
0.720000 0.750000 0.000000
0.840000 0.750000 0.000000
0.960000 0.750000 0.000000
0.000000 0.875000 0.000000
0.120000 0.875000 0.000000
0.240000 0.875000 0.000000
0.360000 0.875000 0.000000
0.480000 0.875000 0.000000
0.600000 0.875000 0.000000
0.720000 0.875000 0.000000
0.840000 0.875000 0.000000
0.960000 0.875000 0.000000
0.000000 1.000000 0.000000
0.120000 1.000000 0.000000
0.240000 1.000000 0.000000
0.360000 1.000000 0.000000
0.480000 1.000000 0.000000
0.600000 1.000000 0.000000
0.720000 1.000000 0.000000
0.840000 1.000000 0.000000
0.960000 1.000000 0.000000
0.000000 0.000000 0.130000
0.120000 0.000000 0.130000
0.240000 0.000000 0.130000
0.360000 0.000000 0.130000
0.480000 0.000000 0.130000
0.600000 0.000000 0.130000
0.720000 0.000000 0.130000
0.840000 0.000000 0.130000
0.960000 0.000000 0.130000
0.000000 0.125000 0.130000
0.120000 0.125000 0.130000
0.240000 0.125000 0.130000
0.360000 0.125000 0.130000
0.480000 0.125000 0.130000
0.600000 0.125000 0.130000
0.720000 0.125000 0.130000
0.840000 0.125000 0.130000
0.960000 0.125000 0.130000
0.000000 0.250000 0.130000
0.120000 0.250000 0.130000
0.240000 0.250000 0.130000
0.360000 0.250000 0.130000
0.480000 0.250000 0.130000
0.600000 0.250000 0.130000
0.720000 0.250000 0.130000
0.840000 0.250000 0.130000
0.960000 0.250000 0.130000
0.000000 0.375000 0.130000
0.120000 0.375000 0.130000
0.240000 0.375000 0.130000
0.360000 0.375000 0.130000
0.480000 0.375000 0.130000
0.600000 0.375000 0.130000
0.720000 0.375000 0.130000
0.840000 0.375000 0.130000
0.960000 0.375000 0.130000
0.000000 0.500000 0.130000
0.120000 0.500000 0.130000
0.240000 0.500000 0.130000
0.360000 0.500000 0.130000
0.480000 0.500000 0.130000
0.600000 0.500000 0.130000
0.720000 0.500000 0.130000
0.840000 0.500000 0.130000
0.960000 0.500000 0.130000
0.000000 0.625000 0.130000
0.120000 0.625000 0.130000
0.240000 0.625000 0.130000
0.360000 0.625000 0.130000
0.480000 0.625000 0.130000
0.600000 0.625000 0.130000
0.720000 0.625000 0.130000
0.840000 0.625000 0.130000
0.960000 0.625000 0.130000
0.000000 0.750000 0.130000
0.120000 0.750000 0.130000
0.240000 0.750000 0.130000
0.360000 0.750000 0.130000
0.480000 0.750000 0.130000
0.600000 0.750000 0.130000
0.720000 0.750000 0.130000
0.840000 0.750000 0.130000
0.960000 0.750000 0.130000
0.000000 0.875000 0.130000
0.120000 0.875000 0.130000
0.240000 0.875000 0.130000
0.360000 0.875000 0.130000
0.480000 0.875000 0.130000
0.600000 0.875000 0.130000
0.720000 0.875000 0.130000
0.840000 0.875000 0.130000
0.960000 0.875000 0.130000
0.000000 1.000000 0.130000
0.120000 1.000000 0.130000
0.240000 1.000000 0.130000
0.360000 1.000000 0.130000
0.480000 1.000000 0.130000
0.600000 1.000000 0.130000
0.720000 1.000000 0.130000
0.840000 1.000000 0.130000
0.960000 1.000000 0.130000
0.000000 0.000000 0.260000
0.120000 0.000000 0.260000
0.240000 0.000000 0.260000
0.360000 0.000000 0.260000
0.480000 0.000000 0.260000
0.600000 0.000000 0.260000
0.720000 0.000000 0.260000
0.840000 0.000000 0.260000
0.960000 0.000000 0.260000
0.000000 0.125000 0.260000
0.120000 0.125000 0.260000
0.240000 0.125000 0.260000
0.360000 0.125000 0.260000
0.480000 0.125000 0.260000
0.600000 0.125000 0.260000
0.720000 0.125000 0.260000
0.840000 0.125000 0.260000
0.960000 0.125000 0.260000
0.000000 0.250000 0.260000
0.120000 0.250000 0.260000
0.240000 0.250000 0.260000
0.360000 0.250000 0.260000
0.480000 0.250000 0.260000
0.600000 0.250000 0.260000
0.720000 0.250000 0.260000
0.840000 0.250000 0.260000
0.960000 0.250000 0.260000
0.000000 0.375000 0.260000
0.120000 0.375000 0.260000
0.240000 0.375000 0.260000
0.360000 0.375000 0.260000
0.480000 0.375000 0.260000
0.600000 0.375000 0.260000
0.720000 0.375000 0.260000
0.840000 0.375000 0.260000
0.960000 0.375000 0.260000
0.000000 0.500000 0.260000
0.120000 0.500000 0.260000
0.240000 0.500000 0.260000
0.360000 0.500000 0.260000
0.480000 0.500000 0.260000
0.600000 0.500000 0.260000
0.720000 0.500000 0.260000
0.840000 0.500000 0.260000
0.960000 0.500000 0.260000
0.000000 0.625000 0.260000
0.120000 0.625000 0.260000
0.240000 0.625000 0.260000
0.360000 0.625000 0.260000
0.480000 0.625000 0.260000
0.600000 0.625000 0.260000
0.720000 0.625000 0.260000
0.840000 0.625000 0.260000
0.960000 0.625000 0.260000
0.000000 0.750000 0.260000
0.120000 0.750000 0.260000
0.240000 0.750000 0.260000
0.360000 0.750000 0.260000
0.480000 0.750000 0.260000
0.600000 0.750000 0.260000
0.720000 0.750000 0.260000
0.840000 0.750000 0.260000
0.960000 0.750000 0.260000
0.000000 0.875000 0.260000
0.120000 0.875000 0.260000
0.240000 0.875000 0.260000
0.360000 0.875000 0.260000
0.480000 0.875000 0.260000
0.600000 0.875000 0.260000
0.720000 0.875000 0.260000
0.840000 0.875000 0.260000
0.960000 0.875000 0.260000
0.000000 1.000000 0.260000
0.120000 1.000000 0.260000
0.240000 1.000000 0.260000
0.360000 1.000000 0.260000
0.480000 1.000000 0.260000
0.600000 1.000000 0.260000
0.720000 1.000000 0.260000
0.840000 1.000000 0.260000
0.960000 1.000000 0.260000
0.000000 0.000000 0.390000
0.120000 0.000000 0.390000
0.240000 0.000000 0.390000
0.360000 0.000000 0.390000
0.480000 0.000000 0.390000
0.600000 0.000000 0.390000
0.720000 0.000000 0.390000
0.840000 0.000000 0.390000
0.960000 0.000000 0.390000
0.000000 0.125000 0.390000
0.120000 0.125000 0.390000
0.240000 0.125000 0.390000
0.360000 0.125000 0.390000
0.480000 0.125000 0.390000
0.600000 0.125000 0.390000
0.720000 0.125000 0.390000
0.840000 0.125000 0.390000
0.960000 0.125000 0.390000
0.000000 0.250000 0.390000
0.120000 0.250000 0.390000
0.240000 0.250000 0.390000
0.360000 0.250000 0.390000
0.480000 0.250000 0.390000
0.600000 0.250000 0.390000
0.720000 0.250000 0.390000
0.840000 0.250000 0.390000
0.960000 0.250000 0.390000
0.000000 0.375000 0.390000
0.120000 0.375000 0.390000
0.240000 0.375000 0.390000
0.360000 0.375000 0.390000
0.480000 0.375000 0.390000
0.600000 0.375000 0.390000
0.720000 0.375000 0.390000
0.840000 0.375000 0.390000
0.960000 0.375000 0.390000
0.000000 0.500000 0.390000
0.120000 0.500000 0.390000
0.240000 0.500000 0.390000
0.360000 0.500000 0.390000
0.480000 0.500000 0.390000
0.600000 0.500000 0.390000
0.720000 0.500000 0.390000
0.840000 0.500000 0.390000
0.960000 0.500000 0.390000
0.000000 0.625000 0.390000
0.120000 0.625000 0.390000
0.240000 0.625000 0.390000
0.360000 0.625000 0.390000
0.480000 0.625000 0.390000
0.600000 0.625000 0.390000
0.720000 0.625000 0.390000
0.840000 0.625000 0.390000
0.960000 0.625000 0.390000
0.000000 0.750000 0.390000
0.120000 0.750000 0.390000
0.240000 0.750000 0.390000
0.360000 0.750000 0.390000
0.480000 0.750000 0.390000
0.600000 0.750000 0.390000
0.720000 0.750000 0.390000
0.840000 0.750000 0.390000
0.960000 0.750000 0.390000
0.000000 0.875000 0.390000
0.120000 0.875000 0.390000
0.240000 0.875000 0.390000
0.360000 0.875000 0.390000
0.480000 0.875000 0.390000
0.600000 0.875000 0.390000
0.720000 0.875000 0.390000
0.840000 0.875000 0.390000
0.960000 0.875000 0.390000
0.000000 1.000000 0.390000
0.120000 1.000000 0.390000
0.240000 1.000000 0.390000
0.360000 1.000000 0.390000
0.480000 1.000000 0.390000
0.600000 1.000000 0.390000
0.720000 1.000000 0.390000
0.840000 1.000000 0.390000
0.960000 1.000000 0.390000
0.000000 0.000000 0.520000
0.120000 0.000000 0.520000
0.240000 0.000000 0.520000
0.360000 0.000000 0.520000
0.480000 0.000000 0.520000
0.600000 0.000000 0.520000
0.720000 0.000000 0.520000
0.840000 0.000000 0.520000
0.960000 0.000000 0.520000
0.000000 0.125000 0.520000
0.120000 0.125000 0.520000
0.240000 0.125000 0.520000
0.360000 0.125000 0.520000
0.480000 0.125000 0.520000
0.600000 0.125000 0.520000
0.720000 0.125000 0.520000
0.840000 0.125000 0.520000
0.960000 0.125000 0.520000
0.000000 0.250000 0.520000
0.120000 0.250000 0.520000
0.240000 0.250000 0.520000
0.360000 0.250000 0.520000
0.480000 0.250000 0.520000
0.600000 0.250000 0.520000
0.720000 0.250000 0.520000
0.840000 0.250000 0.520000
0.960000 0.250000 0.520000
0.000000 0.375000 0.520000
0.120000 0.375000 0.520000
0.240000 0.375000 0.520000
0.360000 0.375000 0.520000
0.480000 0.375000 0.520000
0.600000 0.375000 0.520000
0.720000 0.375000 0.520000
0.840000 0.375000 0.520000
0.960000 0.375000 0.520000
0.000000 0.500000 0.520000
0.120000 0.500000 0.520000
0.240000 0.500000 0.520000
0.360000 0.500000 0.520000
0.480000 0.500000 0.520000
0.600000 0.500000 0.520000
0.720000 0.500000 0.520000
0.840000 0.500000 0.520000
0.960000 0.500000 0.520000
0.000000 0.625000 0.520000
0.120000 0.625000 0.520000
0.240000 0.625000 0.520000
0.360000 0.625000 0.520000
0.480000 0.625000 0.520000
0.600000 0.625000 0.520000
0.720000 0.625000 0.520000
0.840000 0.625000 0.520000
0.960000 0.625000 0.520000
0.000000 0.750000 0.520000
0.120000 0.750000 0.520000
0.240000 0.750000 0.520000
0.360000 0.750000 0.520000
0.480000 0.750000 0.520000
0.600000 0.750000 0.520000
0.720000 0.750000 0.520000
0.840000 0.750000 0.520000
0.960000 0.750000 0.520000
0.000000 0.875000 0.520000
0.120000 0.875000 0.520000
0.240000 0.875000 0.520000
0.360000 0.875000 0.520000
0.480000 0.875000 0.520000
0.600000 0.875000 0.520000
0.720000 0.875000 0.520000
0.840000 0.875000 0.520000
0.960000 0.875000 0.520000
0.000000 1.000000 0.520000
0.120000 1.000000 0.520000
0.240000 1.000000 0.520000
0.360000 1.000000 0.520000
0.480000 1.000000 0.520000
0.600000 1.000000 0.520000
0.720000 1.000000 0.520000
0.840000 1.000000 0.520000
0.960000 1.000000 0.520000
0.000000 0.000000 0.650000
0.120000 0.000000 0.650000
0.240000 0.000000 0.650000
0.360000 0.000000 0.650000
0.480000 0.000000 0.650000
0.600000 0.000000 0.650000
0.720000 0.000000 0.650000
0.840000 0.000000 0.650000
0.960000 0.000000 0.650000
0.000000 0.125000 0.650000
0.120000 0.125000 0.650000
0.240000 0.125000 0.650000
0.360000 0.125000 0.650000
0.480000 0.125000 0.650000
0.600000 0.125000 0.650000
0.720000 0.125000 0.650000
0.840000 0.125000 0.650000
0.960000 0.125000 0.650000
0.000000 0.250000 0.650000
0.120000 0.250000 0.650000
0.240000 0.250000 0.650000
0.360000 0.250000 0.650000
0.480000 0.250000 0.650000
0.600000 0.250000 0.650000
0.720000 0.250000 0.650000
0.840000 0.250000 0.650000
0.960000 0.250000 0.650000
0.000000 0.375000 0.650000
0.120000 0.375000 0.650000
0.240000 0.375000 0.650000
0.360000 0.375000 0.650000
0.480000 0.375000 0.650000
0.600000 0.375000 0.650000
0.720000 0.375000 0.650000
0.840000 0.375000 0.650000
0.960000 0.375000 0.650000
0.000000 0.500000 0.650000
0.120000 0.500000 0.650000
0.240000 0.500000 0.650000
0.360000 0.500000 0.650000
0.480000 0.500000 0.650000
0.600000 0.500000 0.650000
0.720000 0.500000 0.650000
0.840000 0.500000 0.650000
0.960000 0.500000 0.650000
0.000000 0.625000 0.650000
0.120000 0.625000 0.650000
0.240000 0.625000 0.650000
0.360000 0.625000 0.650000
0.480000 0.625000 0.650000
0.600000 0.625000 0.650000
0.720000 0.625000 0.650000
0.840000 0.625000 0.650000
0.960000 0.625000 0.650000
0.000000 0.750000 0.650000
0.120000 0.750000 0.650000
0.240000 0.750000 0.650000
0.360000 0.750000 0.650000
0.480000 0.750000 0.650000
0.600000 0.750000 0.650000
0.720000 0.750000 0.650000
0.840000 0.750000 0.650000
0.960000 0.750000 0.650000
0.000000 0.875000 0.650000
0.120000 0.875000 0.650000
0.240000 0.875000 0.650000
0.360000 0.875000 0.650000
0.480000 0.875000 0.650000
0.600000 0.875000 0.650000
0.720000 0.875000 0.650000
0.840000 0.875000 0.650000
0.960000 0.875000 0.650000
0.000000 1.000000 0.650000
0.120000 1.000000 0.650000
0.240000 1.000000 0.650000
0.360000 1.000000 0.650000
0.480000 1.000000 0.650000
0.600000 1.000000 0.650000
0.720000 1.000000 0.650000
0.840000 1.000000 0.650000
0.960000 1.000000 0.650000
0.000000 0.000000 0.780000
0.120000 0.000000 0.780000
0.240000 0.000000 0.780000
0.360000 0.000000 0.780000
0.480000 0.000000 0.780000
0.600000 0.000000 0.780000
0.720000 0.000000 0.780000
0.840000 0.000000 0.780000
0.960000 0.000000 0.780000
0.000000 0.125000 0.780000
0.120000 0.125000 0.780000
0.240000 0.125000 0.780000
0.360000 0.125000 0.780000
0.480000 0.125000 0.780000
0.600000 0.125000 0.780000
0.720000 0.125000 0.780000
0.840000 0.125000 0.780000
0.960000 0.125000 0.780000
0.000000 0.250000 0.780000
0.120000 0.250000 0.780000
0.240000 0.250000 0.780000
0.360000 0.250000 0.780000
0.480000 0.250000 0.780000
0.600000 0.250000 0.780000
0.720000 0.250000 0.780000
0.840000 0.250000 0.780000
0.960000 0.250000 0.780000
0.000000 0.375000 0.780000
0.120000 0.375000 0.780000
0.240000 0.375000 0.780000
0.360000 0.375000 0.780000
0.480000 0.375000 0.780000
0.600000 0.375000 0.780000
0.720000 0.375000 0.780000
0.840000 0.375000 0.780000
0.960000 0.375000 0.780000
0.000000 0.500000 0.780000
0.120000 0.500000 0.780000
0.240000 0.500000 0.780000
0.360000 0.500000 0.780000
0.480000 0.500000 0.780000
0.600000 0.500000 0.780000
0.720000 0.500000 0.780000
0.840000 0.500000 0.780000
0.960000 0.500000 0.780000
0.000000 0.625000 0.780000
0.120000 0.625000 0.780000
0.240000 0.625000 0.780000
0.360000 0.625000 0.780000
0.480000 0.625000 0.780000
0.600000 0.625000 0.780000
0.720000 0.625000 0.780000
0.840000 0.625000 0.780000
0.960000 0.625000 0.780000
0.000000 0.750000 0.780000
0.120000 0.750000 0.780000
0.240000 0.750000 0.780000
0.360000 0.750000 0.780000
0.480000 0.750000 0.780000
0.600000 0.750000 0.780000
0.720000 0.750000 0.780000
0.840000 0.750000 0.780000
0.960000 0.750000 0.780000
0.000000 0.875000 0.780000
0.120000 0.875000 0.780000
0.240000 0.875000 0.780000
0.360000 0.875000 0.780000
0.480000 0.875000 0.780000
0.600000 0.875000 0.780000
0.720000 0.875000 0.780000
0.840000 0.875000 0.780000
0.960000 0.875000 0.780000
0.000000 1.000000 0.780000
0.120000 1.000000 0.780000
0.240000 1.000000 0.780000
0.360000 1.000000 0.780000
0.480000 1.000000 0.780000
0.600000 1.000000 0.780000
0.720000 1.000000 0.780000
0.840000 1.000000 0.780000
0.960000 1.000000 0.780000
0.000000 0.000000 0.910000
0.120000 0.000000 0.910000
0.240000 0.000000 0.910000
0.360000 0.000000 0.910000
0.480000 0.000000 0.910000
0.600000 0.000000 0.910000
0.720000 0.000000 0.910000
0.840000 0.000000 0.910000
0.960000 0.000000 0.910000
0.000000 0.125000 0.910000
0.120000 0.125000 0.910000
0.240000 0.125000 0.910000
0.360000 0.125000 0.910000
0.480000 0.125000 0.910000
0.600000 0.125000 0.910000
0.720000 0.125000 0.910000
0.840000 0.125000 0.910000
0.960000 0.125000 0.910000
0.000000 0.250000 0.910000
0.120000 0.250000 0.910000
0.240000 0.250000 0.910000
0.360000 0.250000 0.910000
0.480000 0.250000 0.910000
0.600000 0.250000 0.910000
0.720000 0.250000 0.910000
0.840000 0.250000 0.910000
0.960000 0.250000 0.910000
0.000000 0.375000 0.910000
0.120000 0.375000 0.910000
0.240000 0.375000 0.910000
0.360000 0.375000 0.910000
0.480000 0.375000 0.910000
0.600000 0.375000 0.910000
0.720000 0.375000 0.910000
0.840000 0.375000 0.910000
0.960000 0.375000 0.910000
0.000000 0.500000 0.910000
0.120000 0.500000 0.910000
0.240000 0.500000 0.910000
0.360000 0.500000 0.910000
0.480000 0.500000 0.910000
0.600000 0.500000 0.910000
0.720000 0.500000 0.910000
0.840000 0.500000 0.910000
0.960000 0.500000 0.910000
0.000000 0.625000 0.910000
0.120000 0.625000 0.910000
0.240000 0.625000 0.910000
0.360000 0.625000 0.910000
0.480000 0.625000 0.910000
0.600000 0.625000 0.910000
0.720000 0.625000 0.910000
0.840000 0.625000 0.910000
0.960000 0.625000 0.910000
0.000000 0.750000 0.910000
0.120000 0.750000 0.910000
0.240000 0.750000 0.910000
0.360000 0.750000 0.910000
0.480000 0.750000 0.910000
0.600000 0.750000 0.910000
0.720000 0.750000 0.910000
0.840000 0.750000 0.910000
0.960000 0.750000 0.910000
0.000000 0.875000 0.910000
0.120000 0.875000 0.910000
0.240000 0.875000 0.910000
0.360000 0.875000 0.910000
0.480000 0.875000 0.910000
0.600000 0.875000 0.910000
0.720000 0.875000 0.910000
0.840000 0.875000 0.910000
0.960000 0.875000 0.910000
0.000000 1.000000 0.910000
0.120000 1.000000 0.910000
0.240000 1.000000 0.910000
0.360000 1.000000 0.910000
0.480000 1.000000 0.910000
0.600000 1.000000 0.910000
0.720000 1.000000 0.910000
0.840000 1.000000 0.910000
0.960000 1.000000 0.910000
0.000000 0.000000 1.000000
0.120000 0.000000 1.000000
0.240000 0.000000 1.000000
0.360000 0.000000 1.000000
0.480000 0.000000 1.000000
0.600000 0.000000 1.000000
0.720000 0.000000 1.000000
0.840000 0.000000 1.000000
0.960000 0.000000 1.000000
0.000000 0.125000 1.000000
0.120000 0.125000 1.000000
0.240000 0.125000 1.000000
0.360000 0.125000 1.000000
0.480000 0.125000 1.000000
0.600000 0.125000 1.000000
0.720000 0.125000 1.000000
0.840000 0.125000 1.000000
0.960000 0.125000 1.000000
0.000000 0.250000 1.000000
0.120000 0.250000 1.000000
0.240000 0.250000 1.000000
0.360000 0.250000 1.000000
0.480000 0.250000 1.000000
0.600000 0.250000 1.000000
0.720000 0.250000 1.000000
0.840000 0.250000 1.000000
0.960000 0.250000 1.000000
0.000000 0.375000 1.000000
0.120000 0.375000 1.000000
0.240000 0.375000 1.000000
0.360000 0.375000 1.000000
0.480000 0.375000 1.000000
0.600000 0.375000 1.000000
0.720000 0.375000 1.000000
0.840000 0.375000 1.000000
0.960000 0.375000 1.000000
0.000000 0.500000 1.000000
0.120000 0.500000 1.000000
0.240000 0.500000 1.000000
0.360000 0.500000 1.000000
0.480000 0.500000 1.000000
0.600000 0.500000 1.000000
0.720000 0.500000 1.000000
0.840000 0.500000 1.000000
0.960000 0.500000 1.000000
0.000000 0.625000 1.000000
0.120000 0.625000 1.000000
0.240000 0.625000 1.000000
0.360000 0.625000 1.000000
0.480000 0.625000 1.000000
0.600000 0.625000 1.000000
0.720000 0.625000 1.000000
0.840000 0.625000 1.000000
0.960000 0.625000 1.000000
0.000000 0.750000 1.000000
0.120000 0.750000 1.000000
0.240000 0.750000 1.000000
0.360000 0.750000 1.000000
0.480000 0.750000 1.000000
0.600000 0.750000 1.000000
0.720000 0.750000 1.000000
0.840000 0.750000 1.000000
0.960000 0.750000 1.000000
0.000000 0.875000 1.000000
0.120000 0.875000 1.000000
0.240000 0.875000 1.000000
0.360000 0.875000 1.000000
0.480000 0.875000 1.000000
0.600000 0.875000 1.000000
0.720000 0.875000 1.000000
0.840000 0.875000 1.000000
0.960000 0.875000 1.000000
0.000000 1.000000 1.000000
0.120000 1.000000 1.000000
0.240000 1.000000 1.000000
0.360000 1.000000 1.000000
0.480000 1.000000 1.000000
0.600000 1.000000 1.000000
0.720000 1.000000 1.000000
0.840000 1.000000 1.000000
0.960000 1.000000 1.000000
