correction_luts/cool_shift.cube
# Subtle cool shift via RGB rebalance
# Strength: 1.0
# Color model: linear-light tone (v2)
TITLE "Cool Shift - Add Coolness"
LUT_3D_SIZE 5
0.000000 0.000000 0.000000
0.240000 0.000000 0.000000
0.480000 0.000000 0.000000
0.720000 0.000000 0.000000
0.960000 0.000000 0.000000
0.000000 0.250000 0.000000
0.240000 0.250000 0.000000
0.480000 0.250000 0.000000
0.720000 0.250000 0.000000
0.960000 0.250000 0.000000
0.000000 0.500000 0.000000
0.240000 0.500000 0.000000
0.480000 0.500000 0.000000
0.720000 0.500000 0.000000
0.960000 0.500000 0.000000
0.000000 0.750000 0.000000
0.240000 0.750000 0.000000
0.480000 0.750000 0.000000
0.720000 0.750000 0.000000
0.960000 0.750000 0.000000
0.000000 1.000000 0.000000
0.240000 1.000000 0.000000
0.480000 1.000000 0.000000
0.720000 1.000000 0.000000
0.960000 1.000000 0.000000
0.000000 0.000000 0.260000
0.240000 0.000000 0.260000
0.480000 0.000000 0.260000
0.720000 0.000000 0.260000
0.960000 0.000000 0.260000
0.000000 0.250000 0.260000
0.240000 0.250000 0.260000
0.480000 0.250000 0.260000
0.720000 0.250000 0.260000
0.960000 0.250000 0.260000
0.000000 0.500000 0.260000
0.240000 0.500000 0.260000
0.480000 0.500000 0.260000
0.720000 0.500000 0.260000
0.960000 0.500000 0.260000
0.000000 0.750000 0.260000
0.240000 0.750000 0.260000
0.480000 0.750000 0.260000
0.720000 0.750000 0.260000
0.960000 0.750000 0.260000
0.000000 1.000000 0.260000
0.240000 1.000000 0.260000
0.480000 1.000000 0.260000
0.720000 1.000000 0.260000
0.960000 1.000000 0.260000
0.000000 0.000000 0.520000
0.240000 0.000000 0.520000
0.480000 0.000000 0.520000
0.720000 0.000000 0.520000
0.960000 0.000000 0.520000
0.000000 0.250000 0.520000
0.240000 0.250000 0.520000
0.480000 0.250000 0.520000
0.720000 0.250000 0.520000
0.960000 0.250000 0.520000
0.000000 0.500000 0.520000
0.240000 0.500000 0.520000
0.480000 0.500000 0.520000
0.720000 0.500000 0.520000
0.960000 0.500000 0.520000
0.000000 0.750000 0.520000
0.240000 0.750000 0.520000
0.480000 0.750000 0.520000
0.720000 0.750000 0.520000
0.960000 0.750000 0.520000
0.000000 1.000000 0.520000
0.240000 1.000000 0.520000
0.480000 1.000000 0.520000
0.720000 1.000000 0.520000
0.960000 1.000000 0.520000
0.000000 0.000000 0.780000
0.240000 0.000000 0.780000
0.480000 0.000000 0.780000
0.720000 0.000000 0.780000
0.960000 0.000000 0.780000
0.000000 0.250000 0.780000
0.240000 0.250000 0.780000
0.480000 0.250000 0.780000
0.720000 0.250000 0.780000
0.960000 0.250000 0.780000
0.000000 0.500000 0.780000
0.240000 0.500000 0.780000
0.480000 0.500000 0.780000
0.720000 0.500000 0.780000
0.960000 0.500000 0.780000
0.000000 0.750000 0.780000
0.240000 0.750000 0.780000
0.480000 0.750000 0.780000
0.720000 0.750000 0.780000
0.960000 0.750000 0.780000
0.000000 1.000000 0.780000
0.240000 1.000000 0.780000
0.480000 1.000000 0.780000
0.720000 1.000000 0.780000
0.960000 1.000000 0.780000
0.000000 0.000000 1.000000
0.240000 0.000000 1.000000
0.480000 0.000000 1.000000
0.720000 0.000000 1.000000
0.960000 0.000000 1.000000
0.000000 0.250000 1.000000
0.240000 0.250000 1.000000
0.480000 0.250000 1.000000
0.720000 0.250000 1.000000
0.960000 0.250000 1.000000
0.000000 0.500000 1.000000
0.240000 0.500000 1.000000
0.480000 0.500000 1.000000
0.720000 0.500000 1.000000
0.960000 0.500000 1.000000
0.000000 0.750000 1.000000
0.240000 0.750000 1.000000
0.480000 0.750000 1.000000
0.720000 0.750000 1.000000
0.960000 0.750000 1.000000
0.000000 1.000000 1.000000
0.240000 1.000000 1.000000
0.480000 1.000000 1.000000
0.720000 1.000000 1.000000
0.960000 1.000000 1.000000
