correction_luts/film_contrast.cube
# More aggressive contrast with deeper shadows and rolled highlights
# Strength: 1.0
# Color model: linear-light tone (v2)
TITLE "Film Contrast - Stronger Filmic Look"
LUT_3D_SIZE 9
0.000000 0.000000 0.000000
0.003620 0.000000 0.000000
0.026601 0.000000 0.000000
0.212695 0.000000 0.000000
0.409061 0.000000 0.000000
0.528731 0.000000 0.000000
0.652068 0.000000 0.000000
0.778542 0.000000 0.000000
0.907763 0.000000 0.000000
0.000000 0.006983 0.000000
0.009171 0.009171 0.000000
0.071180 0.035590 0.000000
0.261394 0.087131 0.000000
0.411986 0.102997 0.000000
0.530993 0.106199 0.000000
0.653890 0.108982 0.000000
0.780054 0.111436 0.000000
0.909048 0.113631 0.000000
0.000000 0.177526 0.000000
0.092216 0.184432 0.000000
0.201558 0.201558 0.000000
0.309297 0.206198 0.000000
0.421864 0.210932 0.000000
0.539313 0.215725 0.000000
0.660923 0.220308 0.000000
0.786067 0.224591 0.000000
0.914255 0.228564 0.000000
0.000000 0.316984 0.000000
0.105801 0.317402 0.000000
0.212734 0.319100 0.000000
0.322182 0.322182 0.000000
0.435124 0.326343 0.000000
0.551919 0.331152 0.000000
0.672477 0.336238 0.000000
0.796498 0.341356 0.000000
0.923633 0.346362 0.000000
0.000000 0.441283 0.000000
0.110394 0.441576 0.000000
0.221398 0.442797 0.000000
0.333848 0.445131 0.000000
0.448520 0.448520 0.000000
0.565945 0.452756 0.000000
0.686373 0.457582 0.000000
0.809823 0.462756 0.000000
0.936175 0.468087 0.000000
0.000000 0.570379 0.000000
0.114120 0.570601 0.000000
0.228615 0.571537 0.000000
0.344021 0.573369 0.000000
0.460901 0.576127 0.000000
0.579733 0.579733 0.000000
0.700850 0.584042 0.000000
0.824434 0.588881 0.000000
0.950533 0.594083 0.000000
0.000000 0.703432 0.000000
0.117268 0.703609 0.000000
0.234786 0.704359 0.000000
0.352923 0.705845 0.000000
0.472085 0.708128 0.000000
0.592661 0.711193 0.000000
0.714968 0.714968 0.000000
0.839236 0.719345 0.000000
0.965601 0.724201 0.000000
0.000000 0.839868 0.000000
0.120002 0.840014 0.000000
0.240181 0.840634 0.000000
0.360803 0.841874 0.000000
0.482171 0.843800 0.000000
0.604591 0.846428 0.000000
0.733566 0.855827 0.000000
0.864240 0.864240 0.000000
0.991057 0.867175 0.000000
0.000000 0.990936 0.000000
0.123871 0.990971 0.000000
0.247767 0.991068 0.000000
0.371626 0.991002 0.000000
0.495100 0.990199 0.000000
0.617308 0.987693 0.000000
0.736616 0.982154 0.000000
0.850497 0.971997 0.000000
0.955519 0.955519 0.000000
0.000000 0.000000 0.002017
0.004241 0.000000 0.004241
0.030356 0.000000 0.015178
0.218379 0.000000 0.072793
0.409371 0.000000 0.102343
0.528966 0.000000 0.105793
0.652256 0.000000 0.108709
0.778696 0.000000 0.111242
0.907894 0.000000 0.113487
0.000000 0.007400 0.007400
0.010519 0.010519 0.010519
0.076066 0.038033 0.038033
0.265329 0.088443 0.088443
0.412265 0.103066 0.103066
0.531213 0.106243 0.106243
0.654069 0.109012 0.109012
0.780204 0.111458 0.111458
0.909176 0.113647 0.113647
0.000000 0.179993 0.089996
0.093264 0.186529 0.093264
0.202053 0.202053 0.101026
0.309503 0.206335 0.103168
0.422060 0.211030 0.105515
0.539488 0.215795 0.107898
0.661076 0.220359 0.110179
0.786201 0.224629 0.112314
0.914372 0.228593 0.114297
0.000000 0.317127 0.105709
0.105847 0.317542 0.105847
0.212820 0.319230 0.106410
0.322294 0.322294 0.107431
0.435247 0.326436 0.108812
0.552043 0.331226 0.110409
0.672595 0.336297 0.112099
0.796608 0.341403 0.113801
0.923734 0.346400 0.115467
0.000000 0.441383 0.110346
0.110419 0.441675 0.110419
0.221446 0.442892 0.110723
0.333914 0.445219 0.111305
0.448598 0.448598 0.112149
0.566030 0.452824 0.113206
0.686460 0.457640 0.114410
0.809909 0.462805 0.115701
0.936257 0.468129 0.117032
0.000000 0.570455 0.114091
0.114135 0.570676 0.114135
0.228644 0.571610 0.114322
0.344063 0.573439 0.114688
0.460953 0.576192 0.115238
0.579792 0.579792 0.115958
0.700914 0.584095 0.116819
0.824499 0.588928 0.117786
0.950599 0.594124 0.118825
0.000000 0.703492 0.117249
0.117278 0.703669 0.117278
0.234806 0.704418 0.117403
0.352951 0.705902 0.117650
0.472122 0.708183 0.118030
0.592703 0.711244 0.118541
0.715015 0.715015 0.119169
0.839286 0.719388 0.119898
0.965653 0.724240 0.120707
0.000000 0.839918 0.119988
0.120009 0.840063 0.120009
0.240195 0.840683 0.120098
0.360824 0.841922 0.120275
0.482198 0.843846 0.120549
0.604623 0.846472 0.120925
0.733668 0.855945 0.122278
0.864296 0.864296 0.123471
0.991052 0.867170 0.123881
0.000000 0.990948 0.123869
0.123873 0.990982 0.123873
0.247768 0.991072 0.123884
0.371622 0.990992 0.123874
0.495085 0.990169 0.123771
0.617273 0.987637 0.123455
0.736550 0.982067 0.122758
0.850391 0.971876 0.121484
0.955364 0.955364 0.119420
0.000000 0.000000 0.009930
0.006313 0.000000 0.012626
0.048921 0.000000 0.048921
0.240795 0.000000 0.160530
0.410658 0.000000 0.205329
0.529954 0.000000 0.211982
0.653048 0.000000 0.217683
0.779353 0.000000 0.222672
0.908451 0.000000 0.227113
0.000000 0.012667 0.025334
0.018426 0.018426 0.036853
0.096715 0.048357 0.096715
0.280043 0.093348 0.186696
0.413426 0.103357 0.206713
0.532141 0.106428 0.212857
0.654830 0.109138 0.218277
0.780841 0.111549 0.223098
0.909721 0.113715 0.227430
0.000000 0.189128 0.189128
0.097034 0.194068 0.194068
0.203063 0.203063 0.203063
0.310361 0.206908 0.206908
0.422881 0.211441 0.211441
0.540226 0.216090 0.216090
0.661725 0.220575 0.220575
0.786770 0.224791 0.224791
0.914873 0.228718 0.228718
0.000000 0.317727 0.211818
0.106043 0.318130 0.212087
0.213182 0.319774 0.213182
0.322767 0.322767 0.215178
0.435768 0.326826 0.217884
0.552567 0.331540 0.221027
0.673097 0.336548 0.224366
0.797075 0.341604 0.227736
0.924164 0.346561 0.231041
0.000000 0.441806 0.220903
0.110523 0.442094 0.221047
0.221647 0.443294 0.221647
0.334193 0.445591 0.222795
0.448930 0.448930 0.224465
0.566391 0.453113 0.226556
0.686830 0.457887 0.228943
0.810274 0.463014 0.231507
0.936609 0.468304 0.234152
0.000000 0.570776 0.228311
0.114199 0.570996 0.228398
0.228769 0.571922 0.228769
0.344242 0.573736 0.229494
0.461175 0.576469 0.230587
0.580044 0.580044 0.232018
0.701185 0.584321 0.233728
0.824779 0.589128 0.235651
0.950879 0.594299 0.237720
0.000000 0.703749 0.234583
0.117321 0.703925 0.234642
0.234890 0.704669 0.234890
0.353073 0.706146 0.235382
0.472277 0.708415 0.236138
0.592885 0.711462 0.237154
0.715216 0.715216 0.238405
0.839500 0.719571 0.239857
0.965875 0.724406 0.241469
0.000000 0.840129 0.240037
0.120039 0.840275 0.240078
0.240255 0.840892 0.240255
0.360911 0.842126 0.240607
0.482311 0.844044 0.241155
0.604758 0.846661 0.241903
0.734095 0.856444 0.244698
0.864530 0.864530 0.247009
0.991022 0.867144 0.247755
0.000000 0.990996 0.247749
0.123878 0.991022 0.247756
0.247771 0.991083 0.247771
0.371605 0.990946 0.247736
0.495018 0.990036 0.247509
0.617119 0.987391 0.246848
0.736267 0.981689 0.245422
0.849935 0.971354 0.242838
0.954695 0.954695 0.238674
0.000000 0.000000 0.032075
0.015908 0.000000 0.047724
0.090910 0.000000 0.136365
0.276208 0.000000 0.276208
0.413101 0.000000 0.309826
0.531880 0.000000 0.319128
0.654615 0.000000 0.327307
0.780661 0.000000 0.334569
0.909567 0.000000 0.341087
0.000000 0.031751 0.095253
0.038935 0.038935 0.116805
0.135062 0.067531 0.202593
0.299212 0.099737 0.299212
0.415644 0.103911 0.311733
0.533955 0.106791 0.320373
0.656335 0.109389 0.328167
0.782113 0.111730 0.335191
0.910814 0.113852 0.341555
0.000000 0.200522 0.300783
0.101102 0.202203 0.303305
0.204493 0.204493 0.306740
0.312002 0.208002 0.312002
0.424480 0.212240 0.318360
0.541680 0.216672 0.325008
0.663015 0.221005 0.331507
0.787906 0.225116 0.337674
0.915878 0.228969 0.343454
0.000000 0.318895 0.318895
0.106426 0.319277 0.319277
0.213892 0.320838 0.320838
0.323695 0.323695 0.323695
0.436799 0.327599 0.327599
0.553610 0.332166 0.332166
0.674099 0.337049 0.337049
0.798012 0.342005 0.342005
0.925028 0.346886 0.346886
0.000000 0.442647 0.331985
0.110732 0.442927 0.332195
0.222047 0.444094 0.333070
0.334749 0.446332 0.334749
0.449594 0.449594 0.337195
0.567114 0.453691 0.340268
0.687572 0.458382 0.343786
0.811008 0.463433 0.347575
0.937317 0.468658 0.351494
0.000000 0.571421 0.342853
0.114327 0.571637 0.342982
0.229019 0.572548 0.343529
0.344600 0.574333 0.344600
0.461620 0.577025 0.346215
0.580552 0.580552 0.348331
0.701730 0.584775 0.350865
0.825342 0.589530 0.353718
0.951444 0.594652 0.356791
0.000000 0.704266 0.352133
0.117407 0.704439 0.352220
0.235059 0.705176 0.352588
0.353319 0.706637 0.353319
0.472589 0.708883 0.354442
0.593251 0.711901 0.355950
0.715622 0.715622 0.357811
0.839933 0.719942 0.359971
0.966322 0.724741 0.362371
0.000000 0.840557 0.360239
0.120100 0.840701 0.360301
0.240376 0.841314 0.360563
0.361088 0.842539 0.361088
0.482539 0.844443 0.361904
0.605030 0.847042 0.363018
0.734929 0.857417 0.367464
0.864973 0.864973 0.370703
0.990931 0.867065 0.371599
0.000000 0.991061 0.371648
0.123884 0.991073 0.371653
0.247769 0.991075 0.371653
0.371558 0.990822 0.371558
0.494869 0.989738 0.371152
0.616792 0.986867 0.370075
0.735675 0.980900 0.367838
0.848992 0.970276 0.363854
0.953321 0.953321 0.357496
0.000000 0.000000 0.165874
0.048539 0.000000 0.194156
0.150251 0.000000 0.300503
0.303179 0.000000 0.404239
0.416605 0.000000 0.416605
0.534757 0.000000 0.427805
0.657008 0.000000 0.438005
0.782686 0.000000 0.447249
0.911308 0.000000 0.455654
0.000000 0.064143 0.256570
0.070090 0.070090 0.280361
0.180045 0.090023 0.360091
0.306048 0.102016 0.408064
0.418858 0.104715 0.418858
0.536675 0.107335 0.429340
0.658638 0.109773 0.439092
0.784083 0.112012 0.448048
0.912520 0.114065 0.456260
0.000000 0.204233 0.408466
0.102347 0.204694 0.409388
0.206508 0.206508 0.413016
0.314384 0.209589 0.419178
0.426863 0.213431 0.426863
0.543890 0.217556 0.435112
0.665001 0.221667 0.443334
0.789674 0.225621 0.451242
0.917450 0.229363 0.458725
0.000000 0.320640 0.427519
0.106997 0.320992 0.427989
0.214957 0.322436 0.429915
0.325101 0.325101 0.433468
0.438374 0.328780 0.438374
0.555218 0.333131 0.444174
0.675656 0.337828 0.450437
0.799477 0.342633 0.456844
0.926385 0.347394 0.463193
0.000000 0.443944 0.443944
0.111053 0.444211 0.444211
0.222665 0.445330 0.445330
0.335610 0.447480 0.447480
0.450625 0.450625 0.450625
0.568242 0.454594 0.454594
0.688735 0.459157 0.459157
0.812161 0.464092 0.464092
0.938433 0.469216 0.469216
0.000000 0.572430 0.457944
0.114528 0.572640 0.458112
0.229411 0.573527 0.458822
0.345161 0.575268 0.460215
0.462318 0.577898 0.462318
0.581349 0.581349 0.465079
0.702590 0.585491 0.468393
0.826231 0.590165 0.472132
0.952337 0.595211 0.476168
0.000000 0.705080 0.470053
0.117542 0.705251 0.470167
0.235325 0.705975 0.470650
0.353706 0.707412 0.471608
0.473082 0.709622 0.473082
0.593829 0.712595 0.475063
0.716264 0.716264 0.477509
0.840617 0.720529 0.480353
0.967031 0.725273 0.483515
0.000000 0.841234 0.480705
0.120197 0.841377 0.480787
0.240566 0.841982 0.481133
0.361368 0.843193 0.481824
0.482900 0.845075 0.482900
0.606514 0.849119 0.485211
0.736170 0.858865 0.490780
0.865594 0.865594 0.494625
0.990707 0.866869 0.495354
0.000000 0.991080 0.495540
0.123884 0.991070 0.495535
0.247745 0.990979 0.495490
0.371455 0.990545 0.495273
0.494595 0.989190 0.494595
0.616228 0.985965 0.492982
0.734686 0.979582 0.489791
0.847441 0.968504 0.484252
0.951085 0.951085 0.475543
0.000000 0.000000 0.410750
0.086458 0.000000 0.432290
0.197542 0.000000 0.493855
0.308302 0.000000 0.513837
0.420927 0.000000 0.526159
0.538481 0.000000 0.538481
0.660198 0.000000 0.550165
0.785434 0.000000 0.561024
0.913700 0.000000 0.571062
0.000000 0.094504 0.472521
0.096986 0.096986 0.484930
0.203052 0.101526 0.507630
0.310349 0.103450 0.517248
0.422869 0.105717 0.528587
0.540215 0.108043 0.540215
0.661716 0.110286 0.551430
0.786761 0.112394 0.561972
0.914866 0.114358 0.571791
0.000000 0.207062 0.517656
0.103719 0.207439 0.518597
0.208942 0.208942 0.522356
0.317360 0.211574 0.528934
0.429937 0.214969 0.537422
0.546814 0.218726 0.546814
0.667678 0.222559 0.556399
0.792087 0.226311 0.565777
0.919617 0.229904 0.574760
0.000000 0.322896 0.538160
0.107738 0.323213 0.538688
0.216347 0.324520 0.540867
0.326954 0.326954 0.544923
0.440474 0.330356 0.550593
0.557388 0.334433 0.557388
0.677779 0.338890 0.564816
0.801491 0.343496 0.572494
0.928263 0.348099 0.580165
0.000000 0.445693 0.557116
0.111486 0.445946 0.557432
0.223501 0.447002 0.558752
0.336779 0.449039 0.561298
0.452032 0.452032 0.565040
0.569789 0.455831 0.569789
0.690338 0.460225 0.575281
0.813758 0.465005 0.581256
0.939984 0.469992 0.587490
0.000000 0.573818 0.573818
0.114804 0.574021 0.574021
0.229951 0.574877 0.574877
0.345936 0.576559 0.576559
0.463284 0.579105 0.579105
0.582455 0.582455 0.582455
0.703784 0.586487 0.586487
0.827469 0.591050 0.591050
0.953585 0.595990 0.595990
0.000000 0.706213 0.588511
0.117730 0.706380 0.588650
0.235696 0.707087 0.589239
0.354246 0.708491 0.590409
0.473769 0.710653 0.592211
0.594636 0.713563 0.594636
0.717161 0.717161 0.597634
0.841576 0.721351 0.601126
0.968024 0.726018 0.605015
0.000000 0.842183 0.601559
0.120332 0.842323 0.601659
0.240834 0.842918 0.602084
0.361761 0.844109 0.602935
0.483406 0.845961 0.604258
0.608595 0.852034 0.608595
0.737745 0.860702 0.614787
0.866295 0.866295 0.618782
0.990224 0.866446 0.618890
0.000000 0.990931 0.619332
0.123861 0.990892 0.619307
0.247668 0.990674 0.619171
0.371246 0.989990 0.618744
0.494130 0.988259 0.617662
0.615342 0.984547 0.615342
0.733192 0.977590 0.610994
0.845151 0.965886 0.603679
0.947825 0.947825 0.592391
0.000000 0.000000 0.609507
0.101834 0.000000 0.611001
0.205613 0.000000 0.616839
0.313316 0.000000 0.626632
0.425786 0.000000 0.638679
0.542884 0.000000 0.651461
0.664093 0.000000 0.664093
0.788864 0.000000 0.676169
0.916728 0.000000 0.687546
0.000000 0.102388 0.614330
0.102610 0.102610 0.615660
0.206970 0.103485 0.620910
0.314940 0.104980 0.629881
0.427430 0.106857 0.641145
0.544423 0.108885 0.653308
0.665485 0.110914 0.665485
0.790108 0.112873 0.677235
0.917838 0.114730 0.688378
0.000000 0.210091 0.630274
0.105197 0.210395 0.631185
0.211624 0.211624 0.634872
0.320750 0.213833 0.641500
0.433559 0.216779 0.650338
0.550357 0.220143 0.660428
0.670992 0.223664 0.670992
0.795122 0.227178 0.681533
0.922372 0.230593 0.691779
0.000000 0.325560 0.651120
0.108614 0.325841 0.651681
0.218001 0.327002 0.654004
0.329187 0.329187 0.658373
0.443043 0.332282 0.664564
0.560080 0.336048 0.672096
0.680445 0.340223 0.680445
0.804045 0.344591 0.689182
0.930665 0.348999 0.697999
0.000000 0.447861 0.671792
0.112024 0.448096 0.672144
0.224540 0.449080 0.673620
0.338239 0.450985 0.676477
0.453799 0.453799 0.680699
0.571744 0.457395 0.686093
0.692377 0.461585 0.692377
0.815802 0.466173 0.699259
0.941981 0.470990 0.706486
0.000000 0.575582 0.690698
0.115155 0.575776 0.690931
0.230638 0.576594 0.691913
0.346923 0.578204 0.693845
0.464517 0.580647 0.696776
0.583871 0.583871 0.700645
0.705320 0.587767 0.705320
0.829068 0.592191 0.710629
0.955199 0.597000 0.716400
0.000000 0.707673 0.707673
0.117972 0.707835 0.707835
0.236173 0.708520 0.708520
0.354942 0.709883 0.709883
0.474656 0.711983 0.711983
0.595680 0.714816 0.714816
0.718324 0.718324 0.718324
0.842820 0.722417 0.722417
0.972450 0.729338 0.729338
0.000000 0.843414 0.722926
0.120507 0.843551 0.723044
0.241181 0.844134 0.723543
0.362271 0.845299 0.724542
0.484090 0.847157 0.726135
0.611030 0.855442 0.733236
0.739502 0.862752 0.739502
0.866909 0.866909 0.743065
0.989298 0.865636 0.741974
0.000000 0.990429 0.742822
0.123794 0.990352 0.742764
0.247493 0.989972 0.742479
0.370865 0.988972 0.741729
0.493382 0.986765 0.740074
0.614020 0.982432 0.736824
0.731059 0.974745 0.731059
0.841963 0.962244 0.721683
0.943363 0.943363 0.707522
0.000000 0.000000 0.727726
0.104138 0.000000 0.728965
0.209696 0.000000 0.733936
0.318302 0.000000 0.742704
0.430931 0.000000 0.754129
0.547776 0.000000 0.766886
0.668570 0.000000 0.779999
0.792899 0.000000 0.792899
0.920350 0.000000 0.805307
0.000000 0.104539 0.731774
0.104702 0.104702 0.732916
0.210720 0.105360 0.737518
0.319595 0.106532 0.745721
0.432311 0.108078 0.756544
0.549124 0.109825 0.768774
0.669831 0.111638 0.781469
0.794053 0.113436 0.794053
0.921397 0.115175 0.806223
0.000000 0.213168 0.746089
0.106706 0.213413 0.746945
0.214414 0.214414 0.750450
0.324383 0.216255 0.756893
0.437567 0.218783 0.765742
0.554392 0.221757 0.776149
0.674855 0.224952 0.787331
0.798722 0.228206 0.798722
0.925685 0.231421 0.809974
0.000000 0.328516 0.766538
0.109587 0.328762 0.767110
0.219854 0.329781 0.769489
0.331717 0.331717 0.774006
0.445997 0.334498 0.780496
0.563224 0.337934 0.788513
0.683603 0.341802 0.797537
0.807107 0.345903 0.807107
0.933572 0.350090 0.816876
0.000000 0.450393 0.788188
0.112652 0.450609 0.788565
0.225758 0.451515 0.790151
0.339957 0.453276 0.793232
0.455893 0.455893 0.797814
0.574079 0.459263 0.803710
0.694830 0.463220 0.810635
0.818279 0.467588 0.818279
0.944416 0.472208 0.826364
0.000000 0.577700 0.808780
0.115577 0.577884 0.809037
0.231464 0.578659 0.810122
0.348112 0.580187 0.812261
0.466009 0.582511 0.815515
0.585590 0.585590 0.819826
0.707191 0.589326 0.825056
0.831022 0.593587 0.831022
0.957183 0.598239 0.837535
0.000000 0.709455 0.827697
0.118268 0.709610 0.827879
0.236757 0.710271 0.828649
0.355792 0.711585 0.830182
0.475742 0.713613 0.832548
0.596960 0.716353 0.835745
0.719754 0.719754 0.839713
0.844354 0.723732 0.844354
0.977498 0.733123 0.855310
0.000000 0.844931 0.844931
0.120724 0.845065 0.845065
0.241609 0.845632 0.845632
0.362900 0.846767 0.846767
0.486958 0.852176 0.852176
0.613612 0.859056 0.859056
0.741217 0.864753 0.864753
0.867198 0.867198 0.867198
0.987683 0.864223 0.864223
0.000000 0.989323 0.865657
0.123650 0.989199 0.865549
0.247157 0.988627 0.865048
0.370218 0.987248 0.863842
0.492235 0.984469 0.861411
0.612121 0.979393 0.856969
0.728121 0.970828 0.849474
0.837695 0.957366 0.837695
0.937496 0.937496 0.820309
0.000000 0.000000 0.848513
0.106196 0.000000 0.849565
0.213465 0.000000 0.853859
0.323135 0.000000 0.861694
0.436176 0.000000 0.872353
0.552979 0.000000 0.884767
0.673492 0.000000 0.897989
0.797445 0.000000 0.911365
0.924504 0.000000 0.924504
0.000000 0.106497 0.851978
0.106621 0.106621 0.852968
0.214255 0.107128 0.857021
0.324173 0.108058 0.864461
0.437332 0.109333 0.874664
0.554153 0.110831 0.886644
0.674623 0.112437 0.899497
0.798504 0.114072 0.912576
0.925483 0.115685 0.925483
0.000000 0.216200 0.864802
0.108199 0.216399 0.865595
0.217217 0.217217 0.868870
0.328125 0.218750 0.875000
0.441817 0.220909 0.883634
0.558790 0.223516 0.894065
0.679164 0.226388 0.905552
0.802814 0.229375 0.917502
0.929505 0.232376 0.929505
0.000000 0.331658 0.884422
0.110624 0.331871 0.884989
0.221839 0.332759 0.887358
0.334461 0.334461 0.891895
0.449249 0.336937 0.898498
0.566738 0.340043 0.906782
0.687186 0.343593 0.916249
0.810626 0.347411 0.926430
0.936948 0.351356 0.936948
0.000000 0.453221 0.906443
0.113354 0.453418 0.906836
0.227122 0.454245 0.908489
0.341893 0.455857 0.911715
0.458270 0.458270 0.916540
0.576750 0.461400 0.922800
0.697661 0.465108 0.930215
0.821161 0.469235 0.938469
0.947268 0.473634 0.947268
0.000000 0.580139 0.928223
0.116062 0.580312 0.928498
0.232416 0.581040 0.929664
0.349487 0.582478 0.931965
0.467738 0.584673 0.935476
0.587592 0.587592 0.940147
0.709380 0.591150 0.945840
0.833321 0.595229 0.952366
0.959524 0.599703 0.959524
0.000000 0.711544 0.948725
0.118615 0.711693 0.948924
0.237442 0.712325 0.949767
0.356792 0.713584 0.951446
0.477020 0.715530 0.954040
0.598471 0.718165 0.957553
0.721444 0.721444 0.961926
0.846172 0.725291 0.967054
0.982464 0.736848 0.982464
0.000000 0.846732 0.967693
0.120980 0.846861 0.967841
0.242362 0.848266 0.969447
0.365183 0.852094 0.973822
0.489829 0.857201 0.979658
0.616067 0.862494 0.985708
0.742596 0.866362 0.990128
0.866861 0.866861 0.990698
0.985075 0.861941 0.985075
0.000000 0.987296 0.987296
0.123390 0.987120 0.987120
0.246582 0.986326 0.986326
0.369193 0.984514 0.984514
0.490541 0.981082 0.981082
0.609470 0.975152 0.975152
0.724184 0.965578 0.965578
0.832134 0.951010 0.951010
0.930000 0.930000 0.930000
