correction_luts/film_contrast_80.cube
# More aggressive contrast with deeper shadows and rolled highlights
# Strength: 0.8
# Color model: linear-light tone (v2)
TITLE "Film Contrast - Stronger Filmic Look"
LUT_3D_SIZE 33
0.000000 0.000000 0.000000
0.000480 0.000000 0.000000
0.001940 0.000000 0.000000
0.004394 0.000000 0.000000
0.007847 0.000000 0.000000
0.012305 0.000000 0.000000
0.017771 0.000000 0.000000
0.026319 0.000000 0.000000
0.047235 0.000000 0.000000
0.082302 0.000000 0.000000
0.130488 0.000000 0.000000
0.188735 0.000000 0.000000
0.251978 0.000000 0.000000
0.313201 0.000000 0.000000
0.363533 0.000000 0.000000
0.396125 0.000000 0.000000
0.425819 0.000000 0.000000
0.455736 0.000000 0.000000
0.485865 0.000000 0.000000
0.516196 0.000000 0.000000
0.546719 0.000000 0.000000
0.577425 0.000000 0.000000
0.608308 0.000000 0.000000
0.639360 0.000000 0.000000
0.670574 0.000000 0.000000
0.701945 0.000000 0.000000
0.733467 0.000000 0.000000
0.765134 0.000000 0.000000
0.796943 0.000000 0.000000
0.828888 0.000000 0.000000
0.860966 0.000000 0.000000
0.893172 0.000000 0.000000
0.925504 0.000000 0.000000
0.000000 0.000802 0.000000
0.000895 0.000895 0.000000
0.002390 0.001195 0.000000
0.004814 0.001605 0.000000
0.008235 0.002059 0.000000
0.012666 0.002533 0.000000
0.018110 0.003018 0.000000
0.027295 0.003899 0.000000
0.048934 0.006117 0.000000
0.084426 0.009381 0.000000
0.132761 0.013276 0.000000
0.190903 0.017355 0.000000
0.253805 0.021150 0.000000
0.314473 0.024190 0.000000
0.364058 0.026004 0.000000
0.396225 0.026415 0.000000
0.425911 0.026619 0.000000
0.455821 0.026813 0.000000
0.485944 0.026997 0.000000
0.516269 0.027172 0.000000
0.546788 0.027339 0.000000
0.577490 0.027500 0.000000
0.608369 0.027653 0.000000
0.639418 0.027801 0.000000
0.670629 0.027943 0.000000
0.701997 0.028080 0.000000
0.733516 0.028212 0.000000
0.765181 0.028340 0.000000
0.796988 0.028464 0.000000
0.828931 0.028584 0.000000
0.861007 0.028700 0.000000
0.893212 0.028813 0.000000
0.925542 0.028923 0.000000
0.000000 0.003242 0.000000
0.001659 0.003319 0.000000
0.003620 0.003620 0.000000
0.006218 0.004145 0.000000
0.009669 0.004834 0.000000
0.014072 0.005629 0.000000
0.019612 0.006537 0.000000
0.032143 0.009184 0.000000
0.056466 0.014116 0.000000
0.093528 0.020784 0.000000
0.142346 0.028469 0.000000
0.199937 0.036352 0.000000
0.261325 0.043554 0.000000
0.319591 0.049168 0.000000
0.365964 0.052281 0.000000
0.396648 0.052886 0.000000
0.426300 0.053288 0.000000
0.456182 0.053668 0.000000
0.486280 0.054031 0.000000
0.516584 0.054377 0.000000
0.547082 0.054708 0.000000
0.577767 0.055025 0.000000
0.608631 0.055330 0.000000
0.639665 0.055623 0.000000
0.670863 0.055905 0.000000
0.702219 0.056178 0.000000
0.733727 0.056441 0.000000
0.765383 0.056695 0.000000
0.797180 0.056941 0.000000
0.829115 0.057180 0.000000
0.861183 0.057412 0.000000
0.893381 0.057637 0.000000
0.925704 0.057856 0.000000
0.000000 0.007343 0.000000
0.002470 0.007409 0.000000
0.005121 0.007681 0.000000
0.008198 0.008198 0.000000
0.011923 0.008943 0.000000
0.016737 0.010042 0.000000
0.026382 0.013191 0.000000
0.044299 0.018985 0.000000
0.072569 0.027213 0.000000
0.111831 0.037277 0.000000
0.160984 0.048295 0.000000
0.217048 0.059195 0.000000
0.275109 0.068777 0.000000
0.328352 0.075774 0.000000
0.368135 0.078886 0.000000
0.397480 0.079496 0.000000
0.427072 0.080076 0.000000
0.456900 0.080629 0.000000
0.486950 0.081158 0.000000
0.517211 0.081665 0.000000
0.547671 0.082151 0.000000
0.578322 0.082617 0.000000
0.609154 0.083066 0.000000
0.640160 0.083499 0.000000
0.671333 0.083917 0.000000
0.702666 0.084320 0.000000
0.734153 0.084710 0.000000
0.765789 0.085088 0.000000
0.797568 0.085454 0.000000
0.829486 0.085809 0.000000
0.861539 0.086154 0.000000
0.893722 0.086489 0.000000
0.926032 0.086815 0.000000
0.000000 0.013298 0.000000
0.003351 0.013405 0.000000
0.006959 0.013918 0.000000
0.011396 0.015195 0.000000
0.017765 0.017765 0.000000
0.027757 0.022205 0.000000
0.043415 0.028943 0.000000
0.066649 0.038085 0.000000
0.098689 0.049345 0.000000
0.139615 0.062051 0.000000
0.188010 0.075204 0.000000
0.240761 0.087550 0.000000
0.292952 0.097651 0.000000
0.337851 0.103954 0.000000
0.369501 0.105572 0.000000
0.398746 0.106332 0.000000
0.428253 0.107063 0.000000
0.458004 0.107766 0.000000
0.487986 0.108441 0.000000
0.518184 0.109091 0.000000
0.548589 0.109718 0.000000
0.579188 0.110322 0.000000
0.609974 0.110904 0.000000
0.640938 0.111467 0.000000
0.672072 0.112012 0.000000
0.703369 0.112539 0.000000
0.734824 0.113050 0.000000
0.766429 0.113545 0.000000
0.798181 0.114026 0.000000
0.830073 0.114493 0.000000
0.862102 0.114947 0.000000
0.894262 0.115389 0.000000
0.926551 0.115819 0.000000
0.000000 0.033732 0.000000
0.006813 0.034063 0.000000
0.014195 0.035489 0.000000
0.023060 0.038434 0.000000
0.034590 0.043237 0.000000
0.050158 0.050158 0.000000
0.071148 0.059290 0.000000
0.098661 0.070472 0.000000
0.133157 0.083223 0.000000
0.174094 0.096719 0.000000
0.219630 0.109815 0.000000
0.266410 0.121095 0.000000
0.309429 0.128929 0.000000
0.342433 0.131705 0.000000
0.371284 0.132601 0.000000
0.400423 0.133474 0.000000
0.429831 0.134322 0.000000
0.459491 0.135144 0.000000
0.489389 0.135941 0.000000
0.519510 0.136713 0.000000
0.549844 0.137461 0.000000
0.580379 0.138185 0.000000
0.611104 0.138887 0.000000
0.642013 0.139568 0.000000
0.673096 0.140228 0.000000
0.704346 0.140869 0.000000
0.735757 0.141492 0.000000
0.767322 0.142097 0.000000
0.799036 0.142685 0.000000
0.830893 0.143257 0.000000
0.862889 0.143815 0.000000
0.895019 0.144358 0.000000
0.927280 0.144887 0.000000
0.000000 0.076988 0.000000
0.012899 0.077396 0.000000
0.026378 0.079135 0.000000
0.041316 0.082632 0.000000
0.058741 0.088111 0.000000
0.079689 0.095627 0.000000
0.105031 0.105031 0.000000
0.135238 0.115918 0.000000
0.170125 0.127594 0.000000
0.208580 0.139054 0.000000
0.248319 0.148992 0.000000
0.285693 0.155832 0.000000
0.316228 0.158114 0.000000
0.344670 0.159079 0.000000
0.373418 0.160036 0.000000
0.402455 0.160982 0.000000
0.431763 0.161911 0.000000
0.461328 0.162822 0.000000
0.491136 0.163712 0.000000
0.521172 0.164581 0.000000
0.551426 0.165428 0.000000
0.581886 0.166253 0.000000
0.612542 0.167057 0.000000
0.643385 0.167840 0.000000
0.674408 0.168602 0.000000
0.705601 0.169344 0.000000
0.736959 0.170067 0.000000
0.768474 0.170772 0.000000
0.800142 0.171459 0.000000
0.831956 0.172129 0.000000
0.863911 0.172782 0.000000
0.896003 0.173420 0.000000
0.928228 0.174043 0.000000
0.000000 0.136792 0.000000
0.019593 0.137150 0.000000
0.039619 0.138668 0.000000
0.060718 0.141675 0.000000
0.083587 0.146277 0.000000
0.108836 0.152370 0.000000
0.136818 0.159621 0.000000
0.167437 0.167437 0.000000
0.199935 0.174943 0.000000
0.232677 0.180971 0.000000
0.262952 0.184066 0.000000
0.290710 0.184997 0.000000
0.318778 0.185954 0.000000
0.347152 0.186928 0.000000
0.375821 0.187910 0.000000
0.404772 0.188893 0.000000
0.433991 0.189871 0.000000
0.463467 0.190839 0.000000
0.493186 0.191795 0.000000
0.523137 0.192735 0.000000
0.553309 0.193658 0.000000
0.583690 0.194563 0.000000
0.614271 0.195450 0.000000
0.645043 0.196317 0.000000
0.675998 0.197166 0.000000
0.707128 0.197996 0.000000
0.738425 0.198807 0.000000
0.769884 0.199600 0.000000
0.801499 0.200375 0.000000
0.833262 0.201132 0.000000
0.865170 0.201873 0.000000
0.897218 0.202598 0.000000
0.929400 0.203306 0.000000
0.000000 0.197767 0.000000
0.024746 0.197966 0.000000
0.049699 0.198796 0.000000
0.075147 0.200393 0.000000
0.101350 0.202700 0.000000
0.128412 0.205458 0.000000
0.156135 0.208180 0.000000
0.183857 0.210122 0.000000
0.210895 0.210895 0.000000
0.238114 0.211657 0.000000
0.265608 0.212487 0.000000
0.293385 0.213371 0.000000
0.321445 0.214297 0.000000
0.349788 0.215254 0.000000
0.378408 0.216233 0.000000
0.407297 0.217225 0.000000
0.436447 0.218224 0.000000
0.465848 0.219223 0.000000
0.495490 0.220218 0.000000
0.525362 0.221205 0.000000
0.555455 0.222182 0.000000
0.585759 0.223146 0.000000
0.616265 0.224096 0.000000
0.646964 0.225031 0.000000
0.677849 0.225950 0.000000
0.708912 0.226852 0.000000
0.740145 0.227737 0.000000
0.771543 0.228605 0.000000
0.803099 0.229457 0.000000
0.834807 0.230292 0.000000
0.866663 0.231110 0.000000
0.898660 0.231912 0.000000
0.930794 0.232699 0.000000
0.000000 0.237523 0.000000
0.026393 0.237541 0.000000
0.052804 0.237618 0.000000
0.079258 0.237773 0.000000
0.105785 0.238017 0.000000
0.132420 0.238356 0.000000
0.159194 0.238790 0.000000
0.186137 0.239319 0.000000
0.213276 0.239936 0.000000
0.240634 0.240634 0.000000
0.268226 0.241403 0.000000
0.296064 0.242234 0.000000
0.324155 0.243117 0.000000
0.352503 0.244041 0.000000
0.381107 0.244997 0.000000
0.409963 0.245978 0.000000
0.439068 0.246975 0.000000
0.468413 0.247983 0.000000
0.497992 0.248996 0.000000
0.527798 0.250010 0.000000
0.557822 0.251020 0.000000
0.588055 0.252024 0.000000
0.618490 0.253019 0.000000
0.649120 0.254003 0.000000
0.679936 0.254976 0.000000
0.710932 0.255935 0.000000
0.742100 0.256881 0.000000
0.773435 0.257812 0.000000
0.804930 0.258728 0.000000
0.836580 0.259628 0.000000
0.868379 0.260514 0.000000
0.900323 0.261384 0.000000
0.932406 0.262239 0.000000
0.000000 0.267272 0.000000
0.026729 0.267288 0.000000
0.053471 0.267355 0.000000
0.080247 0.267491 0.000000
0.107082 0.267706 0.000000
0.134003 0.268005 0.000000
0.161035 0.268392 0.000000
0.188206 0.268866 0.000000
0.215539 0.269424 0.000000
0.243056 0.270062 0.000000
0.270773 0.270773 0.000000
0.298703 0.271548 0.000000
0.326858 0.272381 0.000000
0.355242 0.273263 0.000000
0.383860 0.274186 0.000000
0.412711 0.275141 0.000000
0.441794 0.276121 0.000000
0.471106 0.277121 0.000000
0.500643 0.278135 0.000000
0.530398 0.279157 0.000000
0.560365 0.280183 0.000000
0.590539 0.281209 0.000000
0.620912 0.282233 0.000000
0.651478 0.283251 0.000000
0.682230 0.284262 0.000000
0.713161 0.285265 0.000000
0.744267 0.286256 0.000000
0.775539 0.287237 0.000000
0.806974 0.288205 0.000000
0.838565 0.289160 0.000000
0.870306 0.290102 0.000000
0.902194 0.291030 0.000000
0.934224 0.291945 0.000000
0.000000 0.297381 0.000000
0.027036 0.297395 0.000000
0.054083 0.297455 0.000000
0.081157 0.297575 0.000000
0.108279 0.297766 0.000000
0.135470 0.298033 0.000000
0.162753 0.298380 0.000000
0.190150 0.298808 0.000000
0.217684 0.299315 0.000000
0.245371 0.299898 0.000000
0.273231 0.300554 0.000000
0.301276 0.301276 0.000000
0.329518 0.302058 0.000000
0.357965 0.302893 0.000000
0.386622 0.303775 0.000000
0.415494 0.304696 0.000000
0.444580 0.305649 0.000000
0.473881 0.306629 0.000000
0.503394 0.307630 0.000000
0.533116 0.308646 0.000000
0.563043 0.309674 0.000000
0.593170 0.310708 0.000000
0.623492 0.311746 0.000000
0.654004 0.312784 0.000000
0.684699 0.313820 0.000000
0.715573 0.314852 0.000000
0.746619 0.315877 0.000000
0.777833 0.316895 0.000000
0.809209 0.317904 0.000000
0.840742 0.318902 0.000000
0.872428 0.319890 0.000000
0.904260 0.320866 0.000000
0.936235 0.321831 0.000000
0.000000 0.327821 0.000000
0.027319 0.327833 0.000000
0.054648 0.327887 0.000000
0.081999 0.327995 0.000000
0.109389 0.328166 0.000000
0.136836 0.328407 0.000000
0.164360 0.328720 0.000000
0.191980 0.329108 0.000000
0.219714 0.329570 0.000000
0.247579 0.330106 0.000000
0.275592 0.330711 0.000000
0.303767 0.331382 0.000000
0.332114 0.332114 0.000000
0.360644 0.332902 0.000000
0.389363 0.333740 0.000000
0.418277 0.334622 0.000000
0.447388 0.335541 0.000000
0.476699 0.336493 0.000000
0.506208 0.337472 0.000000
0.535915 0.338473 0.000000
0.565818 0.339491 0.000000
0.595912 0.340521 0.000000
0.626196 0.341561 0.000000
0.656664 0.342607 0.000000
0.687312 0.343656 0.000000
0.718136 0.344705 0.000000
0.749131 0.345753 0.000000
0.780292 0.346796 0.000000
0.811614 0.347834 0.000000
0.843093 0.348866 0.000000
0.874724 0.349889 0.000000
0.906502 0.350904 0.000000
0.938425 0.351909 0.000000
0.000000 0.358567 0.000000
0.027583 0.358578 0.000000
0.055173 0.358626 0.000000
0.082782 0.358724 0.000000
0.110424 0.358879 0.000000
0.138114 0.359097 0.000000
0.165869 0.359382 0.000000
0.193704 0.359736 0.000000
0.221637 0.360160 0.000000
0.249682 0.360652 0.000000
0.277855 0.361212 0.000000
0.306169 0.361836 0.000000
0.334635 0.362521 0.000000
0.363263 0.363263 0.000000
0.392061 0.364057 0.000000
0.421035 0.364897 0.000000
0.450190 0.365779 0.000000
0.479528 0.366698 0.000000
0.509052 0.367648 0.000000
0.538761 0.368626 0.000000
0.568655 0.369626 0.000000
0.598733 0.370644 0.000000
0.628991 0.371677 0.000000
0.659428 0.372720 0.000000
0.690040 0.373772 0.000000
0.720824 0.374828 0.000000
0.751775 0.375887 0.000000
0.782889 0.376947 0.000000
0.814163 0.378004 0.000000
0.845593 0.379059 0.000000
0.877174 0.380109 0.000000
0.908903 0.381153 0.000000
0.940775 0.382190 0.000000
0.000000 0.389598 0.000000
0.027829 0.389608 0.000000
0.055665 0.389652 0.000000
0.083516 0.389741 0.000000
0.111395 0.389882 0.000000
0.139315 0.390082 0.000000
0.167290 0.390342 0.000000
0.195333 0.390667 0.000000
0.223461 0.391057 0.000000
0.251686 0.391511 0.000000
0.280022 0.392031 0.000000
0.308481 0.392612 0.000000
0.337074 0.393253 0.000000
0.365811 0.393951 0.000000
0.394701 0.394701 0.000000
0.423750 0.395500 0.000000
0.452963 0.396343 0.000000
0.482345 0.397226 0.000000
0.511899 0.398144 0.000000
0.541626 0.399093 0.000000
0.571528 0.400069 0.000000
0.601602 0.401068 0.000000
0.631850 0.402086 0.000000
0.662268 0.403120 0.000000
0.692855 0.404166 0.000000
0.723609 0.405221 0.000000
0.754525 0.406283 0.000000
0.785602 0.407349 0.000000
0.816835 0.408418 0.000000
0.848222 0.409487 0.000000
0.879759 0.410554 0.000000
0.911441 0.411619 0.000000
0.943267 0.412679 0.000000
0.000000 0.420897 0.000000
0.028060 0.420906 0.000000
0.056126 0.420946 0.000000
0.084206 0.421028 0.000000
0.112309 0.421157 0.000000
0.140447 0.421340 0.000000
0.168632 0.421580 0.000000
0.196877 0.421879 0.000000
0.225194 0.422239 0.000000
0.253596 0.422661 0.000000
0.282095 0.423143 0.000000
0.310703 0.423686 0.000000
0.339429 0.424286 0.000000
0.368284 0.424943 0.000000
0.397275 0.425651 0.000000
0.426410 0.426410 0.000000
0.455694 0.427213 0.000000
0.485134 0.428059 0.000000
0.514732 0.428943 0.000000
0.544491 0.429861 0.000000
0.574413 0.430809 0.000000
0.604498 0.431784 0.000000
0.634747 0.432782 0.000000
0.665159 0.433799 0.000000
0.695733 0.434833 0.000000
0.726467 0.435880 0.000000
0.757359 0.436938 0.000000
0.788406 0.438004 0.000000
0.819607 0.439075 0.000000
0.850958 0.440151 0.000000
0.882457 0.441228 0.000000
0.914099 0.442306 0.000000
0.945883 0.443383 0.000000
0.000000 0.452447 0.000000
0.028278 0.452456 0.000000
0.056562 0.452493 0.000000
0.084856 0.452568 0.000000
0.113172 0.452687 0.000000
0.141517 0.452856 0.000000
0.169904 0.453077 0.000000
0.198343 0.453354 0.000000
0.226844 0.453688 0.000000
0.255420 0.454080 0.000000
0.284081 0.454530 0.000000
0.312838 0.455037 0.000000
0.341701 0.455601 0.000000
0.370678 0.456218 0.000000
0.399777 0.456888 0.000000
0.429007 0.457607 0.000000
0.458373 0.458373 0.000000
0.487881 0.459182 0.000000
0.517534 0.460031 0.000000
0.547337 0.460916 0.000000
0.577292 0.461833 0.000000
0.607400 0.462781 0.000000
0.637663 0.463755 0.000000
0.668080 0.464751 0.000000
0.698651 0.465767 0.000000
0.729376 0.466801 0.000000
0.760254 0.467848 0.000000
0.791282 0.468908 0.000000
0.822458 0.469976 0.000000
0.853781 0.471052 0.000000
0.885248 0.472133 0.000000
0.916857 0.473217 0.000000
0.948605 0.474303 0.000000
0.000000 0.484235 0.000000
0.028485 0.484243 0.000000
0.056974 0.484277 0.000000
0.085473 0.484347 0.000000
0.113990 0.484457 0.000000
0.142533 0.484614 0.000000
0.171113 0.484819 0.000000
0.199737 0.485077 0.000000
0.228418 0.485388 0.000000
0.257163 0.485753 0.000000
0.285984 0.486174 0.000000
0.314891 0.486649 0.000000
0.343891 0.487178 0.000000
0.372993 0.487761 0.000000
0.402207 0.488394 0.000000
0.431538 0.489076 0.000000
0.460993 0.489805 0.000000
0.490577 0.490577 0.000000
0.520296 0.491391 0.000000
0.550153 0.492242 0.000000
0.580151 0.493129 0.000000
0.610293 0.494047 0.000000
0.640580 0.494994 0.000000
0.671013 0.495966 0.000000
0.701593 0.496962 0.000000
0.732319 0.497977 0.000000
0.763191 0.499010 0.000000
0.794208 0.500057 0.000000
0.825369 0.501117 0.000000
0.856673 0.502187 0.000000
0.888116 0.503266 0.000000
0.919698 0.504351 0.000000
0.951416 0.505440 0.000000
0.000000 0.516248 0.000000
0.028681 0.516256 0.000000
0.057365 0.516288 0.000000
0.086059 0.516352 0.000000
0.114768 0.516455 0.000000
0.143500 0.516601 0.000000
0.172264 0.516792 0.000000
0.201068 0.517032 0.000000
0.229921 0.517323 0.000000
0.258832 0.517665 0.000000
0.287810 0.518059 0.000000
0.316864 0.518505 0.000000
0.346002 0.519004 0.000000
0.375233 0.519553 0.000000
0.404563 0.520152 0.000000
0.434000 0.520800 0.000000
0.463550 0.521493 0.000000
0.493218 0.522231 0.000000
0.523010 0.523010 0.000000
0.552929 0.523828 0.000000
0.582980 0.524682 0.000000
0.613165 0.525570 0.000000
0.643486 0.526488 0.000000
0.673945 0.527435 0.000000
0.704542 0.528407 0.000000
0.735279 0.529401 0.000000
0.766155 0.530415 0.000000
0.797171 0.531447 0.000000
0.828324 0.532494 0.000000
0.859616 0.533554 0.000000
0.891043 0.534626 0.000000
0.922605 0.535706 0.000000
0.954300 0.536794 0.000000
0.000000 0.548476 0.000000
0.028868 0.548483 0.000000
0.057738 0.548512 0.000000
0.086617 0.548573 0.000000
0.115509 0.548669 0.000000
0.144422 0.548805 0.000000
0.173363 0.548984 0.000000
0.202340 0.549209 0.000000
0.231360 0.549481 0.000000
0.260432 0.549801 0.000000
0.289564 0.550172 0.000000
0.318764 0.550592 0.000000
0.348039 0.551062 0.000000
0.377398 0.551582 0.000000
0.406847 0.552149 0.000000
0.436393 0.552764 0.000000
0.466042 0.553425 0.000000
0.495799 0.554129 0.000000
0.525670 0.554874 0.000000
0.555660 0.555660 0.000000
0.585770 0.556482 0.000000
0.616006 0.557339 0.000000
0.646369 0.558228 0.000000
0.676862 0.559147 0.000000
0.707486 0.560093 0.000000
0.738242 0.561064 0.000000
0.769131 0.562058 0.000000
0.800153 0.563071 0.000000
0.831308 0.564102 0.000000
0.862595 0.565148 0.000000
0.894014 0.566209 0.000000
0.925563 0.567280 0.000000
0.957241 0.568362 0.000000
0.000000 0.580908 0.000000
0.029046 0.580914 0.000000
0.058094 0.580942 0.000000
0.087150 0.580998 0.000000
0.116218 0.581088 0.000000
0.145304 0.581216 0.000000
0.174415 0.581384 0.000000
0.203558 0.581595 0.000000
0.232740 0.581850 0.000000
0.261968 0.582152 0.000000
0.291251 0.582501 0.000000
0.320594 0.582898 0.000000
0.350005 0.583342 0.000000
0.379492 0.583834 0.000000
0.409061 0.584372 0.000000
0.438717 0.584957 0.000000
0.468469 0.585586 0.000000
0.498319 0.586258 0.000000
0.528274 0.586972 0.000000
0.558339 0.587725 0.000000
0.588516 0.588516 0.000000
0.618810 0.589343 0.000000
0.649223 0.590202 0.000000
0.679757 0.591093 0.000000
0.710415 0.592013 0.000000
0.741199 0.592959 0.000000
0.772108 0.593929 0.000000
0.803144 0.594922 0.000000
0.834308 0.595934 0.000000
0.865598 0.596964 0.000000
0.897015 0.598010 0.000000
0.928558 0.599070 0.000000
0.960227 0.600142 0.000000
0.000000 0.613535 0.000000
0.029216 0.613541 0.000000
0.058435 0.613567 0.000000
0.087660 0.613620 0.000000
0.116896 0.613705 0.000000
0.146149 0.613824 0.000000
0.175424 0.613982 0.000000
0.204727 0.614181 0.000000
0.234065 0.614422 0.000000
0.263446 0.614706 0.000000
0.292874 0.615036 0.000000
0.322358 0.615411 0.000000
0.351904 0.615831 0.000000
0.381518 0.616298 0.000000
0.411206 0.616809 0.000000
0.440975 0.617365 0.000000
0.470830 0.617965 0.000000
0.500777 0.618607 0.000000
0.530820 0.619290 0.000000
0.560964 0.620013 0.000000
0.591213 0.620774 0.000000
0.621570 0.621570 0.000000
0.652039 0.622401 0.000000
0.682622 0.623264 0.000000
0.713321 0.624156 0.000000
0.744139 0.625076 0.000000
0.775076 0.626023 0.000000
0.806133 0.626992 0.000000
0.837312 0.627984 0.000000
0.868613 0.628995 0.000000
0.900035 0.630024 0.000000
0.931579 0.631070 0.000000
0.963244 0.632129 0.000000
0.000000 0.646349 0.000000
0.029380 0.646354 0.000000
0.058762 0.646379 0.000000
0.088149 0.646429 0.000000
0.117547 0.646509 0.000000
0.146960 0.646622 0.000000
0.176392 0.646771 0.000000
0.205850 0.646958 0.000000
0.235340 0.647186 0.000000
0.264868 0.647455 0.000000
0.294439 0.647767 0.000000
0.324061 0.648122 0.000000
0.353739 0.648521 0.000000
0.383478 0.648963 0.000000
0.413286 0.649450 0.000000
0.443168 0.649980 0.000000
0.473129 0.650552 0.000000
0.503174 0.651166 0.000000
0.533307 0.651820 0.000000
0.563535 0.652514 0.000000
0.593859 0.653245 0.000000
0.624285 0.654012 0.000000
0.654814 0.654814 0.000000
0.685451 0.655649 0.000000
0.716197 0.656514 0.000000
0.747055 0.657408 0.000000
0.778026 0.658329 0.000000
0.809111 0.659276 0.000000
0.840312 0.660245 0.000000
0.871629 0.661236 0.000000
0.903063 0.662247 0.000000
0.934614 0.663275 0.000000
0.966282 0.664319 0.000000
0.000000 0.679342 0.000000
0.029537 0.679348 0.000000
0.059076 0.679371 0.000000
0.088620 0.679418 0.000000
0.118173 0.679494 0.000000
0.147739 0.679600 0.000000
0.177324 0.679741 0.000000
0.206932 0.679919 0.000000
0.236568 0.680134 0.000000
0.266239 0.680389 0.000000
0.295950 0.680685 0.000000
0.325706 0.681022 0.000000
0.355513 0.681401 0.000000
0.385378 0.681822 0.000000
0.415304 0.682285 0.000000
0.445298 0.682790 0.000000
0.475365 0.683337 0.000000
0.505509 0.683924 0.000000
0.535736 0.684551 0.000000
0.566049 0.685217 0.000000
0.596452 0.685920 0.000000
0.626950 0.686659 0.000000
0.657545 0.687433 0.000000
0.688240 0.688240 0.000000
0.719038 0.689078 0.000000
0.749941 0.689946 0.000000
0.780952 0.690842 0.000000
0.812071 0.691764 0.000000
0.843300 0.692711 0.000000
0.874640 0.693680 0.000000
0.906092 0.694670 0.000000
0.937656 0.695680 0.000000
0.969332 0.696707 0.000000
0.000000 0.712508 0.000000
0.029688 0.712514 0.000000
0.059378 0.712536 0.000000
0.089073 0.712580 0.000000
0.118775 0.712652 0.000000
0.148490 0.712753 0.000000
0.178222 0.712887 0.000000
0.207974 0.713055 0.000000
0.237753 0.713259 0.000000
0.267563 0.713501 0.000000
0.297409 0.713782 0.000000
0.327297 0.714102 0.000000
0.357232 0.714463 0.000000
0.387218 0.714864 0.000000
0.417262 0.715306 0.000000
0.447368 0.715789 0.000000
0.477541 0.716311 0.000000
0.507785 0.716874 0.000000
0.538106 0.717475 0.000000
0.568507 0.718114 0.000000
0.598992 0.718790 0.000000
0.629565 0.719502 0.000000
0.660228 0.720249 0.000000
0.690986 0.721029 0.000000
0.721841 0.721841 0.000000
0.752794 0.722683 0.000000
0.783849 0.723553 0.000000
0.815007 0.724451 0.000000
0.846270 0.725374 0.000000
0.877638 0.726321 0.000000
0.909113 0.727290 0.000000
0.940695 0.728280 0.000000
0.972385 0.729289 0.000000
0.000000 0.745841 0.000000
0.029834 0.745846 0.000000
0.059669 0.745867 0.000000
0.089509 0.745909 0.000000
0.119356 0.745977 0.000000
0.149215 0.746073 0.000000
0.179088 0.746200 0.000000
0.208981 0.746360 0.000000
0.238897 0.746554 0.000000
0.268842 0.746784 0.000000
0.298821 0.747051 0.000000
0.328837 0.747357 0.000000
0.358896 0.747700 0.000000
0.389003 0.748083 0.000000
0.419163 0.748505 0.000000
0.449380 0.748967 0.000000
0.479659 0.749467 0.000000
0.510004 0.750006 0.000000
0.540419 0.750582 0.000000
0.570909 0.751197 0.000000
0.601478 0.751847 0.000000
0.632128 0.752533 0.000000
0.662864 0.753254 0.000000
0.693687 0.754008 0.000000
0.724602 0.754793 0.000000
0.755610 0.755610 0.000000
0.786713 0.756455 0.000000
0.817915 0.757328 0.000000
0.849215 0.758228 0.000000
0.880616 0.759152 0.000000
0.912119 0.760099 0.000000
0.945120 0.762194 0.000000
0.980547 0.766053 0.000000
0.000000 0.779334 0.000000
0.029975 0.779339 0.000000
0.059951 0.779358 0.000000
0.089931 0.779399 0.000000
0.119917 0.779463 0.000000
0.149914 0.779555 0.000000
0.179925 0.779676 0.000000
0.209954 0.779828 0.000000
0.240004 0.780013 0.000000
0.270080 0.780232 0.000000
0.300187 0.780487 0.000000
0.330329 0.780778 0.000000
0.360511 0.781106 0.000000
0.390736 0.781472 0.000000
0.421010 0.781875 0.000000
0.451337 0.782317 0.000000
0.481721 0.782796 0.000000
0.512166 0.783313 0.000000
0.542677 0.783867 0.000000
0.573257 0.784457 0.000000
0.603910 0.785084 0.000000
0.634640 0.785745 0.000000
0.665450 0.786440 0.000000
0.696342 0.787169 0.000000
