correction_luts/film_contrast.cube
# More aggressive contrast with deeper shadows and rolled highlights
# Strength: 1.0
# Color model: linear-light tone (v2)
TITLE "Film Contrast - Stronger Filmic Look"
LUT_3D_SIZE 33
0.000000 0.000000 0.000000
0.000149 0.000000 0.000000
0.000735 0.000000 0.000000
0.001868 0.000000 0.000000
0.003620 0.000000 0.000000
0.006047 0.000000 0.000000
0.009197 0.000000 0.000000
0.013367 0.000000 0.000000
0.026601 0.000000 0.000000
0.053986 0.000000 0.000000
0.095715 0.000000 0.000000
0.149943 0.000000 0.000000
0.212695 0.000000 0.000000
0.277817 0.000000 0.000000
0.336989 0.000000 0.000000
0.379764 0.000000 0.000000
0.409061 0.000000 0.000000
0.438598 0.000000 0.000000
0.468396 0.000000 0.000000
0.498445 0.000000 0.000000
0.528731 0.000000 0.000000
0.559245 0.000000 0.000000
0.589979 0.000000 0.000000
0.620922 0.000000 0.000000
0.652068 0.000000 0.000000
0.683410 0.000000 0.000000
0.714940 0.000000 0.000000
0.746653 0.000000 0.000000
0.778542 0.000000 0.000000
0.810602 0.000000 0.000000
0.842829 0.000000 0.000000
0.875218 0.000000 0.000000
0.907763 0.000000 0.000000
0.000000 0.000288 0.000000
0.000332 0.000332 0.000000
0.000960 0.000480 0.000000
0.002099 0.000700 0.000000
0.003850 0.000963 0.000000
0.006275 0.001255 0.000000
0.009422 0.001570 0.000000
0.013848 0.001978 0.000000
0.027902 0.003488 0.000000
0.055849 0.006205 0.000000
0.097884 0.009788 0.000000
0.152168 0.013833 0.000000
0.214735 0.017895 0.000000
0.279441 0.021495 0.000000
0.337979 0.024141 0.000000
0.379915 0.025328 0.000000
0.409172 0.025573 0.000000
0.438700 0.025806 0.000000
0.468492 0.026027 0.000000
0.498534 0.026239 0.000000
0.528815 0.026441 0.000000
0.559324 0.026634 0.000000
0.590053 0.026821 0.000000
0.620993 0.027000 0.000000
0.652135 0.027172 0.000000
0.683473 0.027339 0.000000
0.715000 0.027500 0.000000
0.746710 0.027656 0.000000
0.778597 0.027807 0.000000
0.810655 0.027954 0.000000
0.842880 0.028096 0.000000
0.875266 0.028234 0.000000
0.907810 0.028369 0.000000
0.000000 0.001418 0.000000
0.000730 0.001461 0.000000
0.001633 0.001633 0.000000
0.002913 0.001942 0.000000
0.004728 0.002364 0.000000
0.007180 0.002872 0.000000
0.010338 0.003446 0.000000
0.016725 0.004779 0.000000
0.033875 0.008469 0.000000
0.063960 0.014213 0.000000
0.107128 0.021426 0.000000
0.161533 0.029370 0.000000
0.223227 0.037205 0.000000
0.286103 0.044016 0.000000
0.341895 0.048842 0.000000
0.380426 0.050724 0.000000
0.409640 0.051205 0.000000
0.439135 0.051663 0.000000
0.468897 0.052100 0.000000
0.498913 0.052517 0.000000
0.529171 0.052917 0.000000
0.559659 0.053301 0.000000
0.590370 0.053670 0.000000
0.621292 0.054025 0.000000
0.652419 0.054368 0.000000
0.683743 0.054699 0.000000
0.715258 0.055020 0.000000
0.746956 0.055330 0.000000
0.778832 0.055631 0.000000
0.810880 0.055923 0.000000
0.843095 0.056206 0.000000
0.875473 0.056482 0.000000
0.908009 0.056751 0.000000
0.000000 0.003603 0.000000
0.001215 0.003644 0.000000
0.002545 0.003817 0.000000
0.004149 0.004149 0.000000
0.006182 0.004637 0.000000
0.008772 0.005263 0.000000
0.013590 0.006795 0.000000
0.025565 0.010956 0.000000
0.047474 0.017803 0.000000
0.080834 0.026945 0.000000
0.125560 0.037668 0.000000
0.179698 0.049009 0.000000
0.239269 0.059817 0.000000
0.298191 0.068813 0.000000
0.348259 0.074627 0.000000
0.381425 0.076285 0.000000
0.410567 0.076981 0.000000
0.439999 0.077647 0.000000
0.469705 0.078284 0.000000
0.499670 0.078895 0.000000
0.529883 0.079482 0.000000
0.560331 0.080047 0.000000
0.591005 0.080592 0.000000
0.621894 0.081117 0.000000
0.652991 0.081624 0.000000
0.684287 0.082114 0.000000
0.715776 0.082590 0.000000
0.747451 0.083050 0.000000
0.779305 0.083497 0.000000
0.811334 0.083931 0.000000
0.843530 0.084353 0.000000
0.875891 0.084764 0.000000
0.908411 0.085164 0.000000
0.000000 0.006983 0.000000
0.001756 0.007023 0.000000
0.003597 0.007193 0.000000
0.005784 0.007712 0.000000
0.009171 0.009171 0.000000
0.015302 0.012242 0.000000
0.026275 0.017517 0.000000
0.044305 0.025317 0.000000
0.071180 0.035590 0.000000
0.107732 0.047881 0.000000
0.153418 0.061367 0.000000
0.206011 0.074913 0.000000
0.261394 0.087131 0.000000
0.313451 0.096446 0.000000
0.354016 0.101147 0.000000
0.382944 0.102118 0.000000
0.411986 0.102997 0.000000
0.441329 0.103842 0.000000
0.470954 0.104656 0.000000
0.500846 0.105441 0.000000
0.530993 0.106199 0.000000
0.561381 0.106930 0.000000
0.591999 0.107636 0.000000
0.622839 0.108320 0.000000
0.653890 0.108982 0.000000
0.685144 0.109623 0.000000
0.716594 0.110245 0.000000
0.748232 0.110849 0.000000
0.780054 0.111436 0.000000
0.812051 0.112007 0.000000
0.844219 0.112563 0.000000
0.876553 0.113104 0.000000
0.909048 0.113631 0.000000
0.000000 0.019914 0.000000
0.004036 0.020179 0.000000
0.008533 0.021332 0.000000
0.014256 0.023759 0.000000
0.022267 0.027834 0.000000
0.033914 0.033914 0.000000
0.050702 0.042252 0.000000
0.074037 0.052883 0.000000
0.104863 0.065539 0.000000
0.143274 0.079597 0.000000
0.188149 0.094075 0.000000
0.236857 0.107662 0.000000
0.285034 0.118764 0.000000
0.326449 0.125557 0.000000
0.356359 0.127271 0.000000
0.384958 0.128319 0.000000
0.413885 0.129339 0.000000
0.443120 0.130329 0.000000
0.472647 0.131291 0.000000
0.502449 0.132223 0.000000
0.532512 0.133128 0.000000
0.562823 0.134005 0.000000
0.593371 0.134857 0.000000
0.624145 0.135684 0.000000
0.655135 0.136486 0.000000
0.686333 0.137267 0.000000
0.717732 0.138025 0.000000
0.749322 0.138763 0.000000
0.781098 0.139482 0.000000
0.813054 0.140182 0.000000
0.845183 0.140864 0.000000
0.877481 0.141529 0.000000
0.909941 0.142178 0.000000
0.000000 0.056189 0.000000
0.009429 0.056576 0.000000
0.019411 0.058232 0.000000
0.030794 0.061587 0.000000
0.044611 0.066917 0.000000
0.061974 0.074369 0.000000
0.083930 0.083930 0.000000
0.111255 0.095361 0.000000
0.144190 0.108142 0.000000
0.182145 0.121430 0.000000
0.223408 0.134045 0.000000
0.264889 0.144485 0.000000
0.301908 0.150954 0.000000
0.330793 0.152674 0.000000
0.358922 0.153824 0.000000
0.387401 0.154961 0.000000
0.416212 0.156080 0.000000
0.445336 0.157178 0.000000
0.474757 0.158252 0.000000
0.504459 0.159303 0.000000
0.534428 0.160328 0.000000
0.564651 0.161329 0.000000
0.595116 0.162304 0.000000
0.625813 0.163256 0.000000
0.656731 0.164183 0.000000
0.687862 0.165087 0.000000
0.719197 0.165969 0.000000
0.750729 0.166829 0.000000
0.782450 0.167668 0.000000
0.814354 0.168487 0.000000
0.846435 0.169287 0.000000
0.878687 0.170068 0.000000
0.911105 0.170832 0.000000
0.000000 0.112922 0.000000
0.016187 0.113307 0.000000
0.032841 0.114944 0.000000
0.050663 0.118213 0.000000
0.070447 0.123282 0.000000
0.092954 0.130136 0.000000
0.118760 0.138553 0.000000
0.148066 0.148066 0.000000
0.180485 0.157925 0.000000
0.214805 0.167071 0.000000
0.248750 0.174125 0.000000
0.278782 0.177407 0.000000
0.306093 0.178554 0.000000
0.333773 0.179724 0.000000
0.361811 0.180905 0.000000
0.390191 0.182089 0.000000
0.418898 0.183268 0.000000
0.447918 0.184437 0.000000
0.477236 0.185592 0.000000
0.506837 0.186730 0.000000
0.536709 0.187848 0.000000
0.566840 0.188947 0.000000
0.597216 0.190023 0.000000
0.627829 0.191078 0.000000
0.658668 0.192111 0.000000
0.689723 0.193123 0.000000
0.720987 0.194112 0.000000
0.752452 0.195080 0.000000
0.784109 0.196027 0.000000
0.815953 0.196954 0.000000
0.847977 0.197861 0.000000
0.880176 0.198749 0.000000
0.912543 0.199619 0.000000
0.000000 0.177526 0.000000
0.022224 0.177792 0.000000
0.044729 0.178917 0.000000
0.067922 0.181124 0.000000
0.092216 0.184432 0.000000
0.117914 0.188663 0.000000
0.145061 0.193414 0.000000
0.173274 0.198027 0.000000
0.201558 0.201558 0.000000
0.228407 0.203028 0.000000
0.255029 0.204023 0.000000
0.281991 0.205085 0.000000
0.309297 0.206198 0.000000
0.336944 0.207350 0.000000
0.364927 0.208530 0.000000
0.393237 0.209726 0.000000
0.421864 0.210932 0.000000
0.450797 0.212140 0.000000
0.480024 0.213344 0.000000
0.509533 0.214540 0.000000
0.539313 0.215725 0.000000
0.569352 0.216896 0.000000
0.599640 0.218051 0.000000
0.630167 0.219189 0.000000
0.660923 0.220308 0.000000
0.691899 0.221408 0.000000
0.723087 0.222488 0.000000
0.754479 0.223549 0.000000
0.786067 0.224591 0.000000
0.817845 0.225612 0.000000
0.849806 0.226615 0.000000
0.881945 0.227599 0.000000
0.914255 0.228564 0.000000
0.000000 0.227550 0.000000
0.025288 0.227592 0.000000
0.050612 0.227755 0.000000
0.075999 0.227997 0.000000
0.101462 0.228290 0.000000
0.127053 0.228696 0.000000
0.152812 0.229218 0.000000
0.178774 0.229852 0.000000
0.204971 0.230593 0.000000
0.231431 0.231431 0.000000
0.258174 0.232357 0.000000
0.285214 0.233357 0.000000
0.312560 0.234420 0.000000
0.340217 0.235535 0.000000
0.368183 0.236689 0.000000
0.396457 0.237874 0.000000
0.425032 0.239080 0.000000
0.453901 0.240301 0.000000
0.483056 0.241528 0.000000
0.512488 0.242758 0.000000
0.542187 0.243984 0.000000
0.572144 0.245204 0.000000
0.602349 0.246415 0.000000
0.632793 0.247615 0.000000
0.663468 0.248800 0.000000
0.694364 0.249971 0.000000
0.725475 0.251126 0.000000
0.756792 0.252264 0.000000
0.788308 0.253385 0.000000
0.820016 0.254488 0.000000
0.851910 0.255573 0.000000
0.883985 0.256641 0.000000
0.916234 0.257691 0.000000
0.000000 0.257027 0.000000
0.025705 0.257046 0.000000
0.051425 0.257127 0.000000
0.077187 0.257291 0.000000
0.103020 0.257549 0.000000
0.128954 0.257909 0.000000
0.155025 0.258374 0.000000
0.181261 0.258945 0.000000
0.207694 0.259617 0.000000
0.234347 0.260386 0.000000
0.261242 0.261242 0.000000
0.288396 0.262178 0.000000
0.315821 0.263184 0.000000
0.343524 0.264249 0.000000
0.371511 0.265365 0.000000
0.399781 0.266521 0.000000
0.428334 0.267709 0.000000
0.457166 0.268921 0.000000
0.486272 0.270151 0.000000
0.515645 0.271392 0.000000
0.545279 0.272640 0.000000
0.575166 0.273889 0.000000
0.605298 0.275135 0.000000
0.635667 0.276377 0.000000
0.666267 0.277611 0.000000
0.697088 0.278835 0.000000
0.728123 0.280047 0.000000
0.759366 0.281247 0.000000
0.790810 0.282432 0.000000
0.822448 0.283603 0.000000
0.854275 0.284758 0.000000
0.886283 0.285898 0.000000
0.918467 0.287021 0.000000
0.000000 0.286801 0.000000
0.026074 0.286818 0.000000
0.052162 0.286890 0.000000
0.078282 0.287035 0.000000
0.104460 0.287266 0.000000
0.130722 0.287588 0.000000
0.157094 0.288006 0.000000
0.183605 0.288522 0.000000
0.210280 0.289134 0.000000
0.237141 0.289839 0.000000
0.264210 0.290631 0.000000
0.291504 0.291504 0.000000
0.319037 0.292450 0.000000
0.346818 0.293462 0.000000
0.374856 0.294530 0.000000
0.403154 0.295646 0.000000
0.431713 0.296803 0.000000
0.460535 0.297993 0.000000
0.489615 0.299209 0.000000
0.518951 0.300446 0.000000
0.548539 0.301696 0.000000
0.578371 0.302956 0.000000
0.608444 0.304222 0.000000
0.638750 0.305489 0.000000
0.669282 0.306754 0.000000
0.700035 0.308015 0.000000
0.731001 0.309270 0.000000
0.762175 0.310516 0.000000
0.793550 0.311752 0.000000
0.825119 0.312976 0.000000
0.856878 0.314189 0.000000
0.888820 0.315388 0.000000
0.920940 0.316573 0.000000
0.000000 0.316984 0.000000
0.026417 0.316999 0.000000
0.052844 0.317064 0.000000
0.079299 0.317195 0.000000
0.105801 0.317402 0.000000
0.132372 0.317693 0.000000
0.159036 0.318072 0.000000
0.185816 0.318541 0.000000
0.212734 0.319100 0.000000
0.239811 0.319748 0.000000
0.267068 0.320481 0.000000
0.294520 0.321295 0.000000
0.322182 0.322182 0.000000
0.350066 0.323138 0.000000
0.378181 0.324155 0.000000
0.406532 0.325226 0.000000
0.435124 0.326343 0.000000
0.463960 0.327501 0.000000
0.493038 0.328692 0.000000
0.522359 0.329911 0.000000
0.551919 0.331152 0.000000
0.581716 0.332409 0.000000
0.611744 0.333678 0.000000
0.641999 0.334956 0.000000
0.672477 0.336238 0.000000
0.703171 0.337522 0.000000
0.734076 0.338804 0.000000
0.765187 0.340083 0.000000
0.796498 0.341356 0.000000
0.828003 0.342622 0.000000
0.859698 0.343879 0.000000
0.891576 0.345126 0.000000
0.923633 0.346362 0.000000
0.000000 0.347547 0.000000
0.026735 0.347561 0.000000
0.053480 0.347620 0.000000
0.080247 0.347738 0.000000
0.107054 0.347926 0.000000
0.133919 0.348190 0.000000
0.160863 0.348536 0.000000
0.187904 0.348965 0.000000
0.215064 0.349478 0.000000
0.242360 0.350076 0.000000
0.269812 0.350756 0.000000
0.297434 0.351513 0.000000
0.325242 0.352346 0.000000
0.353247 0.353247 0.000000
0.381459 0.354212 0.000000
0.409885 0.355234 0.000000
0.438533 0.356308 0.000000
0.467404 0.357427 0.000000
0.496503 0.358585 0.000000
0.525828 0.359777 0.000000
0.555381 0.360998 0.000000
0.585159 0.362241 0.000000
0.615159 0.363503 0.000000
0.645379 0.364780 0.000000
0.675815 0.366066 0.000000
0.706462 0.367360 0.000000
0.737316 0.368658 0.000000
0.768373 0.369957 0.000000
0.799627 0.371255 0.000000
0.831074 0.372551 0.000000
0.862709 0.373841 0.000000
0.894528 0.375125 0.000000
0.926525 0.376401 0.000000
0.000000 0.378466 0.000000
0.027034 0.378478 0.000000
0.054076 0.378531 0.000000
0.081137 0.378639 0.000000
0.108232 0.378811 0.000000
0.135376 0.379053 0.000000
0.162587 0.379370 0.000000
0.189882 0.379764 0.000000
0.217279 0.380238 0.000000
0.244794 0.380791 0.000000
0.272444 0.381422 0.000000
0.300244 0.382129 0.000000
0.328208 0.382909 0.000000
0.356347 0.383758 0.000000
0.384672 0.384672 0.000000
0.413192 0.385645 0.000000
0.441912 0.386673 0.000000
0.470840 0.387750 0.000000
0.499977 0.388871 0.000000
0.529327 0.390030 0.000000
0.558890 0.391223 0.000000
0.588667 0.392444 0.000000
0.618656 0.393690 0.000000
0.648855 0.394955 0.000000
0.679263 0.396237 0.000000
0.709875 0.397530 0.000000
0.740690 0.398833 0.000000
0.771702 0.400142 0.000000
0.802909 0.401454 0.000000
0.834305 0.402768 0.000000
0.865888 0.404081 0.000000
0.897652 0.405391 0.000000
0.929594 0.406697 0.000000
0.000000 0.409717 0.000000
0.027315 0.409729 0.000000
0.054637 0.409778 0.000000
0.081975 0.409877 0.000000
0.109342 0.410034 0.000000
0.136752 0.410257 0.000000
0.164219 0.410549 0.000000
0.191759 0.410913 0.000000
0.219387 0.411351 0.000000
0.247119 0.411865 0.000000
0.274968 0.412452 0.000000
0.302950 0.413114 0.000000
0.331077 0.413846 0.000000
0.359360 0.414646 0.000000
0.387810 0.415511 0.000000
0.416436 0.416436 0.000000
0.445246 0.417418 0.000000
0.474244 0.418451 0.000000
0.503438 0.419531 0.000000
0.532828 0.420654 0.000000
0.562419 0.421814 0.000000
0.592211 0.423008 0.000000
0.622204 0.424230 0.000000
0.652397 0.425477 0.000000
0.682791 0.426744 0.000000
0.713382 0.428029 0.000000
0.744168 0.429328 0.000000
0.775147 0.430637 0.000000
0.806316 0.431955 0.000000
0.837671 0.433278 0.000000
0.869208 0.434604 0.000000
0.900925 0.435932 0.000000
0.932818 0.437258 0.000000
0.000000 0.441283 0.000000
0.027581 0.441294 0.000000
0.055167 0.441339 0.000000
0.082768 0.441430 0.000000
0.110394 0.441576 0.000000
0.138057 0.441782 0.000000
0.165769 0.442052 0.000000
0.193545 0.442389 0.000000
0.221398 0.442797 0.000000
0.249342 0.443275 0.000000
0.277390 0.443824 0.000000
0.305555 0.444443 0.000000
0.333848 0.445131 0.000000
0.362282 0.445886 0.000000
0.390866 0.446704 0.000000
0.419609 0.447583 0.000000
0.448520 0.448520 0.000000
0.477603 0.449509 0.000000
0.506866 0.450548 0.000000
0.536312 0.451631 0.000000
0.565945 0.452756 0.000000
0.595767 0.453917 0.000000
0.625778 0.455111 0.000000
0.655980 0.456334 0.000000
0.686373 0.457582 0.000000
0.716955 0.458851 0.000000
0.747726 0.460139 0.000000
0.778682 0.461441 0.000000
0.809823 0.462756 0.000000
0.841146 0.464080 0.000000
0.872647 0.465412 0.000000
0.904325 0.466748 0.000000
0.936175 0.468087 0.000000
0.000000 0.473146 0.000000
0.027833 0.473156 0.000000
0.055670 0.473198 0.000000
0.083521 0.473283 0.000000
0.111392 0.473418 0.000000
0.139297 0.473609 0.000000
0.167245 0.473860 0.000000
0.195248 0.474175 0.000000
0.223320 0.474554 0.000000
0.251471 0.475001 0.000000
0.279715 0.475515 0.000000
0.308062 0.476097 0.000000
0.336525 0.476744 0.000000
0.365114 0.477456 0.000000
0.393838 0.478231 0.000000
0.422706 0.479067 0.000000
0.451726 0.479959 0.000000
0.480905 0.480905 0.000000
0.510250 0.481902 0.000000
0.539764 0.482946 0.000000
0.569451 0.484034 0.000000
0.599316 0.485160 0.000000
0.629359 0.486323 0.000000
0.659583 0.487518 0.000000
0.689987 0.488741 0.000000
0.720573 0.489990 0.000000
0.751339 0.491260 0.000000
0.782284 0.492549 0.000000
0.813408 0.493855 0.000000
0.844708 0.495174 0.000000
0.876182 0.496503 0.000000
0.907828 0.497841 0.000000
0.939644 0.499186 0.000000
0.000000 0.505292 0.000000
0.028072 0.505301 0.000000
0.056149 0.505340 0.000000
0.084237 0.505419 0.000000
0.112343 0.505545 0.000000
0.140479 0.505723 0.000000
0.168653 0.505958 0.000000
0.196876 0.506252 0.000000
0.225159 0.506607 0.000000
0.253513 0.507026 0.000000
0.281949 0.507508 0.000000
0.310478 0.508055 0.000000
0.339110 0.508666 0.000000
0.367856 0.509339 0.000000
0.396724 0.510073 0.000000
0.425723 0.510867 0.000000
0.454860 0.511718 0.000000
0.484143 0.512622 0.000000
0.513578 0.513578 0.000000
0.543171 0.514583 0.000000
0.572924 0.515632 0.000000
0.602843 0.516723 0.000000
0.632930 0.517852 0.000000
0.663187 0.519016 0.000000
0.693615 0.520211 0.000000
0.724215 0.521435 0.000000
0.754988 0.522684 0.000000
0.785933 0.523955 0.000000
0.817050 0.525246 0.000000
0.848337 0.526554 0.000000
0.879793 0.527876 0.000000
0.911416 0.529209 0.000000
0.943205 0.530553 0.000000
0.000000 0.537707 0.000000
0.028301 0.537716 0.000000
0.056605 0.537752 0.000000
0.084920 0.537826 0.000000
0.113251 0.537944 0.000000
0.141608 0.538111 0.000000
0.169999 0.538330 0.000000
0.198434 0.538605 0.000000
0.226922 0.538939 0.000000
0.255473 0.539332 0.000000
0.284098 0.539787 0.000000
0.312806 0.540302 0.000000
0.341608 0.540879 0.000000
0.370511 0.541516 0.000000
0.399525 0.542213 0.000000
0.428659 0.542968 0.000000
0.457919 0.543779 0.000000
0.487313 0.544643 0.000000
0.516846 0.545560 0.000000
0.546525 0.546525 0.000000
0.576354 0.547536 0.000000
0.606337 0.548591 0.000000
0.636477 0.549685 0.000000
0.666778 0.550816 0.000000
0.697240 0.551982 0.000000
0.727866 0.553178 0.000000
0.758656 0.554402 0.000000
0.789611 0.555652 0.000000
0.820730 0.556924 0.000000
0.852014 0.558216 0.000000
0.883461 0.559525 0.000000
0.915070 0.560849 0.000000
0.946840 0.562186 0.000000
0.000000 0.570379 0.000000
0.028519 0.570387 0.000000
0.057042 0.570421 0.000000
0.085574 0.570491 0.000000
0.114120 0.570601 0.000000
0.142689 0.570758 0.000000
0.171289 0.570964 0.000000
0.199928 0.571223 0.000000
0.228615 0.571537 0.000000
0.257358 0.571907 0.000000
0.286168 0.572336 0.000000
0.315053 0.572823 0.000000
0.344021 0.573369 0.000000
0.373082 0.573973 0.000000
0.402244 0.574635 0.000000
0.431515 0.575353 0.000000
0.460901 0.576127 0.000000
0.490411 0.576954 0.000000
0.520049 0.577832 0.000000
0.549821 0.578759 0.000000
0.579733 0.579733 0.000000
0.609788 0.580751 0.000000
0.639991 0.581810 0.000000
0.670344 0.582908 0.000000
0.700850 0.584042 0.000000
0.731511 0.585209 0.000000
0.762328 0.586406 0.000000
0.793302 0.587631 0.000000
0.824434 0.588881 0.000000
0.855723 0.590154 0.000000
0.887170 0.591447 0.000000
0.918773 0.592757 0.000000
0.950533 0.594083 0.000000
0.000000 0.603297 0.000000
0.028729 0.603305 0.000000
0.057461 0.603337 0.000000
0.086200 0.603402 0.000000
0.114954 0.603506 0.000000
0.143727 0.603654 0.000000
0.172528 0.603848 0.000000
0.201364 0.604092 0.000000
0.230243 0.604388 0.000000
0.259174 0.604738 0.000000
0.288163 0.605143 0.000000
0.317221 0.605604 0.000000
0.346355 0.606122 0.000000
0.375573 0.606696 0.000000
0.404883 0.607325 0.000000
0.434293 0.608010 0.000000
0.463808 0.608748 0.000000
0.493436 0.609539 0.000000
0.523183 0.610381 0.000000
0.553055 0.611271 0.000000
0.583056 0.612209 0.000000
0.613191 0.613191 0.000000
0.643463 0.614215 0.000000
0.673877 0.615279 0.000000
0.704435 0.616381 0.000000
0.735139 0.617517 0.000000
0.765992 0.618686 0.000000
0.796994 0.619884 0.000000
0.828146 0.621110 0.000000
0.859450 0.622360 0.000000
0.890905 0.623633 0.000000
0.922511 0.624927 0.000000
0.954268 0.626238 0.000000
0.000000 0.636452 0.000000
0.028930 0.636459 0.000000
0.057863 0.636489 0.000000
0.086802 0.636550 0.000000
0.115754 0.636649 0.000000
0.144725 0.636788 0.000000
0.173719 0.636971 0.000000
0.202746 0.637202 0.000000
0.231812 0.637482 0.000000
0.260924 0.637813 0.000000
0.290090 0.638197 0.000000
0.319317 0.638635 0.000000
0.348614 0.639126 0.000000
0.377988 0.639672 0.000000
0.407445 0.640271 0.000000
0.436994 0.640924 0.000000
0.466640 0.641629 0.000000
0.496390 0.642386 0.000000
0.526249 0.643193 0.000000
0.556224 0.644049 0.000000
0.586319 0.644951 0.000000
0.616540 0.645899 0.000000
0.646889 0.646889 0.000000
0.677370 0.647919 0.000000
0.707987 0.648988 0.000000
0.738742 0.650093 0.000000
0.769638 0.651232 0.000000
0.800676 0.652403 0.000000
0.831857 0.653602 0.000000
0.863183 0.654828 0.000000
0.894654 0.656079 0.000000
0.926270 0.657353 0.000000
0.958032 0.658647 0.000000
0.000000 0.669833 0.000000
0.029123 0.669839 0.000000
0.058249 0.669868 0.000000
0.087382 0.669926 0.000000
0.116525 0.670019 0.000000
0.145685 0.670151 0.000000
0.174867 0.670325 0.000000
0.204078 0.670543 0.000000
0.233325 0.670809 0.000000
0.262613 0.671123 0.000000
0.291951 0.671487 0.000000
0.321345 0.671903 0.000000
0.350802 0.672371 0.000000
0.380329 0.672890 0.000000
0.409933 0.673462 0.000000
0.439621 0.674085 0.000000
0.469398 0.674760 0.000000
0.499271 0.675485 0.000000
0.529246 0.676259 0.000000
0.559328 0.677081 0.000000
0.589521 0.677950 0.000000
0.619832 0.678863 0.000000
0.650262 0.679820 0.000000
0.680817 0.680817 0.000000
0.711500 0.681854 0.000000
0.742312 0.682927 0.000000
0.773258 0.684036 0.000000
0.804339 0.685178 0.000000
0.835556 0.686350 0.000000
0.866911 0.687550 0.000000
0.898406 0.688778 0.000000
0.930039 0.690029 0.000000
0.961813 0.691303 0.000000
0.000000 0.703432 0.000000
0.029310 0.703438 0.000000
0.058622 0.703466 0.000000
0.087940 0.703521 0.000000
0.117268 0.703609 0.000000
0.146611 0.703734 0.000000
0.175975 0.703899 0.000000
0.205364 0.704106 0.000000
0.234786 0.704359 0.000000
0.264247 0.704657 0.000000
0.293752 0.705004 0.000000
0.323308 0.705400 0.000000
0.352923 0.705845 0.000000
0.382601 0.706341 0.000000
0.412350 0.706886 0.000000
0.442177 0.707482 0.000000
0.472085 0.708128 0.000000
0.502083 0.708823 0.000000
0.532175 0.709566 0.000000
0.562366 0.710357 0.000000
0.592661 0.711193 0.000000
0.623065 0.712074 0.000000
0.653581 0.712998 0.000000
0.684214 0.713963 0.000000
0.714968 0.714968 0.000000
0.745844 0.716010 0.000000
0.776846 0.717088 0.000000
0.807976 0.718201 0.000000
0.839236 0.719345 0.000000
0.870627 0.720519 0.000000
0.902151 0.721721 0.000000
0.933809 0.722949 0.000000
0.965601 0.724201 0.000000
0.000000 0.737242 0.000000
0.029490 0.737248 0.000000
0.058982 0.737274 0.000000
0.088479 0.737327 0.000000
0.117986 0.737410 0.000000
0.147506 0.737529 0.000000
0.177045 0.737686 0.000000
0.206607 0.737883 0.000000
0.236200 0.738124 0.000000
0.265827 0.738408 0.000000
0.295495 0.738738 0.000000
0.325211 0.739116 0.000000
0.354980 0.739541 0.000000
0.384807 0.740014 0.000000
0.414700 0.740536 0.000000
0.444664 0.741106 0.000000
0.474704 0.741725 0.000000
0.504826 0.742392 0.000000
0.535036 0.743105 0.000000
0.565338 0.743866 0.000000
0.595737 0.744671 0.000000
0.626237 0.745521 0.000000
0.656844 0.746413 0.000000
0.687559 0.747347 0.000000
0.718388 0.748321 0.000000
0.749332 0.749332 0.000000
0.780396 0.750380 0.000000
0.811580 0.751463 0.000000
0.842888 0.752579 0.000000
0.874322 0.753726 0.000000
0.905882 0.754902 0.000000
0.937570 0.756105 0.000000
0.972691 0.759915 0.000000
0.000000 0.771256 0.000000
0.029664 0.771262 0.000000
0.059330 0.771286 0.000000
0.089000 0.771336 0.000000
0.118679 0.771416 0.000000
0.148371 0.771529 0.000000
0.178080 0.771679 0.000000
0.207810 0.771867 0.000000
0.237568 0.772096 0.000000
0.267358 0.772367 0.000000
0.297186 0.772682 0.000000
0.327057 0.773043 0.000000
0.356976 0.773449 0.000000
0.386951 0.773902 0.000000
0.416985 0.774401 0.000000
0.447085 0.774948 0.000000
0.477256 0.775541 0.000000
0.507503 0.776181 0.000000
0.537831 0.776868 0.000000
0.568246 0.777599 0.000000
0.598750 0.778375 0.000000
0.629350 0.779195 0.000000
0.660048 0.780057 0.000000
0.690850 0.780961 0.000000
