correction_luts/film_contrast.cube
# More aggressive contrast with deeper shadows and rolled highlights
# Strength: 1.0
# Color model: linear-light tone (v2)
TITLE "Film Contrast - Stronger Filmic Look"
LUT_3D_SIZE 5
0.000000 0.000000 0.000000
0.026601 0.000000 0.000000
0.409061 0.000000 0.000000
0.652068 0.000000 0.000000
0.907763 0.000000 0.000000
0.000000 0.177526 0.000000
0.201558 0.201558 0.000000
0.421864 0.210932 0.000000
0.660923 0.220308 0.000000
0.914255 0.228564 0.000000
0.000000 0.441283 0.000000
0.221398 0.442797 0.000000
0.448520 0.448520 0.000000
0.686373 0.457582 0.000000
0.936175 0.468087 0.000000
0.000000 0.703432 0.000000
0.234786 0.704359 0.000000
0.472085 0.708128 0.000000
0.714968 0.714968 0.000000
0.965601 0.724201 0.000000
0.000000 0.990936 0.000000
0.247767 0.991068 0.000000
0.495100 0.990199 0.000000
0.736616 0.982154 0.000000
0.955519 0.955519 0.000000
0.000000 0.000000 0.009930
0.048921 0.000000 0.048921
0.410658 0.000000 0.205329
0.653048 0.000000 0.217683
0.908451 0.000000 0.227113
0.000000 0.189128 0.189128
0.203063 0.203063 0.203063
0.422881 0.211441 0.211441
0.661725 0.220575 0.220575
0.914873 0.228718 0.228718
0.000000 0.441806 0.220903
0.221647 0.443294 0.221647
0.448930 0.448930 0.224465
0.686830 0.457887 0.228943
0.936609 0.468304 0.234152
0.000000 0.703749 0.234583
0.234890 0.704669 0.234890
0.472277 0.708415 0.236138
0.715216 0.715216 0.238405
0.965875 0.724406 0.241469
0.000000 0.990996 0.247749
0.247771 0.991083 0.247771
0.495018 0.990036 0.247509
0.736267 0.981689 0.245422
0.954695 0.954695 0.238674
0.000000 0.000000 0.165874
0.150251 0.000000 0.300503
0.416605 0.000000 0.416605
0.657008 0.000000 0.438005
0.911308 0.000000 0.455654
0.000000 0.204233 0.408466
0.206508 0.206508 0.413016
0.426863 0.213431 0.426863
0.665001 0.221667 0.443334
0.917450 0.229363 0.458725
0.000000 0.443944 0.443944
0.222665 0.445330 0.445330
0.450625 0.450625 0.450625
0.688735 0.459157 0.459157
0.938433 0.469216 0.469216
0.000000 0.705080 0.470053
0.235325 0.705975 0.470650
0.473082 0.709622 0.473082
0.716264 0.716264 0.477509
0.967031 0.725273 0.483515
0.000000 0.991080 0.495540
0.247745 0.990979 0.495490
0.494595 0.989190 0.494595
0.734686 0.979582 0.489791
0.951085 0.951085 0.475543
0.000000 0.000000 0.609507
0.205613 0.000000 0.616839
0.425786 0.000000 0.638679
0.664093 0.000000 0.664093
0.916728 0.000000 0.687546
0.000000 0.210091 0.630274
0.211624 0.211624 0.634872
0.433559 0.216779 0.650338
0.670992 0.223664 0.670992
0.922372 0.230593 0.691779
0.000000 0.447861 0.671792
0.224540 0.449080 0.673620
0.453799 0.453799 0.680699
0.692377 0.461585 0.692377
0.941981 0.470990 0.706486
0.000000 0.707673 0.707673
0.236173 0.708520 0.708520
0.474656 0.711983 0.711983
0.718324 0.718324 0.718324
0.972450 0.729338 0.729338
0.000000 0.990429 0.742822
0.247493 0.989972 0.742479
0.493382 0.986765 0.740074
0.731059 0.974745 0.731059
0.943363 0.943363 0.707522
0.000000 0.000000 0.848513
0.213465 0.000000 0.853859
0.436176 0.000000 0.872353
0.673492 0.000000 0.897989
0.924504 0.000000 0.924504
0.000000 0.216200 0.864802
0.217217 0.217217 0.868870
0.441817 0.220909 0.883634
0.679164 0.226388 0.905552
0.929505 0.232376 0.929505
0.000000 0.453221 0.906443
0.227122 0.454245 0.908489
0.458270 0.458270 0.916540
0.697661 0.465108 0.930215
0.947268 0.473634 0.947268
0.000000 0.711544 0.948725
0.237442 0.712325 0.949767
0.477020 0.715530 0.954040
0.721444 0.721444 0.961926
0.982464 0.736848 0.982464
0.000000 0.987296 0.987296
0.246582 0.986326 0.986326
0.490541 0.981082 0.981082
0.724184 0.965578 0.965578
0.930000 0.930000 0.930000
