correction_luts/film_contrast_80.cube
# More aggressive contrast with deeper shadows and rolled highlights
# Strength: 0.8
# Color model: linear-light tone (v2)
TITLE "Film Contrast - Stronger Filmic Look"
LUT_3D_SIZE 9
0.000000 0.000000 0.000000
0.007847 0.000000 0.000000
0.047235 0.000000 0.000000
0.251978 0.000000 0.000000
0.425819 0.000000 0.000000
0.546719 0.000000 0.000000
0.670574 0.000000 0.000000
0.796943 0.000000 0.000000
0.925504 0.000000 0.000000
0.000000 0.013298 0.000000
0.017765 0.017765 0.000000
0.098689 0.049345 0.000000
0.292952 0.097651 0.000000
0.428253 0.107063 0.000000
0.548589 0.109718 0.000000
0.672072 0.112012 0.000000
0.798181 0.114026 0.000000
0.926551 0.115819 0.000000
0.000000 0.197767 0.000000
0.101350 0.202700 0.000000
0.210895 0.210895 0.000000
0.321445 0.214297 0.000000
0.436447 0.218224 0.000000
0.555455 0.222182 0.000000
0.677849 0.225950 0.000000
0.803099 0.229457 0.000000
0.930794 0.232699 0.000000
0.000000 0.327821 0.000000
0.109389 0.328166 0.000000
0.219714 0.329570 0.000000
0.332114 0.332114 0.000000
0.447388 0.335541 0.000000
0.565818 0.339491 0.000000
0.687312 0.343656 0.000000
0.811614 0.347834 0.000000
0.938425 0.351909 0.000000
0.000000 0.452447 0.000000
0.113172 0.452687 0.000000
0.226844 0.453688 0.000000
0.341701 0.455601 0.000000
0.458373 0.458373 0.000000
0.577292 0.461833 0.000000
0.698651 0.465767 0.000000
0.822458 0.469976 0.000000
0.948605 0.474303 0.000000
0.000000 0.580908 0.000000
0.116218 0.581088 0.000000
0.232740 0.581850 0.000000
0.350005 0.583342 0.000000
0.468469 0.585586 0.000000
0.588516 0.588516 0.000000
0.710415 0.592013 0.000000
0.834308 0.595934 0.000000
0.960227 0.600142 0.000000
0.000000 0.712508 0.000000
0.118775 0.712652 0.000000
0.237753 0.713259 0.000000
0.357232 0.714463 0.000000
0.477541 0.716311 0.000000
0.598992 0.718790 0.000000
0.721841 0.721841 0.000000
0.846270 0.725374 0.000000
0.972385 0.729289 0.000000
0.000000 0.846780 0.000000
0.120985 0.846897 0.000000
0.242114 0.847398 0.000000
0.363599 0.848397 0.000000
0.485686 0.849950 0.000000
0.608746 0.852244 0.000000
0.738844 0.861985 0.000000
0.868711 0.868711 0.000000
0.994324 0.870033 0.000000
0.000000 0.994672 0.000000
0.124333 0.994664 0.000000
0.248645 0.994582 0.000000
0.372813 0.994168 0.000000
0.496428 0.992855 0.000000
0.618571 0.989714 0.000000
0.737616 0.983488 0.000000
0.851099 0.972684 0.000000
0.955720 0.955720 0.000000
0.000000 0.000000 0.004968
0.008881 0.000000 0.008881
0.052077 0.000000 0.026039
0.257049 0.000000 0.085683
0.426077 0.000000 0.106519
0.546913 0.000000 0.109383
0.670728 0.000000 0.111788
0.797069 0.000000 0.113867
0.925610 0.000000 0.115701
0.000000 0.014496 0.014496
0.019800 0.019800 0.019800
0.103859 0.051929 0.051929
0.295935 0.098645 0.098645
0.428484 0.107121 0.107121
0.548771 0.109754 0.109754
0.672220 0.112037 0.112037
0.798303 0.114043 0.114043
0.926656 0.115832 0.115832
0.000000 0.199579 0.099790
0.102049 0.204098 0.102049
0.211049 0.211049 0.105525
0.321616 0.214411 0.107205
0.436609 0.218305 0.109152
0.555599 0.222239 0.111120
0.677975 0.225992 0.112996
0.803209 0.229488 0.114744
0.930890 0.232723 0.116361
0.000000 0.327939 0.109313
0.109427 0.328282 0.109427
0.219785 0.329677 0.109892
0.332207 0.332207 0.110736
0.447490 0.335617 0.111872
0.565919 0.339551 0.113184
0.687409 0.343704 0.114568
0.811703 0.347873 0.115958
0.938507 0.351940 0.117313
0.000000 0.452529 0.113132
0.113192 0.452768 0.113192
0.226883 0.453766 0.113441
0.341754 0.455672 0.113918
0.458437 0.458437 0.114609
0.577361 0.461889 0.115472
0.698722 0.465815 0.116454
0.822528 0.470016 0.117504
0.948672 0.474336 0.118584
0.000000 0.580969 0.116194
0.116230 0.581150 0.116230
0.232764 0.581910 0.116382
0.350039 0.583399 0.116680
0.468511 0.585638 0.117128
0.588564 0.588564 0.117713
0.710467 0.592056 0.118411
0.834361 0.595972 0.119194
0.960280 0.600175 0.120035
0.000000 0.712557 0.118760
0.118783 0.712700 0.118783
0.237769 0.713307 0.118884
0.357255 0.714509 0.119085
0.477570 0.716355 0.119393
0.599026 0.718832 0.119805
0.721879 0.721879 0.120313
0.846310 0.725409 0.120901
0.972427 0.729320 0.121553
0.000000 0.846820 0.120974
0.120991 0.846937 0.120991
0.242125 0.847437 0.121062
0.363615 0.848436 0.121205
0.485707 0.849987 0.121427
0.608857 0.852399 0.121771
0.738929 0.862084 0.123155
0.868752 0.868752 0.124107
0.994305 0.870016 0.124288
0.000000 0.994670 0.124334
0.124333 0.994661 0.124333
0.248643 0.994572 0.124321
0.372805 0.994145 0.124268
0.496407 0.992813 0.124102
0.618530 0.989648 0.123706
0.737544 0.983392 0.122924
0.850988 0.972558 0.121570
0.955562 0.955562 0.119445
0.000000 0.000000 0.020092
0.012120 0.000000 0.024240
0.074223 0.000000 0.074223
0.276388 0.000000 0.184258
0.427148 0.000000 0.213574
0.547730 0.000000 0.219092
0.671380 0.000000 0.223793
0.797607 0.000000 0.227888
0.926065 0.000000 0.231516
0.000000 0.022777 0.045555
0.030048 0.030048 0.060095
0.125058 0.062529 0.125058
0.306310 0.102103 0.204207
0.429450 0.107362 0.214725
0.549538 0.109908 0.219815
0.672845 0.112141 0.224282
0.798825 0.114118 0.228236
0.927100 0.115888 0.231775
0.000000 0.205746 0.205746
0.104255 0.208510 0.208510
0.211686 0.211686 0.211686
0.322330 0.214887 0.214887
0.437289 0.218645 0.218645
0.556207 0.222483 0.222483
0.678507 0.226169 0.226169
0.803674 0.229621 0.229621
0.931298 0.232825 0.232825
0.000000 0.328435 0.218957
0.109589 0.328768 0.219179
0.220084 0.330127 0.220084
0.332596 0.332596 0.221731
0.447918 0.335939 0.223959
0.566349 0.339809 0.226540
0.687819 0.343910 0.229273
0.812084 0.348036 0.232024
0.938856 0.352071 0.234714
0.000000 0.452876 0.226438
0.113278 0.453112 0.226556
0.227048 0.454096 0.227048
0.341983 0.455977 0.227988
0.458709 0.458709 0.229354
0.577656 0.462125 0.231062
0.699023 0.466016 0.233008
0.822824 0.470185 0.235093
0.948957 0.474479 0.237239
0.000000 0.581231 0.232492
0.116282 0.581410 0.232564
0.232866 0.582164 0.232866
0.350184 0.583641 0.233456
0.468691 0.585864 0.234345
0.588769 0.588769 0.235508
0.710687 0.592239 0.236896
0.834587 0.596133 0.238453
0.960506 0.600316 0.240127
0.000000 0.712765 0.237588
0.118818 0.712907 0.237636
0.237837 0.713511 0.237837
0.357353 0.714707 0.238236
0.477696 0.716543 0.238848
0.599173 0.719008 0.239669
0.722041 0.722041 0.240680
0.846483 0.725557 0.241852
0.972605 0.729454 0.243151
0.000000 0.846991 0.241997
0.121015 0.847108 0.242031
0.242173 0.847606 0.242173
0.363686 0.848600 0.242457
0.485798 0.850146 0.242899
0.609324 0.853053 0.243730
0.739286 0.862501 0.246429
0.868920 0.868920 0.248263
0.994218 0.869940 0.248554
0.000000 0.994655 0.248664
0.124330 0.994640 0.248660
0.248631 0.994523 0.248631
0.372766 0.994043 0.248511
0.496315 0.992630 0.248157
0.618350 0.989360 0.247340
0.737236 0.982981 0.245745
0.850512 0.972013 0.243003
0.954881 0.954881 0.238720
0.000000 0.000000 0.060145
0.026956 0.000000 0.080869
0.119199 0.000000 0.178798
0.303750 0.000000 0.303750
0.429179 0.000000 0.321884
0.549322 0.000000 0.329593
0.672668 0.000000 0.336334
0.798678 0.000000 0.342290
0.926974 0.000000 0.347615
0.000000 0.045216 0.135648
0.052876 0.052876 0.158627
0.161880 0.080940 0.242820
0.315669 0.105223 0.315669
0.431292 0.107823 0.323469
0.551035 0.110207 0.330621
0.674082 0.112347 0.337041
0.799866 0.114267 0.342800
0.927991 0.115999 0.347997
0.000000 0.210647 0.315971
0.105553 0.211106 0.316658
0.212878 0.212878 0.319318
0.323693 0.215795 0.323693
0.438612 0.219306 0.328959
0.557404 0.222962 0.334443
0.679565 0.226522 0.339782
0.804602 0.229886 0.344830
0.932116 0.233029 0.349544
0.000000 0.329401 0.329401
0.109905 0.329716 0.329716
0.220670 0.331005 0.331005
0.333361 0.333361 0.333361
0.448765 0.336574 0.336574
0.567204 0.340322 0.340322
0.688638 0.344319 0.344319
0.812848 0.348363 0.348363
0.939559 0.352335 0.352335
0.000000 0.453565 0.340174
0.113449 0.453795 0.340346
0.227376 0.454751 0.341063
0.342438 0.456584 0.342438
0.459251 0.459251 0.344438
0.578246 0.462596 0.346947
0.699628 0.466418 0.349814
0.823421 0.470526 0.352895
0.949531 0.474766 0.356074
0.000000 0.581756 0.349054
0.116386 0.581932 0.349159
0.233069 0.582674 0.349604
0.350476 0.584127 0.350476
0.469053 0.586316 0.351789
0.589181 0.589181 0.353509
0.711129 0.592608 0.355565
0.835043 0.596459 0.357876
0.960963 0.600602 0.360361
0.000000 0.713184 0.356592
0.118887 0.713325 0.356662
0.237974 0.713921 0.356961
0.357552 0.715104 0.357552
0.477948 0.716922 0.358461
0.599469 0.719363 0.359681
0.722369 0.722369 0.361185
0.846832 0.725856 0.362928
0.972966 0.729724 0.364862
0.000000 0.847336 0.363144
0.121065 0.847452 0.363194
0.242270 0.847946 0.363405
0.363829 0.848933 0.363829
0.485982 0.850468 0.364486
0.610241 0.854338 0.366145
0.739980 0.863310 0.369990
0.869231 0.869231 0.372527
0.994014 0.869762 0.372755
0.000000 0.994597 0.372974
0.124321 0.994568 0.372963
0.248599 0.994396 0.372899
0.372678 0.993808 0.372678
0.496116 0.992232 0.372087
0.617970 0.988751 0.370782
0.736595 0.982126 0.368297
0.849529 0.970890 0.364084
0.953485 0.953485 0.357557
0.000000 0.000000 0.222050
0.062711 0.000000 0.250845
0.175471 0.000000 0.350941
0.316610 0.000000 0.422147
0.432089 0.000000 0.432089
0.551697 0.000000 0.441358
0.674635 0.000000 0.449757
0.800335 0.000000 0.457334
0.928394 0.000000 0.464197
0.000000 0.077809 0.311237
0.083266 0.083266 0.333063
0.199617 0.099809 0.399235
0.318741 0.106247 0.424988
0.433958 0.108489 0.433958
0.553280 0.110656 0.442624
0.675974 0.112662 0.450649
0.801478 0.114497 0.457987
0.929382 0.116173 0.464691
0.000000 0.212661 0.425323
0.106523 0.213045 0.426091
0.214555 0.214555 0.429109
0.325668 0.217112 0.434223
0.440580 0.220290 0.440580
0.559223 0.223689 0.447378
0.681193 0.227064 0.454129
0.806046 0.230299 0.460598
0.933396 0.233349 0.466698
0.000000 0.330841 0.441122
0.110377 0.331132 0.441509
0.221549 0.332323 0.443098
0.334519 0.334519 0.446025
0.450059 0.337544 0.450059
0.568521 0.341113 0.454817
0.689910 0.344955 0.459940
0.814041 0.348875 0.465166
0.940661 0.352748 0.470331
0.000000 0.454628 0.454628
0.113712 0.454847 0.454847
0.227882 0.455763 0.455763
0.343142 0.457523 0.457523
0.460094 0.460094 0.460094
0.579165 0.463332 0.463332
0.700574 0.467049 0.467049
0.824357 0.471061 0.471061
0.950435 0.475218 0.475218
0.000000 0.582577 0.466062
0.116550 0.582749 0.466199
0.233388 0.583471 0.466777
0.350933 0.584888 0.467910
0.469620 0.587025 0.469620
0.589828 0.589828 0.471863
0.711826 0.593188 0.474550
0.835762 0.596973 0.477578
0.961684 0.601053 0.480842
0.000000 0.713843 0.475896
0.118997 0.713982 0.475988
0.238189 0.714568 0.476379
0.357866 0.715732 0.477154
0.478347 0.717520 0.478347
0.599936 0.719923 0.479949
0.722887 0.722887 0.481925
0.847384 0.726329 0.484219
0.973536 0.730152 0.486768
0.000000 0.847882 0.484504
0.121142 0.847997 0.484569
0.242424 0.848485 0.484848
0.364054 0.849460 0.485406
0.486273 0.850977 0.486273
0.611623 0.856272 0.489298
0.741002 0.864503 0.494001
0.869645 0.869645 0.496940
0.993613 0.869411 0.496807
0.000000 0.994423 0.497212
0.124297 0.994374 0.497187
0.248529 0.994116 0.497058
0.372509 0.993358 0.496679
0.495764 0.991528 0.495764
0.617324 0.987718 0.493859
0.735529 0.980706 0.490353
0.847919 0.969050 0.484525
0.951216 0.951216 0.475608
0.000000 0.000000 0.468451
0.097131 0.000000 0.485657
0.209972 0.000000 0.524930
0.320618 0.000000 0.534363
0.435672 0.000000 0.544590
0.554770 0.000000 0.554770
0.677254 0.000000 0.564378
0.802582 0.000000 0.573273
0.930342 0.000000 0.581464
0.000000 0.102836 0.514180
0.104231 0.104231 0.521157
0.211677 0.105839 0.529193
0.322319 0.107440 0.537199
0.437279 0.109320 0.546599
0.556198 0.111240 0.556198
0.678499 0.113083 0.565416
0.803667 0.114810 0.574048
0.931292 0.116411 0.582057
0.000000 0.215015 0.537538
0.107664 0.215328 0.538319
0.216576 0.216576 0.541439
0.328132 0.218755 0.546886
0.443117 0.221558 0.553896
0.561627 0.224651 0.561627
0.683386 0.227795 0.569488
0.808016 0.230862 0.577155
0.935159 0.233790 0.584474
0.000000 0.332703 0.554504
0.110988 0.332964 0.554940
0.222694 0.334041 0.556734
0.336043 0.336043 0.560072
0.451784 0.338838 0.564730
0.570299 0.342179 0.570299
0.691645 0.345822 0.576370
0.815681 0.349578 0.582630
0.942187 0.353320 0.588867
0.000000 0.456061 0.570076
0.114067 0.456267 0.570334
0.228566 0.457132 0.571415
0.344098 0.458798 0.573497
0.461243 0.461243 0.576553
0.580426 0.464341 0.580426
0.701878 0.467918 0.584898
0.825653 0.471802 0.589752
0.951692 0.475846 0.594808
0.000000 0.583708 0.583708
0.116775 0.583873 0.583873
0.233828 0.584569 0.584569
0.351562 0.585937 0.585937
0.470405 0.588006 0.588006
0.590725 0.590725 0.590725
0.712794 0.593995 0.593995
0.836764 0.597689 0.597689
0.962692 0.601683 0.601683
0.000000 0.714761 0.595634
0.119149 0.714896 0.595747
0.238490 0.715469 0.596224
0.358303 0.716605 0.597171
0.478902 0.718353 0.598628
0.600588 0.720706 0.600588
0.723612 0.723612 0.603010
0.848157 0.726992 0.605826
0.976310 0.732232 0.610194
0.000000 0.848646 0.606176
0.121251 0.848759 0.606256
0.242640 0.849239 0.606599
0.364371 0.850198 0.607285
0.486680 0.851691 0.608351
0.613410 0.858774 0.613410
0.742277 0.865989 0.618564
0.870065 0.870065 0.621475
0.992890 0.868779 0.620556
0.000000 0.994013 0.621258
0.124242 0.993936 0.621210
0.248390 0.993558 0.620974
0.372213 0.992568 0.620355
0.495194 0.990388 0.618992
0.616327 0.986123 0.616327
0.733933 0.978577 0.611611
0.845549 0.966342 0.603963
0.947916 0.947916 0.592447
0.000000 0.000000 0.635324
0.106095 0.000000 0.636570
0.213810 0.000000 0.641431
0.324782 0.000000 0.649565
0.439690 0.000000 0.659535
0.558395 0.000000 0.670075
0.680449 0.000000 0.680449
0.805384 0.000000 0.690330
0.932808 0.000000 0.699606
0.000000 0.106557 0.639342
0.106742 0.106742 0.640449
0.214938 0.107469 0.644815
0.326129 0.108710 0.652257
0.441048 0.110262 0.661572
0.559661 0.111932 0.671593
0.681590 0.113598 0.681590
0.806400 0.115200 0.691200
0.933712 0.116714 0.700284
0.000000 0.217528 0.652583
0.108890 0.217779 0.653337
0.218796 0.218796 0.656389
0.330933 0.220622 0.661865
0.446100 0.223050 0.669150
0.564536 0.225814 0.677443
0.686098 0.228699 0.686098
0.810492 0.231569 0.694707
0.937400 0.234350 0.703050
0.000000 0.334897 0.669794
0.111709 0.335128 0.670256
0.224055 0.336083 0.672166
0.337878 0.337878 0.675756
0.453890 0.340417 0.680835
0.572500 0.343500 0.687001
0.693820 0.346910 0.693820
0.817760 0.350469 0.700937
0.944136 0.354051 0.708102
0.000000 0.457835 0.686752
0.114507 0.458027 0.687040
0.229416 0.458831 0.688247
0.345291 0.460387 0.690581
0.462685 0.462685 0.694027
0.582019 0.465615 0.698423
0.703536 0.469024 0.703536
0.827312 0.472750 0.709125
0.953309 0.476654 0.714982
0.000000 0.585143 0.702171
0.117060 0.585300 0.702360
0.234386 0.585966 0.703159
0.352365 0.587274 0.704729
0.471407 0.589258 0.707110
0.591875 0.591875 0.710249
0.714038 0.595031 0.714038
0.838057 0.598612 0.718335
0.963996 0.602498 0.722997
0.000000 0.715943 0.715943
0.119346 0.716074 0.716074
0.238876 0.716629 0.716629
0.358866 0.717731 0.717731
0.479620 0.719429 0.719429
0.601432 0.721718 0.721718
0.724550 0.724550 0.724550
0.849160 0.727852 0.727852
0.980341 0.735256 0.735256
0.000000 0.849638 0.728262
0.121393 0.849749 0.728356
0.242920 0.850219 0.728759
0.364782 0.851157 0.729563
0.488328 0.854574 0.732492
0.615473 0.861662 0.738568
0.743656 0.867598 0.743656
0.870325 0.870325 0.745993
0.991665 0.867707 0.743749
0.000000 0.993185 0.744888
0.124134 0.993071 0.744804
0.248136 0.992544 0.744408
0.371721 0.991257 0.743443
0.494317 0.988633 0.741475
0.614869 0.983791 0.737843
0.731675 0.975567 0.731675
0.842269 0.962593 0.721945
0.943411 0.943411 0.707559
0.000000 0.000000 0.755050
0.108011 0.000000 0.756079
0.217200 0.000000 0.760201
0.328910 0.000000 0.767457
0.443936 0.000000 0.776887
0.562417 0.000000 0.787383
0.684116 0.000000 0.798136
0.808679 0.000000 0.808679
0.935756 0.000000 0.818786
0.000000 0.108344 0.758409
0.108479 0.108479 0.759355
0.218048 0.109024 0.763168
0.329979 0.109993 0.769950
0.445073 0.111268 0.778877
0.563524 0.112705 0.788934
0.685148 0.114191 0.799339
0.809620 0.115660 0.809620
0.936607 0.117076 0.819531
0.000000 0.220073 0.770254
0.110137 0.220275 0.770961
0.221101 0.221101 0.773854
0.333928 0.222619 0.779165
0.449396 0.224698 0.786444
0.567845 0.227138 0.794983
0.689256 0.229752 0.804132
0.813426 0.232408 0.813426
0.940092 0.235023 0.822581
0.000000 0.337327 0.787097
0.112510 0.337529 0.787568
0.225577 0.338366 0.789521
0.339954 0.339954 0.793226
0.456310 0.342232 0.798542
0.575070 0.345042 0.805098
0.696395 0.348198 0.812461
0.820251 0.351536 0.820251
0.946495 0.354936 0.828183
0.000000 0.459904 0.804832
0.115020 0.460080 0.805141
0.230410 0.460820 0.806436
0.346693 0.462257 0.808951
0.464392 0.464392 0.812686
0.583920 0.467136 0.817488
0.705530 0.470353 0.823118
0.829322 0.473898 0.829322
0.955280 0.477640 0.835870
0.000000 0.586865 0.821611
0.117403 0.587014 0.821819
0.235057 0.587644 0.822701
0.353331 0.588885 0.824439
0.472617 0.590771 0.827079
0.593268 0.593268 0.830575
0.715553 0.596294 0.834811
0.839637 0.599741 0.839637
0.965597 0.603498 0.844897
0.000000 0.717384 0.836949
0.119585 0.717510 0.837096
0.239348 0.718045 0.837719
0.359554 0.719107 0.838958
0.480497 0.720746 0.840870
0.602466 0.722959 0.843452
0.725704 0.725704 0.846654
0.850396 0.728911 0.850396
0.984630 0.738473 0.861551
0.000000 0.850861 0.850861
0.121567 0.850969 0.850969
0.243265 0.851426 0.851426
0.365751 0.853418 0.853418
0.490797 0.858895 0.858895
0.617613 0.864659 0.864659
0.744923 0.869077 0.869077
0.870199 0.870199 0.870199
0.989703 0.865990 0.865990
0.000000 0.991696 0.867734
0.123943 0.991540 0.867598
0.247708 0.990832 0.866978
0.370947 0.989193 0.865544
0.493018 0.986037 0.862782
0.612814 0.980503 0.857940
0.728599 0.971465 0.850032
0.837902 0.957602 0.837902
0.937511 0.937511 0.820322
0.000000 0.000000 0.876853
0.109715 0.000000 0.877723
0.220317 0.000000 0.881270
0.332900 0.000000 0.887733
0.448254 0.000000 0.896507
0.566687 0.000000 0.906699
0.688142 0.000000 0.917523
0.812385 0.000000 0.928440
0.939133 0.000000 0.939133
0.000000 0.109965 0.879716
0.110067 0.110067 0.880534
0.220970 0.110485 0.883880
0.333755 0.111252 0.890013
0.449203 0.112301 0.898407
0.567649 0.113530 0.908238
0.689066 0.114844 0.918755
0.813249 0.116178 0.929427
0.939928 0.117491 0.939928
0.000000 0.222573 0.890294
0.111368 0.222737 0.890947
0.223411 0.223411 0.893642
0.337006 0.224671 0.898683
0.452885 0.226443 0.905770
0.571446 0.228578 0.914313
0.692774 0.230925 0.923699
0.816758 0.233359 0.933438
0.943194 0.235799 0.943194
0.000000 0.339906 0.906416
0.113360 0.340080 0.906881
0.227206 0.340808 0.908822
0.342202 0.342202 0.912538
0.458969 0.344227 0.917939
0.577939 0.346764 0.924703
0.699313 0.349657 0.932418
0.823110 0.352762 0.940698
0.949232 0.355962 0.949232
0.000000 0.462213 0.924426
0.115593 0.462374 0.924747
0.231524 0.463048 0.926096
0.348272 0.464363 0.928725
0.466328 0.466328 0.932656
0.586093 0.468874 0.937748
0.707828 0.471886 0.943771
0.831657 0.475232 0.950465
0.957587 0.478793 0.957587
0.000000 0.588846 0.942154
0.117797 0.588986 0.942378
0.235831 0.589577 0.943324
0.354447 0.590745 0.945191
0.474020 0.592524 0.948039
0.594890 0.594890 0.951824
0.717324 0.597770 0.956432
0.841495 0.601068 0.961708
0.967486 0.604679 0.967486
0.000000 0.719074 0.958765
0.119866 0.719194 0.958926
0.239902 0.719706 0.959608
0.360362 0.720723 0.960964
0.481530 0.722295 0.963060
0.603685 0.724422 0.965896
0.727067 0.727067 0.969423
0.851861 0.730166 0.973555
0.988739 0.741554 0.988739
0.000000 0.853297 0.975197
0.121962 0.853735 0.975697
0.244438 0.855535 0.977754
0.368068 0.858825 0.981515
0.493218 0.863131 0.986435
0.619571 0.867400 0.991314
0.745800 0.870100 0.994400
0.869398 0.869398 0.993598
0.986714 0.863375 0.986714
0.000000 0.989249 0.989249
0.123630 0.989044 0.989044
0.247032 0.988130 0.988130
0.369782 0.986086 0.986086
0.491161 0.982322 0.982322
0.609997 0.975996 0.975996
0.724518 0.966024 0.966024
0.832248 0.951140 0.951140
0.930000 0.930000 0.930000
