correction_luts/film_contrast_80.cube
# More aggressive contrast with deeper shadows and rolled highlights
# Strength: 0.8
# Color model: linear-light tone (v2)
TITLE "Film Contrast - Stronger Filmic Look"
LUT_3D_SIZE 5
0.000000 0.000000 0.000000
0.047235 0.000000 0.000000
0.425819 0.000000 0.000000
0.670574 0.000000 0.000000
0.925504 0.000000 0.000000
0.000000 0.197767 0.000000
0.210895 0.210895 0.000000
0.436447 0.218224 0.000000
0.677849 0.225950 0.000000
0.930794 0.232699 0.000000
0.000000 0.452447 0.000000
0.226844 0.453688 0.000000
0.458373 0.458373 0.000000
0.698651 0.465767 0.000000
0.948605 0.474303 0.000000
0.000000 0.712508 0.000000
0.237753 0.713259 0.000000
0.477541 0.716311 0.000000
0.721841 0.721841 0.000000
0.972385 0.729289 0.000000
0.000000 0.994672 0.000000
0.248645 0.994582 0.000000
0.496428 0.992855 0.000000
0.737616 0.983488 0.000000
0.955720 0.955720 0.000000
0.000000 0.000000 0.020092
0.074223 0.000000 0.074223
0.427148 0.000000 0.213574
0.671380 0.000000 0.223793
0.926065 0.000000 0.231516
0.000000 0.205746 0.205746
0.211686 0.211686 0.211686
0.437289 0.218645 0.218645
0.678507 0.226169 0.226169
0.931298 0.232825 0.232825
0.000000 0.452876 0.226438
0.227048 0.454096 0.227048
0.458709 0.458709 0.229354
0.699023 0.466016 0.233008
0.948957 0.474479 0.237239
0.000000 0.712765 0.237588
0.237837 0.713511 0.237837
0.477696 0.716543 0.238848
0.722041 0.722041 0.240680
0.972605 0.729454 0.243151
0.000000 0.994655 0.248664
0.248631 0.994523 0.248631
0.496315 0.992630 0.248157
0.737236 0.982981 0.245745
0.954881 0.954881 0.238720
0.000000 0.000000 0.222050
0.175471 0.000000 0.350941
0.432089 0.000000 0.432089
0.674635 0.000000 0.449757
0.928394 0.000000 0.464197
0.000000 0.212661 0.425323
0.214555 0.214555 0.429109
0.440580 0.220290 0.440580
0.681193 0.227064 0.454129
0.933396 0.233349 0.466698
0.000000 0.454628 0.454628
0.227882 0.455763 0.455763
0.460094 0.460094 0.460094
0.700574 0.467049 0.467049
0.950435 0.475218 0.475218
0.000000 0.713843 0.475896
0.238189 0.714568 0.476379
0.478347 0.717520 0.478347
0.722887 0.722887 0.481925
0.973536 0.730152 0.486768
0.000000 0.994423 0.497212
0.248529 0.994116 0.497058
0.495764 0.991528 0.495764
0.735529 0.980706 0.490353
0.951216 0.951216 0.475608
0.000000 0.000000 0.635324
0.213810 0.000000 0.641431
0.439690 0.000000 0.659535
0.680449 0.000000 0.680449
0.932808 0.000000 0.699606
0.000000 0.217528 0.652583
0.218796 0.218796 0.656389
0.446100 0.223050 0.669150
0.686098 0.228699 0.686098
0.937400 0.234350 0.703050
0.000000 0.457835 0.686752
0.229416 0.458831 0.688247
0.462685 0.462685 0.694027
0.703536 0.469024 0.703536
0.953309 0.476654 0.714982
0.000000 0.715943 0.715943
0.238876 0.716629 0.716629
0.479620 0.719429 0.719429
0.724550 0.724550 0.724550
0.980341 0.735256 0.735256
0.000000 0.993185 0.744888
0.248136 0.992544 0.744408
0.494317 0.988633 0.741475
0.731675 0.975567 0.731675
0.943411 0.943411 0.707559
0.000000 0.000000 0.876853
0.220317 0.000000 0.881270
0.448254 0.000000 0.896507
0.688142 0.000000 0.917523
0.939133 0.000000 0.939133
0.000000 0.222573 0.890294
0.223411 0.223411 0.893642
0.452885 0.226443 0.905770
0.692774 0.230925 0.923699
0.943194 0.235799 0.943194
0.000000 0.462213 0.924426
0.231524 0.463048 0.926096
0.466328 0.466328 0.932656
0.707828 0.471886 0.943771
0.957587 0.478793 0.957587
0.000000 0.719074 0.958765
0.239902 0.719706 0.959608
0.481530 0.722295 0.963060
0.727067 0.727067 0.969423
0.988739 0.741554 0.988739
0.000000 0.989249 0.989249
0.247032 0.988130 0.988130
0.491161 0.982322 0.982322
0.724518 0.966024 0.966024
0.930000 0.930000 0.930000
