correction_luts/flat_lift.cube
# Lifts shadows for a softer, more open look
# Strength: 1.0
# Color model: linear-light tone (v2)
TITLE "Flat Lift - Softer Shadows"
LUT_3D_SIZE 9
0.027349 0.027349 0.027349
0.195778 0.000000 0.000000
0.329788 0.000000 0.000000
0.459081 0.000000 0.000000
0.585238 0.000000 0.000000
0.709053 0.000000 0.000000
0.831006 0.000000 0.000000
0.951417 0.000000 0.000000
1.000000 0.282097 0.282097
0.000000 0.171664 0.000000
0.167637 0.167637 0.000000
0.316940 0.158470 0.000000
0.452400 0.150800 0.000000
0.581222 0.145305 0.000000
0.706371 0.141274 0.000000
0.829078 0.138180 0.000000
0.949955 0.135708 0.000000
1.000000 0.298636 0.283459
0.000000 0.301115 0.000000
0.150015 0.300030 0.000000
0.296092 0.296092 0.000000
0.435502 0.290335 0.000000
0.568592 0.284296 0.000000
0.696917 0.278767 0.000000
0.821831 0.273944 0.000000
0.944245 0.269784 0.000000
1.000000 0.357863 0.288990
0.000000 0.425737 0.000000
0.141746 0.425237 0.000000
0.282154 0.423231 0.000000
0.419709 0.419709 0.000000
0.553566 0.415175 0.000000
0.683704 0.410222 0.000000
0.810569 0.405284 0.000000
0.934724 0.400596 0.000000
1.000000 0.447152 0.298999
0.000000 0.547216 0.000000
0.136731 0.546923 0.000000
0.272854 0.545709 0.000000
0.407568 0.543424 0.000000
0.540189 0.540189 0.000000
0.670342 0.536274 0.000000
0.797964 0.531976 0.000000
0.923206 0.527546 0.000000
1.000000 0.550951 0.312447
0.000000 0.666373 0.000000
0.133235 0.666177 0.000000
0.266142 0.665355 0.000000
0.398256 0.663760 0.000000
0.529114 0.661392 0.000000
0.658356 0.658356 0.000000
0.785777 0.654814 0.000000
0.911318 0.650941 0.000000
1.000000 0.660987 0.327882
0.000000 0.783695 0.000000
0.130592 0.783553 0.000000
0.260985 0.782954 0.000000
0.390886 0.781772 0.000000
0.519982 0.779973 0.000000
0.647990 0.777588 0.000000
0.774697 0.774697 0.000000
0.899973 0.771405 0.000000
1.000000 0.773494 0.344060
0.000000 0.899503 0.000000
0.128485 0.899394 0.000000
0.256838 0.898934 0.000000
0.384865 0.898018 0.000000
0.512345 0.896604 0.000000
0.639064 0.894690 0.000000
0.764839 0.892312 0.000000
0.889531 0.889531 0.000000
1.000000 0.886763 0.360143
0.358657 1.000000 0.358657
0.369451 1.000000 0.358789
0.411297 1.000000 0.359349
0.481621 1.000000 0.360472
0.570764 1.000000 0.362228
0.670942 1.000000 0.364647
0.777459 1.000000 0.367719
0.887656 1.000000 0.371407
1.000000 1.000000 0.375650
0.000000 0.000000 0.228010
0.189018 0.000000 0.189018
0.328057 0.000000 0.164029
0.458319 0.000000 0.152773
0.584806 0.000000 0.146201
0.708772 0.000000 0.141754
0.830807 0.000000 0.138468
0.951267 0.000000 0.135895
1.000000 0.282236 0.297508
0.000000 0.170137 0.170137
0.166537 0.166537 0.166537
0.316011 0.158006 0.158006
0.451817 0.150606 0.150606
0.580846 0.145211 0.145211
0.706112 0.141222 0.141222
0.828889 0.138148 0.138148
0.949810 0.135687 0.135687
1.000000 0.298761 0.298761
0.000000 0.300739 0.150369
0.149839 0.299678 0.149839
0.295819 0.295819 0.147909
0.435226 0.290151 0.145075
0.568356 0.284178 0.142089
0.696725 0.278690 0.139345
0.821676 0.273892 0.136946
0.944120 0.269749 0.134874
1.000000 0.357952 0.303868
0.000000 0.425566 0.141855
0.141690 0.425070 0.141690
0.282054 0.423081 0.141027
0.419584 0.419584 0.139861
0.553436 0.415077 0.138359
0.683580 0.410148 0.136716
0.810458 0.405229 0.135076
0.934626 0.400554 0.133518
1.000000 0.447207 0.313149
0.000000 0.547116 0.136779
0.136706 0.546824 0.136706
0.272808 0.545615 0.136404
0.407504 0.543339 0.135835
0.540116 0.540116 0.135029
0.670265 0.536212 0.134053
0.797888 0.531925 0.132981
0.923134 0.527505 0.131876
1.000000 0.550984 0.325698
0.000000 0.666306 0.133261
0.133222 0.666111 0.133222
0.266116 0.665291 0.133058
0.398220 0.663699 0.132740
0.529069 0.661337 0.132267
0.658307 0.658307 0.131661
0.785726 0.654771 0.130954
0.911266 0.650904 0.130181
1.000000 0.661005 0.340199
0.000000 0.783646 0.130608
0.130584 0.783505 0.130584
0.260969 0.782907 0.130484
0.390863 0.781727 0.130288
0.519953 0.779930 0.129988
0.647957 0.777548 0.129591
0.774661 0.774661 0.129110
0.899935 0.771373 0.128562
1.000000 0.773503 0.355494
0.000000 0.899466 0.128495
0.128480 0.899357 0.128480
0.256828 0.898898 0.128414
0.384850 0.897983 0.128283
0.512326 0.896570 0.128081
0.639041 0.894658 0.127808
0.764813 0.892282 0.127469
0.889503 0.889503 0.127072
1.000000 0.886766 0.370784
0.358702 1.000000 0.369368
0.369493 1.000000 0.369493
0.411332 1.000000 0.370027
0.481647 1.000000 0.371097
0.570782 1.000000 0.372772
0.670954 1.000000 0.375079
0.777466 1.000000 0.378012
0.887659 1.000000 0.381537
1.000000 1.000000 0.385595
0.000000 0.000000 0.365874
0.174759 0.000000 0.349518
0.321946 0.000000 0.321946
0.455297 0.000000 0.303531
0.583028 0.000000 0.291514
0.707597 0.000000 0.283039
0.829966 0.000000 0.276655
0.950631 0.000000 0.271609
1.000000 0.282826 0.353485
0.000000 0.165221 0.330443
0.162787 0.162787 0.325573
0.312493 0.156246 0.312493
0.449475 0.149825 0.299650
0.579293 0.144823 0.289647
0.705028 0.141006 0.282011
0.828091 0.138015 0.276030
0.949197 0.135600 0.271199
1.000000 0.299295 0.354436
0.000000 0.299221 0.299221
0.149128 0.298256 0.298256
0.294704 0.294704 0.294704
0.434083 0.289389 0.289389
0.567366 0.283683 0.283683
0.695917 0.278367 0.278367
0.821024 0.273675 0.273675
0.943589 0.269597 0.269597
1.000000 0.358333 0.358333
0.000000 0.424849 0.283233
0.141457 0.424371 0.282914
0.281633 0.422449 0.281633
0.419058 0.419058 0.279372
0.552885 0.414664 0.276442
0.683057 0.409834 0.273223
0.809986 0.404993 0.269995
0.934211 0.400376 0.266917
1.000000 0.447445 0.365502
0.000000 0.546693 0.273346
0.136602 0.546406 0.273203
0.272609 0.545219 0.272609
0.407235 0.542980 0.271490
0.539804 0.539804 0.269902
0.669938 0.535950 0.267975
0.797565 0.531710 0.265855
0.922828 0.527330 0.263665
1.000000 0.551122 0.375361
0.000000 0.666023 0.266409
0.133166 0.665830 0.266332
0.266007 0.665018 0.266007
0.398065 0.663442 0.265377
0.528881 0.661102 0.264441
0.658097 0.658097 0.263239
0.785506 0.654588 0.261835
0.911046 0.650747 0.260299
1.000000 0.661081 0.386968
0.000000 0.783441 0.261147
0.130550 0.783300 0.261100
0.260902 0.782706 0.260902
0.390767 0.781534 0.260511
0.519832 0.779748 0.259916
0.647817 0.777380 0.259127
0.774508 0.774508 0.258169
0.899776 0.771237 0.257079
1.000000 0.773541 0.399439
0.000000 0.899308 0.256945
0.128457 0.899201 0.256914
0.256784 0.898743 0.256784
0.384785 0.897832 0.256524
0.512243 0.896425 0.256121
0.638944 0.894521 0.255577
0.764704 0.892155 0.254901
0.889386 0.889386 0.254110
1.000000 0.886781 0.412115
0.358893 1.000000 0.410933
0.369675 1.000000 0.411038
0.411483 1.000000 0.411483
0.481759 1.000000 0.412377
0.570860 1.000000 0.413778
0.671004 1.000000 0.415711
0.777495 1.000000 0.418175
0.887672 1.000000 0.421144
1.000000 1.000000 0.424575
0.000000 0.000000 0.499247
0.163726 0.000000 0.491178
0.313427 0.000000 0.470141
0.450118 0.000000 0.450118
0.579726 0.000000 0.434795
0.705333 0.000000 0.423200
0.828316 0.000000 0.414158
0.949370 0.000000 0.406873
1.000000 0.284009 0.439610
0.000000 0.159251 0.477753
0.157840 0.157840 0.473519
0.306962 0.153481 0.460443
0.445337 0.148446 0.445337
0.576384 0.144096 0.432288
0.702933 0.140587 0.421760
0.826523 0.137754 0.413261
0.947980 0.135426 0.406277
1.000000 0.300367 0.440261
0.000000 0.296532 0.444798
0.147860 0.295719 0.443579
0.292671 0.292671 0.439006
0.431940 0.287960 0.431940
0.565466 0.282733 0.424100
0.694339 0.277736 0.416603
0.819735 0.273245 0.409867
0.942532 0.269295 0.403942
1.000000 0.359100 0.442941
0.000000 0.423471 0.423471
0.141008 0.423025 0.423025
0.280819 0.421228 0.421228
0.418032 0.418032 0.418032
0.551804 0.413853 0.413853
0.682023 0.409214 0.409214
0.809047 0.404524 0.404524
0.933380 0.400020 0.400020
1.000000 0.447923 0.447923
0.000000 0.545857 0.409393
0.136395 0.545581 0.409185
0.272217 0.544434 0.408325
0.406700 0.542267 0.406700
0.539183 0.539183 0.404388
0.669285 0.535428 0.401571
0.796919 0.531280 0.398460
0.922214 0.526980 0.395235
1.000000 0.551402 0.454880
0.000000 0.665457 0.399274
0.133053 0.665267 0.399160
0.265789 0.664473 0.398684
0.397756 0.662927 0.397756
0.528504 0.660630 0.396378
0.657676 0.657676 0.394606
0.785064 0.654220 0.392532
0.910602 0.650430 0.390258
1.000000 0.661236 0.463220
0.000000 0.783028 0.391514
0.130482 0.782889 0.391445
0.260768 0.782303 0.391151
0.390573 0.781145 0.390573
0.519588 0.779382 0.389691
0.647535 0.777042 0.388521
0.774200 0.774200 0.387100
0.899455 0.770961 0.385481
1.000000 0.773618 0.472347
0.000000 0.898991 0.385282
0.128412 0.898884 0.385236
0.256695 0.898431 0.385042
0.384655 0.897529 0.384655
0.512076 0.896134 0.384057
0.638747 0.894245 0.383248
0.764484 0.891898 0.382242
0.889149 0.889149 0.381064
1.000000 0.886810 0.481790
0.359279 1.000000 0.480903
0.370042 1.000000 0.480981
0.411788 1.000000 0.481315
0.481986 1.000000 0.481986
0.571017 1.000000 0.483040
0.671106 1.000000 0.484497
0.777554 1.000000 0.486359
0.887698 1.000000 0.488611
1.000000 1.000000 0.491222
0.000000 0.000000 0.629551
0.156218 0.000000 0.624871
0.304920 0.000000 0.609840
0.443664 0.000000 0.591552
0.575146 0.000000 0.575146
0.702016 0.000000 0.561613
0.825826 0.000000 0.550551
0.947435 0.000000 0.541391
1.000000 0.285858 0.541675
0.000000 0.153943 0.615771
0.153136 0.153136 0.612543
0.300730 0.150365 0.601461
0.439978 0.146659 0.586638
0.572292 0.143073 0.572292
0.699847 0.139969 0.559877
0.824151 0.137358 0.549434
0.946110 0.135159 0.540634
1.000000 0.302044 0.542102
0.000000 0.293036 0.586072
0.146195 0.292391 0.584782
0.289920 0.289920 0.579839
0.428919 0.285946 0.571892
0.562692 0.281346 0.562692
0.691975 0.276790 0.553580
0.817768 0.272589 0.545179
0.940900 0.268828 0.537657
1.000000 0.360304 0.543869
0.000000 0.421454 0.561939
0.140351 0.421053 0.561404
0.279617 0.419426 0.559234
0.416503 0.416503 0.555338
0.550171 0.412628 0.550171
0.680444 0.408266 0.544355
0.807600 0.403800 0.538400
0.932089 0.399467 0.532622
1.000000 0.448676 0.547176
0.000000 0.544581 0.544581
0.136080 0.544319 0.544319
0.271616 0.543232 0.543232
0.405879 0.541172 0.541172
0.538226 0.538226 0.538226
0.668272 0.534617 0.534617
0.795913 0.530609 0.530609
0.921254 0.526431 0.526431
1.000000 0.551844 0.551844
0.000000 0.664575 0.531660
0.132878 0.664392 0.531514
0.265449 0.663623 0.530898
0.397275 0.662125 0.529700
0.527914 0.659893 0.527914
0.657017 0.657017 0.525614
0.784371 0.653643 0.522914
0.909904 0.649932 0.519945
1.000000 0.661480 0.557511
0.000000 0.782379 0.521586
0.130374 0.782243 0.521495
0.260556 0.781669 0.521113
0.390267 0.780535 0.520357
0.519204 0.778806 0.519204
0.647090 0.776508 0.517672
0.773715 0.773715 0.515810
0.898947 0.770526 0.513684
1.000000 0.773740 0.563798
0.000000 0.898490 0.513423
0.128341 0.898385 0.513363
0.256554 0.897938 0.513108
0.384449 0.897048 0.512599
0.511813 0.895673 0.511813
0.638435 0.893809 0.510748
0.764135 0.891491 0.509423
0.888774 0.888774 0.507871
1.000000 0.886857 0.570388
0.359892 1.000000 0.569765
0.370625 1.000000 0.569820
0.412273 1.000000 0.570055
0.482347 1.000000 0.570526
0.571267 1.000000 0.571267
0.671268 1.000000 0.572293
0.777648 1.000000 0.573607
0.887739 1.000000 0.575200
1.000000 1.000000 0.577054
0.000000 0.000000 0.757533
0.150898 0.000000 0.754491
0.297443 0.000000 0.743608
0.436849 0.000000 0.728082
0.569733 0.000000 0.712166
0.697834 0.000000 0.697834
0.822564 0.000000 0.685470
0.944838 0.000000 0.674885
1.000000 0.288400 0.651719
0.000000 0.149621 0.748106
0.149138 0.149138 0.745691
0.294720 0.147360 0.736801
0.434100 0.144700 0.723500
0.567381 0.141845 0.709226
0.695929 0.139186 0.695929
0.821033 0.136839 0.684194
0.943597 0.134800 0.673998
1.000000 0.304354 0.651988
0.000000 0.289185 0.722962
0.144345 0.288691 0.721727
0.286758 0.286758 0.716895
0.425286 0.283524 0.708811
0.559209 0.279604 0.699011
0.688905 0.275562 0.688905
0.815154 0.271718 0.679295
0.938693 0.268198 0.670495
1.000000 0.361972 0.653100
0.000000 0.418914 0.698190
0.139521 0.418563 0.697605
0.278088 0.417132 0.695220
0.414530 0.414530 0.690883
0.548029 0.411022 0.685037
0.678340 0.407004 0.678340
0.805645 0.402823 0.671371
0.930328 0.398712 0.664520
1.000000 0.449726 0.655194
0.000000 0.542881 0.678601
0.135660 0.542638 0.678298
0.270813 0.541627 0.677033
0.404777 0.539702 0.674628
0.536933 0.536933 0.671166
0.666895 0.533516 0.666895
0.794536 0.529691 0.662114
0.919932 0.525675 0.657094
1.000000 0.552462 0.658173
0.000000 0.663371 0.663371
0.132639 0.663196 0.663196
0.264984 0.662460 0.662460
0.396615 0.661024 0.661024
0.527104 0.658880 0.658880
0.656109 0.656109 0.656109
0.783413 0.652844 0.652844
0.908936 0.649240 0.649240
1.000000 0.661823 0.661823
0.000000 0.781480 0.651234
0.130225 0.781348 0.651124
0.260264 0.780791 0.650659
0.389844 0.779688 0.649740
0.518670 0.778006 0.648338
0.646472 0.775766 0.646472
0.773039 0.773039 0.644199
0.898238 0.769918 0.641599
1.000000 0.773912 0.665911
0.000000 0.897791 0.641279
0.128241 0.897688 0.641205
0.256357 0.897250 0.640893
0.384162 0.896378 0.640270
0.511445 0.895028 0.639306
0.637999 0.893199 0.637999
0.763647 0.890921 0.636372
0.888249 0.888249 0.634463
1.000000 0.886922 0.670238
0.360752 1.000000 0.669827
0.371445 1.000000 0.669863
0.412954 1.000000 0.670018
0.482854 1.000000 0.670329
0.571619 1.000000 0.670818
0.671496 1.000000 0.671496
0.777781 1.000000 0.672366
0.887797 1.000000 0.673422
1.000000 1.000000 0.674654
0.000000 0.000000 0.883653
0.146919 0.000000 0.881511
0.291126 0.000000 0.873379
0.430261 0.000000 0.860521
0.563938 0.000000 0.845906
0.693045 0.000000 0.831654
0.818664 0.000000 0.818664
0.941646 0.000000 0.807125
1.000000 0.291625 0.765909
0.000000 0.146138 0.876830
0.145832 0.145832 0.874992
0.289307 0.144653 0.867920
0.428228 0.142743 0.856456
0.562041 0.140510 0.843062
0.691410 0.138282 0.829692
0.817292 0.136215 0.817292
0.940501 0.134357 0.806144
1.000000 0.307292 0.766062
0.000000 0.285324 0.855971
0.142475 0.284951 0.854852
0.283464 0.283464 0.850391
0.421328 0.280885 0.842656
0.555240 0.277620 0.832860
0.685276 0.274110 0.822331
0.811974 0.270658 0.811974
0.935954 0.267415 0.802246
1.000000 0.364106 0.766698
0.000000 0.416010 0.832020
0.138570 0.415710 0.831419
0.276319 0.414478 0.828957
0.412211 0.412211 0.824422
0.545466 0.409099 0.818199
0.675774 0.405464 0.810929
0.803224 0.401612 0.803224
0.928116 0.397764 0.795528
1.000000 0.451078 0.767899
0.000000 0.540810 0.811216
0.135147 0.540588 0.810883
0.269832 0.539663 0.809495
0.403421 0.537894 0.806841
0.535330 0.535330 0.802995
0.665174 0.532139 0.798209
0.792801 0.528534 0.792801
0.918252 0.524716 0.787073
1.000000 0.553263 0.769618
0.000000 0.661857 0.794228
0.132338 0.661691 0.794029
0.264398 0.660995 0.793194
0.395781 0.659635 0.791562
0.526078 0.657598 0.789117
0.654953 0.654953 0.785943
0.782188 0.651824 0.782188
0.907694 0.648353 0.778024
1.000000 0.662270 0.771741
0.000000 0.780330 0.780330
0.130034 0.780203 0.780203
0.259889 0.779666 0.779666
0.389301 0.778603 0.778603
0.517985 0.776978 0.776978
0.645676 0.774812 0.774812
0.772167 0.772167 0.772167
0.897322 0.769133 0.769133
1.000000 0.774137 0.774137
0.000000 0.896886 0.768760
0.128112 0.896786 0.768674
0.256103 0.896359 0.768308
0.383790 0.895510 0.767580
0.510968 0.894194 0.766452
0.637434 0.892408 0.764921
0.763013 0.890181 0.763013
0.887565 0.887565 0.760770
1.000000 0.887009 0.776691
0.361875 1.000000 0.776448
0.372514 1.000000 0.776470
0.413844 1.000000 0.776561
0.483517 1.000000 0.776745
0.572079 1.000000 0.777035
0.671795 1.000000 0.777437
0.777954 1.000000 0.777954
0.887873 1.000000 0.778582
1.000000 1.000000 0.779317
0.067394 0.067394 1.000000
0.150615 0.062328 1.000000
0.285886 0.019109 1.000000
0.424169 0.000000 0.989727
0.558106 0.000000 0.976686
0.687911 0.000000 0.963075
0.814292 0.000000 0.950007
0.937956 0.000000 0.937956
1.000000 0.295490 0.882342
0.046354 0.146741 1.000000
0.144990 0.144990 1.000000
0.284554 0.142277 0.995939
0.422657 0.140886 0.986199
0.556592 0.139148 0.974036
0.686528 0.137306 0.961139
0.813082 0.135514 0.948595
0.936915 0.133845 0.936915
1.000000 0.310823 0.882408
0.000000 0.281649 0.985773
0.140684 0.281367 0.984785
0.280226 0.280226 0.980792
0.417281 0.278187 0.973655
0.551004 0.275502 0.964257
0.681253 0.272501 0.953754
0.808343 0.269448 0.943067
0.932753 0.266501 0.932753
1.000000 0.366692 0.882684
0.000000 0.412900 0.963434
0.137549 0.412647 0.962844
0.274403 0.411604 0.960410
0.409659 0.409659 0.955871
0.542588 0.406941 0.949529
0.672836 0.403702 0.941970
0.800401 0.400200 0.933801
0.925498 0.396642 0.925498
1.000000 0.452729 0.883209
0.000000 0.538441 0.942271
0.134560 0.538241 0.941922
0.268703 0.537406 0.940461
0.401852 0.535803 0.937655
0.533461 0.533461 0.933556
0.663146 0.530517 0.928405
0.790736 0.527157 0.922526
0.916237 0.523564 0.916237
1.000000 0.554247 0.883965
0.000000 0.660059 0.924083
0.131981 0.659905 0.923867
0.263701 0.659254 0.922955
0.394787 0.657979 0.921171
0.524850 0.656063 0.918488
0.653563 0.653563 0.914989
0.780709 0.650591 0.910827
0.906186 0.647276 0.906186
1.000000 0.662822 0.884904
0.000000 0.778936 0.908759
0.129803 0.778815 0.908618
0.259434 0.778302 0.908019
0.388643 0.777285 0.906833
0.517152 0.775729 0.905017
0.644707 0.773648 0.902589
0.771101 0.771101 0.899618
0.896199 0.768170 0.896199
1.000000 0.774416 0.885971
0.000000 0.895777 0.895777
0.127954 0.895680 0.895680
0.255791 0.895267 0.895267
0.383333 0.894444 0.894444
0.510382 0.893168 0.893168
0.636739 0.891435 0.891435
0.762231 0.889270 0.889270
0.886722 0.886722 0.886722
1.000000 0.887116 0.887116
0.363267 1.000000 0.887007
0.373840 1.000000 0.887016
0.414948 1.000000 0.887057
0.484342 1.000000 0.887140
0.572652 1.000000 0.887271
0.672167 1.000000 0.887452
0.778170 1.000000 0.887684
0.887968 1.000000 0.887968
1.000000 1.000000 0.888300
0.221511 0.221511 1.000000
0.243707 0.222537 1.000000
0.316604 0.226746 1.000000
0.417427 0.234518 1.000000
0.529343 0.245263 1.000000
0.645590 0.257999 1.000000
0.763465 0.271786 1.000000
0.881787 0.285918 1.000000
1.000000 0.299931 1.000000
0.224898 0.245775 1.000000
0.246628 0.246628 1.000000
0.318501 0.250148 1.000000
0.418554 0.256722 1.000000
0.529997 0.265957 1.000000
0.645956 0.277095 1.000000
0.763652 0.289352 1.000000
0.881860 0.302099 1.000000
1.000000 0.314893 1.000000
0.237631 0.323303 1.000000
0.257736 0.323803 1.000000
0.325888 0.325888 1.000000
0.423021 0.329878 1.000000
0.532627 0.335684 1.000000
0.647445 0.342973 1.000000
0.764419 0.351326 1.000000
0.882163 0.360344 1.000000
1.000000 0.369699 1.000000
0.257642 0.427253 1.000000
0.275539 0.427515 1.000000
0.338252 0.428618 1.000000
0.430767 0.430767 1.000000
0.537314 0.433986 1.000000
0.650159 0.438168 1.000000
0.765843 0.443139 1.000000
0.882733 0.448701 1.000000
1.000000 0.454667 1.000000
0.280699 0.539984 1.000000
0.296474 0.540119 1.000000
0.353513 0.540690 1.000000
0.440733 0.541818 1.000000
0.543540 0.543540 1.000000
0.653861 0.545833 1.000000
0.767832 0.548635 1.000000
0.883545 0.551859 1.000000
1.000000 0.555412 1.000000
0.303914 0.655184 1.000000
0.317908 0.655253 1.000000
0.369825 0.655542 1.000000
0.451814 0.656118 1.000000
0.550677 0.657009 1.000000
0.658216 0.658216 1.000000
0.770226 0.659720 1.000000
0.884543 0.661488 1.000000
1.000000 0.663479 1.000000
0.325939 0.770686 1.000000
0.338500 0.770718 1.000000
0.386054 0.770854 1.000000
0.463221 0.771126 1.000000
0.558225 0.771550 1.000000
0.662926 0.772132 1.000000
0.772867 0.772867 1.000000
0.885665 0.773744 1.000000
1.000000 0.774749 1.000000
0.346300 0.885716 1.000000
0.357718 0.885727 1.000000
0.401619 0.885777 1.000000
0.474479 0.885876 1.000000
0.565848 0.886033 1.000000
0.667773 0.886249 1.000000
0.775631 0.886525 1.000000
0.886858 0.886858 1.000000
1.000000 0.887245 1.000000
0.364928 1.000000 1.000000
0.375423 1.000000 1.000000
0.416270 1.000000 1.000000
0.485331 1.000000 1.000000
0.573340 1.000000 1.000000
0.672614 1.000000 1.000000
0.778431 1.000000 1.000000
0.888082 1.000000 1.000000
1.000000 1.000000 1.000000
