correction_luts/flat_lift_60.cube
# Lifts shadows for a softer, more open look
# Strength: 0.6
# Color model: linear-light tone (v2)
TITLE "Flat Lift - Softer Shadows"
LUT_3D_SIZE 9
0.014838 0.014838 0.014838
0.165567 0.000000 0.000000
0.296426 0.000000 0.000000
0.424331 0.000000 0.000000
0.550290 0.000000 0.000000
0.674799 0.000000 0.000000
0.798153 0.000000 0.000000
0.920549 0.000000 0.000000
1.000000 0.225777 0.225777
0.000000 0.152044 0.000000
0.149767 0.149767 0.000000
0.289116 0.144558 0.000000
0.420492 0.140164 0.000000
0.547964 0.136991 0.000000
0.673235 0.134647 0.000000
0.797022 0.132837 0.000000
0.919688 0.131384 0.000000
1.000000 0.247544 0.226912
0.000000 0.280049 0.000000
0.139712 0.279424 0.000000
0.277153 0.277153 0.000000
0.410733 0.273822 0.000000
0.540626 0.270313 0.000000
0.667711 0.267084 0.000000
0.792767 0.264256 0.000000
0.916321 0.261806 0.000000
1.000000 0.319515 0.231525
0.000000 0.405057 0.000000
0.134922 0.404766 0.000000
0.269064 0.403596 0.000000
0.401539 0.401539 0.000000
0.531845 0.398884 0.000000
0.659960 0.395976 0.000000
0.786135 0.393068 0.000000
0.910693 0.390297 0.000000
1.000000 0.419619 0.239879
0.000000 0.528117 0.000000
0.131986 0.527944 0.000000
0.263615 0.527230 0.000000
0.394414 0.525885 0.000000
0.523978 0.523978 0.000000
0.652082 0.521665 0.000000
0.778682 0.519122 0.000000
0.903864 0.516494 0.000000
1.000000 0.530985 0.251125
0.000000 0.649733 0.000000
0.129923 0.649617 0.000000
0.259652 0.649130 0.000000
0.388911 0.648185 0.000000
0.517424 0.646781 0.000000
0.644978 0.644978 0.000000
0.771445 0.642871 0.000000
0.896790 0.640564 0.000000
1.000000 0.646742 0.264058
0.000000 0.770206 0.000000
0.128354 0.770121 0.000000
0.256588 0.769764 0.000000
0.384530 0.769060 0.000000
0.511991 0.767987 0.000000
0.638803 0.766564 0.000000
0.764837 0.764837 0.000000
0.890013 0.762868 0.000000
1.000000 0.764163 0.277646
0.000000 0.889731 0.000000
0.127095 0.889666 0.000000
0.254112 0.889391 0.000000
0.380933 0.888843 0.000000
0.507426 0.887995 0.000000
0.633463 0.886848 0.000000
0.758933 0.885422 0.000000
0.883752 0.883752 0.000000
1.000000 0.882089 0.291189
0.289936 1.000000 0.289936
0.304731 1.000000 0.290047
0.358957 1.000000 0.290519
0.443316 1.000000 0.291466
0.544057 1.000000 0.292947
0.653163 1.000000 0.294988
0.766688 1.000000 0.297581
0.882654 1.000000 0.300695
1.000000 1.000000 0.304280
0.000000 0.000000 0.183456
0.161792 0.000000 0.161792
0.295443 0.000000 0.147722
0.423893 0.000000 0.141298
0.550040 0.000000 0.137510
0.674635 0.000000 0.134927
0.798036 0.000000 0.133006
0.920460 0.000000 0.131494
1.000000 0.225893 0.246648
0.000000 0.151182 0.151182
0.149144 0.149144 0.149144
0.288586 0.144293 0.144293
0.420157 0.140052 0.140052
0.547746 0.136937 0.136937
0.673084 0.134617 0.134617
0.796911 0.132819 0.132819
0.919602 0.131372 0.131372
1.000000 0.247643 0.247643
0.000000 0.279832 0.139916
0.139611 0.279221 0.139611
0.276995 0.276995 0.138498
0.410573 0.273715 0.136858
0.540488 0.270244 0.135122
0.667599 0.267040 0.133520
0.792676 0.264225 0.132113
0.916247 0.261785 0.130892
1.000000 0.319579 0.251703
0.000000 0.404957 0.134986
0.134889 0.404668 0.134889
0.269005 0.403508 0.134503
0.401465 0.401465 0.133822
0.531769 0.398826 0.132942
0.659887 0.395932 0.131977
0.786069 0.393035 0.131012
0.910635 0.390272 0.130091
1.000000 0.419656 0.259110
0.000000 0.528058 0.132014
0.131972 0.527886 0.131972
0.263588 0.527175 0.131794
0.394376 0.525835 0.131459
0.523935 0.523935 0.130984
0.652036 0.521629 0.130407
0.778637 0.519092 0.129773
0.903821 0.516469 0.129117
1.000000 0.531006 0.269181
0.000000 0.649694 0.129939
0.129916 0.649578 0.129916
0.259637 0.649092 0.129818
0.388889 0.648149 0.129630
0.517398 0.646748 0.129350
0.644948 0.644948 0.128990
0.771415 0.642846 0.128569
0.896759 0.640542 0.128108
1.000000 0.646753 0.280892
0.000000 0.770177 0.128363
0.128349 0.770093 0.128349
0.256579 0.769736 0.128289
0.384516 0.769033 0.128172
0.511974 0.767962 0.127994
0.638784 0.766540 0.127757
0.764815 0.764815 0.127469
0.889990 0.762849 0.127141
1.000000 0.764169 0.293322
0.000000 0.889709 0.127101
0.127092 0.889644 0.127092
0.254105 0.889369 0.127053
0.380923 0.888821 0.126974
0.507414 0.887975 0.126854
0.633449 0.886829 0.126690
0.758917 0.885404 0.126486
0.883735 0.883735 0.126248
1.000000 0.882091 0.305823
0.289974 1.000000 0.304663
0.304766 1.000000 0.304766
0.358984 1.000000 0.305203
0.443335 1.000000 0.306080
0.544069 1.000000 0.307454
0.653170 1.000000 0.309348
0.766693 1.000000 0.311758
0.882656 1.000000 0.314657
1.000000 1.000000 0.318001
0.000000 0.000000 0.316772
0.153789 0.000000 0.307579
0.291969 0.000000 0.291969
0.422158 0.000000 0.281438
0.549010 0.000000 0.274505
0.673950 0.000000 0.269580
0.797543 0.000000 0.265848
0.920086 0.000000 0.262882
1.000000 0.226385 0.316386
0.000000 0.148399 0.296797
0.147016 0.147016 0.294032
0.286576 0.143288 0.286576
0.418808 0.139603 0.279205
0.546846 0.136711 0.273423
0.672451 0.134490 0.268980
0.796443 0.132740 0.265481
0.919241 0.131320 0.262640
1.000000 0.248067 0.317064
0.000000 0.278958 0.278958
0.139201 0.278402 0.278402
0.276351 0.276351 0.276351
0.409910 0.273273 0.273273
0.539911 0.269956 0.269956
0.667126 0.266850 0.266850
0.792292 0.264097 0.264097
0.915933 0.261695 0.261695
1.000000 0.319852 0.319852
0.000000 0.404540 0.269693
0.134754 0.404261 0.269507
0.268760 0.403140 0.268760
0.401158 0.401158 0.267438
0.531446 0.398584 0.265723
0.659580 0.395748 0.263832
0.785791 0.392896 0.261930
0.910389 0.390167 0.260111
1.000000 0.419815 0.325016
0.000000 0.527809 0.263905
0.131910 0.527641 0.263820
0.263471 0.526942 0.263471
0.394217 0.525623 0.262812
0.523751 0.523751 0.261875
0.651843 0.521474 0.260737
0.778446 0.518964 0.259482
0.903640 0.516366 0.258183
1.000000 0.531096 0.332188
0.000000 0.649526 0.259810
0.129882 0.649411 0.259765
0.259572 0.648931 0.259572
0.388798 0.647997 0.259199
0.517286 0.646608 0.258643
0.644824 0.644824 0.257930
0.771284 0.642737 0.257095
0.896627 0.640448 0.256179
1.000000 0.646802 0.340732
0.000000 0.770055 0.256685
0.128328 0.769971 0.256657
0.256539 0.769617 0.256539
0.384459 0.768918 0.256306
0.511902 0.767853 0.255951
0.638700 0.766440 0.255480
0.764724 0.764724 0.254908
0.889895 0.762767 0.254256
1.000000 0.764193 0.350022
0.000000 0.889615 0.254176
0.127079 0.889550 0.254157
0.254079 0.889277 0.254079
0.380885 0.888731 0.253923
0.507365 0.887888 0.253682
0.633391 0.886747 0.253356
0.758852 0.885327 0.252951
0.883665 0.883665 0.252476
1.000000 0.882101 0.359577
0.290135 1.000000 0.358682
0.304915 1.000000 0.358761
0.359098 1.000000 0.359098
0.443413 1.000000 0.359775
0.544121 1.000000 0.360838
0.653203 1.000000 0.362307
0.766711 1.000000 0.364182
0.882664 1.000000 0.366446
1.000000 1.000000 0.369070
0.000000 0.000000 0.447227
0.147550 0.000000 0.442650
0.287110 0.000000 0.430665
0.419178 0.000000 0.419178
0.547097 0.000000 0.410323
0.672629 0.000000 0.403577
0.796575 0.000000 0.398288
0.919343 0.000000 0.394004
1.000000 0.227371 0.414590
0.000000 0.145004 0.435011
0.144198 0.144198 0.432595
0.283408 0.141704 0.425112
0.416422 0.138807 0.416422
0.545157 0.136289 0.408868
0.671228 0.134246 0.402737
0.795523 0.132587 0.397761
0.918524 0.131218 0.393653
1.000000 0.248918 0.415022
0.000000 0.277407 0.416111
0.138469 0.276938 0.415407
0.275175 0.275175 0.412763
0.408665 0.272444 0.408665
0.538803 0.269402 0.404102
0.666202 0.266481 0.399721
0.791534 0.263845 0.395767
0.915309 0.261517 0.392275
1.000000 0.320402 0.416803
0.000000 0.403736 0.403736
0.134492 0.403476 0.403476
0.268284 0.402426 0.402426
0.400558 0.400558 0.400558
0.530811 0.398109 0.398109
0.658971 0.395383 0.395383
0.785237 0.392619 0.392619
0.909898 0.389956 0.389956
1.000000 0.420136 0.420136
0.000000 0.527317 0.395488
0.131789 0.527155 0.395366
0.263240 0.526479 0.394860
0.393902 0.525203 0.393902
0.523384 0.523384 0.392538
0.651456 0.521165 0.390874
0.778063 0.518709 0.389032
0.903275 0.516157 0.387118
1.000000 0.531277 0.424833
0.000000 0.649191 0.389514
0.129816 0.649078 0.389447
0.259443 0.648607 0.389164
0.388615 0.647691 0.388615
0.517062 0.646328 0.387797
0.644574 0.644574 0.386744
0.771021 0.642518 0.385511
0.896363 0.640259 0.384156
1.000000 0.646901 0.430526
0.000000 0.769808 0.384904
0.128288 0.769726 0.384863
0.256459 0.769376 0.384688
0.384343 0.768686 0.384343
0.511756 0.767635 0.383817
0.638531 0.766238 0.383119
0.764540 0.764540 0.382270
0.889702 0.762602 0.381301
1.000000 0.764242 0.436832
0.000000 0.889425 0.381182
0.127052 0.889361 0.381155
0.254026 0.889090 0.381038
0.380807 0.888549 0.380807
0.507265 0.887713 0.380449
0.633272 0.886581 0.379963
0.758720 0.885173 0.379360
0.883523 0.883523 0.378653
1.000000 0.882119 0.443435
0.290460 1.000000 0.442811
0.305216 1.000000 0.442866
0.359329 1.000000 0.443101
0.443573 1.000000 0.443573
0.544226 1.000000 0.444315
0.653269 1.000000 0.445342
0.766749 1.000000 0.446658
0.882680 1.000000 0.448252
1.000000 1.000000 0.450108
0.000000 0.000000 0.575761
0.143272 0.000000 0.573086
0.282236 0.000000 0.564473
0.415456 0.000000 0.553941
0.544438 0.000000 0.544438
0.670692 0.000000 0.536554
0.795114 0.000000 0.530076
0.918202 0.000000 0.524687
1.000000 0.228912 0.525013
0.000000 0.141969 0.567876
0.141506 0.141506 0.566024
0.279827 0.139914 0.559655
0.413325 0.137775 0.551100
0.542779 0.135695 0.542779
0.669425 0.133885 0.535540
0.794130 0.132355 0.529420
0.917421 0.131060 0.524240
1.000000 0.250251 0.525286
0.000000 0.275386 0.550773
0.137507 0.275013 0.550026
0.273581 0.273581 0.547162
0.406910 0.271273 0.542546
0.537184 0.268592 0.537184
0.664816 0.265926 0.531853
0.790377 0.263459 0.526918
0.914345 0.261241 0.522483
1.000000 0.321268 0.526416
0.000000 0.402558 0.536745
0.134108 0.402324 0.536432
0.267582 0.401373 0.535164
0.399662 0.399662 0.532883
0.529853 0.397390 0.529853
0.658042 0.394825 0.526433
0.784382 0.392191 0.522922
0.909133 0.389628 0.519505
1.000000 0.420643 0.528542
0.000000 0.526566 0.526566
0.131603 0.526412 0.526412
0.262886 0.525772 0.525772
0.393418 0.524557 0.524557
0.522819 0.522819 0.522819
0.650857 0.520686 0.520686
0.777467 0.518311 0.518311
0.902704 0.515831 0.515831
1.000000 0.531565 0.531565
0.000000 0.648668 0.518935
0.129712 0.648560 0.518848
0.259241 0.648104 0.518483
0.388329 0.647215 0.517772
0.516712 0.645891 0.516712
0.644182 0.644182 0.515345
0.770609 0.642174 0.513739
0.895947 0.639962 0.511970
1.000000 0.647057 0.535267
0.000000 0.769422 0.512948
0.128223 0.769341 0.512894
0.256333 0.768999 0.512666
0.384161 0.768322 0.512215
0.511527 0.767291 0.511527
0.638266 0.765919 0.510613
0.764250 0.764250 0.509500
0.889398 0.762342 0.508228
1.000000 0.764319 0.539413
0.000000 0.889125 0.508072
0.127009 0.889062 0.508035
0.253941 0.888795 0.507883
0.380684 0.888262 0.507578
0.507107 0.887437 0.507107
0.633086 0.886320 0.506468
0.758510 0.884929 0.505674
0.883297 0.883297 0.504741
1.000000 0.882149 0.543805
0.290977 1.000000 0.543388
0.305694 1.000000 0.543425
0.359696 1.000000 0.543582
0.443827 1.000000 0.543897
0.544394 1.000000 0.544394
0.653375 1.000000 0.545082
0.766809 1.000000 0.545966
0.882706 1.000000 0.547039
1.000000 1.000000 0.548291
0.000000 0.000000 0.702852
0.140220 0.000000 0.701102
0.277933 0.000000 0.694832
0.411513 0.000000 0.685856
0.541289 0.000000 0.676612
0.668248 0.000000 0.668248
0.793198 0.000000 0.660998
0.916671 0.000000 0.654765
1.000000 0.231032 0.640880
0.000000 0.139485 0.697426
0.139207 0.139207 0.696033
0.276361 0.138180 0.690901
0.409920 0.136640 0.683199
0.539920 0.134980 0.674900
0.667133 0.133427 0.667133
0.792298 0.132050 0.660248
0.915938 0.130848 0.654241
1.000000 0.252090 0.641048
0.000000 0.273155 0.682887
0.136434 0.272868 0.682170
0.271745 0.271745 0.679363
0.404794 0.269863 0.674657
0.535149 0.267574 0.668936
0.663016 0.265206 0.663016
0.788838 0.262946 0.657365
0.913041 0.260869 0.652172
1.000000 0.322468 0.641746
0.000000 0.401074 0.668456
0.133623 0.400868 0.668114
0.266687 0.400031 0.666718
0.398506 0.398506 0.664176
0.528595 0.396446 0.660744
0.656802 0.394081 0.656802
0.783228 0.391614 0.652690
0.908089 0.389181 0.648635
1.000000 0.421349 0.643064
0.000000 0.525565 0.656956
0.131355 0.525422 0.656777
0.262413 0.524826 0.656032
0.392768 0.523690 0.654613
0.522055 0.522055 0.652569
0.650042 0.520034 0.650042
0.776650 0.517767 0.647209
0.901919 0.515382 0.644228
1.000000 0.531967 0.644950
0.000000 0.647955 0.647955
0.129570 0.647851 0.647851
0.258966 0.647414 0.647414
0.387937 0.646562 0.646562
0.516231 0.645289 0.645289
0.643641 0.643641 0.643641
0.770038 0.641698 0.641698
0.895369 0.639549 0.639549
1.000000 0.647276 0.647276
0.000000 0.768886 0.640738
0.128135 0.768807 0.640673
0.256158 0.768475 0.640396
0.383909 0.767817 0.639848
0.511209 0.766813 0.639011
0.637897 0.765476 0.637897
0.763845 0.763845 0.636538
0.888974 0.761978 0.634981
1.000000 0.764428 0.649903
0.000000 0.888706 0.634790
0.126949 0.888644 0.634746
0.253823 0.888382 0.634559
0.380511 0.887860 0.634185
0.506886 0.887051 0.633608
0.632824 0.885954 0.632824
0.758217 0.884587 0.631848
0.882981 0.882981 0.630701
1.000000 0.882190 0.652705
0.291703 1.000000 0.652438
0.306366 1.000000 0.652461
0.360213 1.000000 0.652562
0.444184 1.000000 0.652764
0.544630 1.000000 0.653082
0.653524 1.000000 0.653524
0.766894 1.000000 0.654091
0.882743 1.000000 0.654781
1.000000 1.000000 0.655588
0.000000 0.000000 0.828788
0.137925 0.000000 0.827550
0.274281 0.000000 0.822842
0.407690 0.000000 0.815380
0.537912 0.000000 0.806867
0.665444 0.000000 0.798532
0.790904 0.000000 0.790904
0.914786 0.000000 0.784102
1.000000 0.233723 0.759410
0.000000 0.137473 0.824841
0.137296 0.137296 0.823777
0.273226 0.136613 0.819677
0.406508 0.135503 0.813015
0.536804 0.134201 0.805207
0.664485 0.132897 0.797382
0.790097 0.131683 0.790097
0.914110 0.130587 0.783522
1.000000 0.254432 0.759504
0.000000 0.270911 0.812733
0.135347 0.270694 0.812081
0.269828 0.269828 0.809483
0.402485 0.268323 0.804970
0.532826 0.266413 0.799239
0.660884 0.264354 0.793061
0.786964 0.262321 0.786964
0.911421 0.260406 0.781218
1.000000 0.324007 0.759899
0.000000 0.399373 0.798747
0.133066 0.399197 0.798395
0.265650 0.398476 0.796951
0.397145 0.397145 0.794289
0.527087 0.395315 0.790631
0.655289 0.393174 0.786347
0.781796 0.390898 0.781796
0.906778 0.388619 0.777239
1.000000 0.422260 0.760646
0.000000 0.524344 0.786517
0.131053 0.524213 0.786320
0.261834 0.523667 0.785501
0.391967 0.522623 0.783934
0.521108 0.521108 0.781661
0.649023 0.519218 0.778828
0.775620 0.517080 0.775620
0.900920 0.514811 0.772217
1.000000 0.532488 0.761721
0.000000 0.647056 0.776467
0.129392 0.646958 0.776350
0.258618 0.646545 0.775854
0.387442 0.645737 0.774885
0.515621 0.644527 0.773432
0.642954 0.642954 0.771544
0.769308 0.641090 0.769308
0.894628 0.639020 0.766824
1.000000 0.647562 0.763055
0.000000 0.768200 0.768200
0.128021 0.768124 0.768124
0.255935 0.767804 0.767804
0.383585 0.767170 0.767170
0.510800 0.766200 0.766200
0.637421 0.764905 0.764905
0.763324 0.763324 0.763324
0.888425 0.761507 0.761507
1.000000 0.764571 0.764571
0.000000 0.888164 0.761284
0.126872 0.888104 0.761232
0.253671 0.887849 0.761013
0.380288 0.887339 0.760577
0.506600 0.886550 0.759900
0.632485 0.885479 0.758982
0.757836 0.884142 0.757836
0.882571 0.882571 0.756489
1.000000 0.882244 0.766197
0.292649 1.000000 0.766042
0.307243 1.000000 0.766056
0.360888 1.000000 0.766114
0.444651 1.000000 0.766232
0.544939 1.000000 0.766417
0.653718 1.000000 0.766674
0.767005 1.000000 0.767005
0.882791 1.000000 0.767408
1.000000 1.000000 0.767880
0.000000 0.000000 0.953763
0.136119 0.000000 0.952836
0.271196 0.000000 0.949186
0.404143 0.000000 0.943000
0.534504 0.000000 0.935382
0.662432 0.000000 0.927405
0.788330 0.000000 0.919719
0.912605 0.000000 0.912605
1.000000 0.236949 0.879332
0.000000 0.135823 0.950760
0.135704 0.135704 0.949926
0.270463 0.135231 0.946620
0.403261 0.134420 0.940942
0.533618 0.133404 0.933831
0.661620 0.132324 0.926267
0.787617 0.131269 0.918886
0.911989 0.130284 0.911989
1.000000 0.257251 0.879373
0.000000 0.268769 0.940693
0.134302 0.268605 0.940116
0.267938 0.267938 0.937783
0.400118 0.266745 0.933608
0.530342 0.265171 0.928099
0.658518 0.263407 0.921925
0.784821 0.261607 0.915625
0.909527 0.259865 0.909527
1.000000 0.325878 0.879543
0.000000 0.397549 0.927615
0.132467 0.397401 0.927269
0.264526 0.396788 0.925839
0.395645 0.395645 0.923171
0.525392 0.394044 0.919437
0.653555 0.392133 0.914977
0.780126 0.390063 0.910147
0.905225 0.387954 0.905225
1.000000 0.423376 0.879868
0.000000 0.522946 0.915155
0.130707 0.522828 0.914949
0.261167 0.522335 0.914086
0.391040 0.521387 0.912427
0.520001 0.520001 0.910002
0.647821 0.518257 0.906950
0.774394 0.516263 0.903460
0.899720 0.514126 0.899720
1.000000 0.533130 0.880337
0.000000 0.645989 0.904385
0.129180 0.645898 0.904257
0.258204 0.645511 0.903715
0.386852 0.644753 0.902655
0.514891 0.643614 0.901060
0.642127 0.642127 0.898977
0.768426 0.640355 0.896497
0.893727 0.638377 0.893727
1.000000 0.647916 0.880922
0.000000 0.767369 0.895263
0.127883 0.767296 0.895179
0.255663 0.766990 0.894822
0.383192 0.766383 0.894114
0.510302 0.765453 0.893029
0.636842 0.764210 0.891578
0.762686 0.762686 0.889800
0.887752 0.760931 0.887752
1.000000 0.764748 0.881591
0.000000 0.887500 0.887500
0.126777 0.887441 0.887441
0.253484 0.887194 0.887194
0.380014 0.886700 0.886700
0.506249 0.885935 0.885935
0.632068 0.884895 0.884895
0.757367 0.883595 0.883595
0.882063 0.882063 0.882063
1.000000 0.882312 0.882312
0.293823 1.000000 0.882243
0.308331 1.000000 0.882249
0.361727 1.000000 0.882275
0.445233 1.000000 0.882328
0.545324 1.000000 0.882410
0.653961 1.000000 0.882525
0.767144 1.000000 0.882672
0.882852 1.000000 0.882852
1.000000 1.000000 0.883062
0.175490 0.175490 1.000000
0.204742 0.176338 1.000000
0.290785 0.179820 1.000000
0.400173 0.186252 1.000000
0.517239 0.195156 1.000000
0.637072 0.205727 1.000000
0.757902 0.217190 1.000000
0.878991 0.228963 1.000000
1.000000 0.240658 1.000000
0.178291 0.206319 1.000000
0.206971 0.206971 1.000000
0.292065 0.209664 1.000000
0.400890 0.214719 1.000000
0.517646 0.221866 1.000000
0.637297 0.230554 1.000000
0.758016 0.240194 1.000000
0.879036 0.250295 1.000000
1.000000 0.260507 1.000000
0.188831 0.295324 1.000000
0.215501 0.295665 1.000000
0.297090 0.297090 1.000000
0.403752 0.299831 1.000000
0.519290 0.303850 1.000000
0.638218 0.308945 1.000000
0.758489 0.314849 1.000000
0.879222 0.321296 1.000000
1.000000 0.328060 1.000000
0.205430 0.406486 1.000000
0.229337 0.406656 1.000000
0.305639 0.407372 1.000000
0.408773 0.408773 1.000000
0.522241 0.410880 1.000000
0.639905 0.413635 1.000000
0.759369 0.416936 1.000000
0.879574 0.420659 1.000000
1.000000 0.424689 1.000000
0.224612 0.523935 1.000000
0.245828 0.524021 1.000000
0.316406 0.524385 1.000000
0.415335 0.525104 1.000000
0.526205 0.526205 1.000000
0.642224 0.527677 1.000000
0.760604 0.529484 1.000000
0.880076 0.531574 1.000000
1.000000 0.533891 1.000000
0.243987 0.643058 1.000000
0.262922 0.643101 1.000000
0.328152 0.643283 1.000000
0.422757 0.643647 1.000000
0.530807 0.644211 1.000000
0.644977 0.644977 1.000000
0.762102 0.645934 1.000000
0.880697 0.647062 1.000000
1.000000 0.648338 1.000000
0.262428 0.762391 1.000000
0.279516 0.762411 1.000000
0.340055 0.762497 1.000000
0.430527 0.762668 1.000000
0.535735 0.762935 1.000000
0.647983 0.763302 1.000000
0.763766 0.763766 1.000000
0.881399 0.764322 1.000000
1.000000 0.764960 1.000000
0.279531 0.881430 1.000000
0.295136 0.881438 1.000000
0.351658 0.881469 1.000000
0.438316 0.881531 1.000000
0.540775 0.881630 1.000000
0.651106 0.881766 1.000000
0.765521 0.881939 1.000000
0.882149 0.882149 1.000000
1.000000 0.882394 1.000000
0.295225 1.000000 1.000000
0.309631 1.000000 1.000000
0.362732 1.000000 1.000000
0.445931 1.000000 1.000000
0.545786 1.000000 1.000000
0.654253 1.000000 1.000000
0.767311 1.000000 1.000000
0.882924 1.000000 1.000000
1.000000 1.000000 1.000000
