correction_luts/flat_lift_60.cube
# Lifts shadows for a softer, more open look
# Strength: 0.6
# Color model: linear-light tone (v2)
TITLE "Flat Lift - Softer Shadows"
LUT_3D_SIZE 5
0.014838 0.014838 0.014838
0.296426 0.000000 0.000000
0.550290 0.000000 0.000000
0.798153 0.000000 0.000000
1.000000 0.225777 0.225777
0.000000 0.280049 0.000000
0.277153 0.277153 0.000000
0.540626 0.270313 0.000000
0.792767 0.264256 0.000000
1.000000 0.319515 0.231525
0.000000 0.528117 0.000000
0.263615 0.527230 0.000000
0.523978 0.523978 0.000000
0.778682 0.519122 0.000000
1.000000 0.530985 0.251125
0.000000 0.770206 0.000000
0.256588 0.769764 0.000000
0.511991 0.767987 0.000000
0.764837 0.764837 0.000000
1.000000 0.764163 0.277646
0.289936 1.000000 0.289936
0.358957 1.000000 0.290519
0.544057 1.000000 0.292947
0.766688 1.000000 0.297581
1.000000 1.000000 0.304280
0.000000 0.000000 0.316772
0.291969 0.000000 0.291969
0.549010 0.000000 0.274505
0.797543 0.000000 0.265848
1.000000 0.226385 0.316386
0.000000 0.278958 0.278958
0.276351 0.276351 0.276351
0.539911 0.269956 0.269956
0.792292 0.264097 0.264097
1.000000 0.319852 0.319852
0.000000 0.527809 0.263905
0.263471 0.526942 0.263471
0.523751 0.523751 0.261875
0.778446 0.518964 0.259482
1.000000 0.531096 0.332188
0.000000 0.770055 0.256685
0.256539 0.769617 0.256539
0.511902 0.767853 0.255951
0.764724 0.764724 0.254908
1.000000 0.764193 0.350022
0.290135 1.000000 0.358682
0.359098 1.000000 0.359098
0.544121 1.000000 0.360838
0.766711 1.000000 0.364182
1.000000 1.000000 0.369070
0.000000 0.000000 0.575761
0.282236 0.000000 0.564473
0.544438 0.000000 0.544438
0.795114 0.000000 0.530076
1.000000 0.228912 0.525013
0.000000 0.275386 0.550773
0.273581 0.273581 0.547162
0.537184 0.268592 0.537184
0.790377 0.263459 0.526918
1.000000 0.321268 0.526416
0.000000 0.526566 0.526566
0.262886 0.525772 0.525772
0.522819 0.522819 0.522819
0.777467 0.518311 0.518311
1.000000 0.531565 0.531565
0.000000 0.769422 0.512948
0.256333 0.768999 0.512666
0.511527 0.767291 0.511527
0.764250 0.764250 0.509500
1.000000 0.764319 0.539413
0.290977 1.000000 0.543388
0.359696 1.000000 0.543582
0.544394 1.000000 0.544394
0.766809 1.000000 0.545966
1.000000 1.000000 0.548291
0.000000 0.000000 0.828788
0.274281 0.000000 0.822842
0.537912 0.000000 0.806867
0.790904 0.000000 0.790904
1.000000 0.233723 0.759410
0.000000 0.270911 0.812733
0.269828 0.269828 0.809483
0.532826 0.266413 0.799239
0.786964 0.262321 0.786964
1.000000 0.324007 0.759899
0.000000 0.524344 0.786517
0.261834 0.523667 0.785501
0.521108 0.521108 0.781661
0.775620 0.517080 0.775620
1.000000 0.532488 0.761721
0.000000 0.768200 0.768200
0.255935 0.767804 0.767804
0.510800 0.766200 0.766200
0.763324 0.763324 0.763324
1.000000 0.764571 0.764571
0.292649 1.000000 0.766042
0.360888 1.000000 0.766114
0.544939 1.000000 0.766417
0.767005 1.000000 0.767005
1.000000 1.000000 0.767880
0.175490 0.175490 1.000000
0.290785 0.179820 1.000000
0.517239 0.195156 1.000000
0.757902 0.217190 1.000000
1.000000 0.240658 1.000000
0.188831 0.295324 1.000000
0.297090 0.297090 1.000000
0.519290 0.303850 1.000000
0.758489 0.314849 1.000000
1.000000 0.328060 1.000000
0.224612 0.523935 1.000000
0.316406 0.524385 1.000000
0.526205 0.526205 1.000000
0.760604 0.529484 1.000000
1.000000 0.533891 1.000000
0.262428 0.762391 1.000000
0.340055 0.762497 1.000000
0.535735 0.762935 1.000000
0.763766 0.763766 1.000000
1.000000 0.764960 1.000000
0.295225 1.000000 1.000000
0.362732 1.000000 1.000000
0.545786 1.000000 1.000000
0.767311 1.000000 1.000000
1.000000 1.000000 1.000000
