correction_luts/flat_lift.cube
# Lifts shadows for a softer, more open look
# Strength: 1.0
# Color model: linear-light tone (v2)
TITLE "Flat Lift - Softer Shadows"
LUT_3D_SIZE 5
0.027349 0.027349 0.027349
0.329788 0.000000 0.000000
0.585238 0.000000 0.000000
0.831006 0.000000 0.000000
1.000000 0.282097 0.282097
0.000000 0.301115 0.000000
0.296092 0.296092 0.000000
0.568592 0.284296 0.000000
0.821831 0.273944 0.000000
1.000000 0.357863 0.288990
0.000000 0.547216 0.000000
0.272854 0.545709 0.000000
0.540189 0.540189 0.000000
0.797964 0.531976 0.000000
1.000000 0.550951 0.312447
0.000000 0.783695 0.000000
0.260985 0.782954 0.000000
0.519982 0.779973 0.000000
0.774697 0.774697 0.000000
1.000000 0.773494 0.344060
0.358657 1.000000 0.358657
0.411297 1.000000 0.359349
0.570764 1.000000 0.362228
0.777459 1.000000 0.367719
1.000000 1.000000 0.375650
0.000000 0.000000 0.365874
0.321946 0.000000 0.321946
0.583028 0.000000 0.291514
0.829966 0.000000 0.276655
1.000000 0.282826 0.353485
0.000000 0.299221 0.299221
0.294704 0.294704 0.294704
0.567366 0.283683 0.283683
0.821024 0.273675 0.273675
1.000000 0.358333 0.358333
0.000000 0.546693 0.273346
0.272609 0.545219 0.272609
0.539804 0.539804 0.269902
0.797565 0.531710 0.265855
1.000000 0.551122 0.375361
0.000000 0.783441 0.261147
0.260902 0.782706 0.260902
0.519832 0.779748 0.259916
0.774508 0.774508 0.258169
1.000000 0.773541 0.399439
0.358893 1.000000 0.410933
0.411483 1.000000 0.411483
0.570860 1.000000 0.413778
0.777495 1.000000 0.418175
1.000000 1.000000 0.424575
0.000000 0.000000 0.629551
0.304920 0.000000 0.609840
0.575146 0.000000 0.575146
0.825826 0.000000 0.550551
1.000000 0.285858 0.541675
0.000000 0.293036 0.586072
0.289920 0.289920 0.579839
0.562692 0.281346 0.562692
0.817768 0.272589 0.545179
1.000000 0.360304 0.543869
0.000000 0.544581 0.544581
0.271616 0.543232 0.543232
0.538226 0.538226 0.538226
0.795913 0.530609 0.530609
1.000000 0.551844 0.551844
0.000000 0.782379 0.521586
0.260556 0.781669 0.521113
0.519204 0.778806 0.519204
0.773715 0.773715 0.515810
1.000000 0.773740 0.563798
0.359892 1.000000 0.569765
0.412273 1.000000 0.570055
0.571267 1.000000 0.571267
0.777648 1.000000 0.573607
1.000000 1.000000 0.577054
0.000000 0.000000 0.883653
0.291126 0.000000 0.873379
0.563938 0.000000 0.845906
0.818664 0.000000 0.818664
1.000000 0.291625 0.765909
0.000000 0.285324 0.855971
0.283464 0.283464 0.850391
0.555240 0.277620 0.832860
0.811974 0.270658 0.811974
1.000000 0.364106 0.766698
0.000000 0.540810 0.811216
0.269832 0.539663 0.809495
0.535330 0.535330 0.802995
0.792801 0.528534 0.792801
1.000000 0.553263 0.769618
0.000000 0.780330 0.780330
0.259889 0.779666 0.779666
0.517985 0.776978 0.776978
0.772167 0.772167 0.772167
1.000000 0.774137 0.774137
0.361875 1.000000 0.776448
0.413844 1.000000 0.776561
0.572079 1.000000 0.777035
0.777954 1.000000 0.777954
1.000000 1.000000 0.779317
0.221511 0.221511 1.000000
0.316604 0.226746 1.000000
0.529343 0.245263 1.000000
0.763465 0.271786 1.000000
1.000000 0.299931 1.000000
0.237631 0.323303 1.000000
0.325888 0.325888 1.000000
0.532627 0.335684 1.000000
0.764419 0.351326 1.000000
1.000000 0.369699 1.000000
0.280699 0.539984 1.000000
0.353513 0.540690 1.000000
0.543540 0.543540 1.000000
0.767832 0.548635 1.000000
1.000000 0.555412 1.000000
0.325939 0.770686 1.000000
0.386054 0.770854 1.000000
0.558225 0.771550 1.000000
0.772867 0.772867 1.000000
1.000000 0.774749 1.000000
0.364928 1.000000 1.000000
0.416270 1.000000 1.000000
0.573340 1.000000 1.000000
0.778431 1.000000 1.000000
1.000000 1.000000 1.000000
