correction_luts/flat_lift_60.cube
# Lifts shadows for a softer, more open look
# Strength: 0.6
# Color model: linear-light tone (v2)
TITLE "Flat Lift - Softer Shadows"
LUT_3D_SIZE 33
0.014838 0.014838 0.014838
0.063793 0.000000 0.000000
0.098272 0.000000 0.000000
0.132138 0.000000 0.000000
0.165567 0.000000 0.000000
0.198657 0.000000 0.000000
0.231469 0.000000 0.000000
0.264049 0.000000 0.000000
0.296426 0.000000 0.000000
0.328625 0.000000 0.000000
0.360666 0.000000 0.000000
0.392564 0.000000 0.000000
0.424331 0.000000 0.000000
0.455979 0.000000 0.000000
0.487516 0.000000 0.000000
0.518951 0.000000 0.000000
0.550290 0.000000 0.000000
0.581540 0.000000 0.000000
0.612704 0.000000 0.000000
0.643789 0.000000 0.000000
0.674799 0.000000 0.000000
0.705737 0.000000 0.000000
0.736606 0.000000 0.000000
0.767411 0.000000 0.000000
0.798153 0.000000 0.000000
0.828835 0.000000 0.000000
0.859461 0.000000 0.000000
0.890031 0.000000 0.000000
0.920549 0.000000 0.000000
0.951016 0.000000 0.000000
0.981433 0.000000 0.000000
1.000000 0.131719 0.131719
1.000000 0.225777 0.225777
0.000000 0.052211 0.000000
0.050369 0.050369 0.000000
0.092651 0.046325 0.000000
0.129435 0.043145 0.000000
0.164049 0.041012 0.000000
0.197702 0.039540 0.000000
0.230817 0.038470 0.000000
0.263576 0.037654 0.000000
0.296067 0.037008 0.000000
0.328344 0.036483 0.000000
0.360439 0.036044 0.000000
0.392377 0.035671 0.000000
0.424174 0.035348 0.000000
0.455845 0.035065 0.000000
0.487401 0.034814 0.000000
0.518850 0.034590 0.000000
0.550201 0.034388 0.000000
0.581460 0.034204 0.000000
0.612633 0.034035 0.000000
0.643725 0.033880 0.000000
0.674740 0.033737 0.000000
0.705683 0.033604 0.000000
0.736557 0.033480 0.000000
0.767366 0.033364 0.000000
0.798111 0.033255 0.000000
0.828797 0.033152 0.000000
0.859425 0.033055 0.000000
0.889998 0.032963 0.000000
0.920517 0.032876 0.000000
0.950986 0.032793 0.000000
0.981405 0.032714 0.000000
1.000000 0.133501 0.131657
1.000000 0.226611 0.225819
0.000000 0.086096 0.000000
0.042832 0.085664 0.000000
0.084118 0.084118 0.000000
0.122882 0.081921 0.000000
0.159409 0.079705 0.000000
0.194398 0.077759 0.000000
0.228398 0.076133 0.000000
0.261747 0.074785 0.000000
0.294643 0.073661 0.000000
0.327206 0.072712 0.000000
0.359510 0.071902 0.000000
0.391603 0.071201 0.000000
0.423520 0.070587 0.000000
0.455284 0.070044 0.000000
0.486914 0.069559 0.000000
0.518424 0.069123 0.000000
0.549824 0.068728 0.000000
0.581124 0.068368 0.000000
0.612331 0.068037 0.000000
0.643452 0.067732 0.000000
0.674492 0.067449 0.000000
0.705457 0.067186 0.000000
0.736349 0.066941 0.000000
0.767174 0.066711 0.000000
0.797934 0.066494 0.000000
0.828632 0.066291 0.000000
0.859272 0.066098 0.000000
0.889854 0.065915 0.000000
0.920383 0.065742 0.000000
0.950860 0.065577 0.000000
0.981287 0.065419 0.000000
1.000000 0.140775 0.131393
1.000000 0.230127 0.225994
0.000000 0.119303 0.000000
0.039708 0.119124 0.000000
0.078941 0.118412 0.000000
0.117178 0.117178 0.000000
0.154165 0.115623 0.000000
0.189951 0.113971 0.000000
0.224742 0.112371 0.000000
0.258760 0.110897 0.000000
0.292190 0.109571 0.000000
0.325172 0.108391 0.000000
0.357803 0.107341 0.000000
0.390155 0.106406 0.000000
0.422277 0.105569 0.000000
0.454207 0.104817 0.000000
0.485971 0.104137 0.000000
0.517591 0.103518 0.000000
0.549083 0.102953 0.000000
0.580461 0.102434 0.000000
0.611733 0.101956 0.000000
0.642910 0.101512 0.000000
0.673999 0.101100 0.000000
0.705005 0.100715 0.000000
0.735934 0.100355 0.000000
0.766790 0.100016 0.000000
0.797578 0.099697 0.000000
0.828302 0.099396 0.000000
0.858963 0.099111 0.000000
0.889566 0.098841 0.000000
0.920113 0.098584 0.000000
0.950606 0.098339 0.000000
0.981047 0.098105 0.000000
1.000000 0.154117 0.130848
1.000000 0.237043 0.226349
0.000000 0.152044 0.000000
0.037987 0.151948 0.000000
0.075775 0.151550 0.000000
0.113105 0.150806 0.000000
0.149767 0.149767 0.000000
0.185663 0.148530 0.000000
0.220799 0.147200 0.000000
0.255251 0.145857 0.000000
0.289116 0.144558 0.000000
0.322495 0.143331 0.000000
0.355473 0.142189 0.000000
0.388120 0.141135 0.000000
0.420492 0.140164 0.000000
0.452632 0.139271 0.000000
0.484574 0.138450 0.000000
0.516344 0.137692 0.000000
0.547964 0.136991 0.000000
0.579450 0.136341 0.000000
0.610817 0.135737 0.000000
0.642075 0.135174 0.000000
0.673235 0.134647 0.000000
0.704303 0.134153 0.000000
0.735286 0.133688 0.000000
0.766191 0.133251 0.000000
0.797022 0.132837 0.000000
0.827783 0.132445 0.000000
0.858479 0.132074 0.000000
0.889113 0.131720 0.000000
0.919688 0.131384 0.000000
0.950206 0.131063 0.000000
0.980670 0.130756 0.000000
1.000000 0.172585 0.129951
1.000000 0.247544 0.226912
0.000000 0.184431 0.000000
0.036874 0.184370 0.000000
0.073647 0.184118 0.000000
0.110178 0.183630 0.000000
0.146329 0.182911 0.000000
0.182000 0.182000 0.000000
0.217141 0.180951 0.000000
0.251750 0.179822 0.000000
0.285858 0.178661 0.000000
0.319513 0.177507 0.000000
0.352770 0.176385 0.000000
0.385681 0.175310 0.000000
0.418295 0.174290 0.000000
0.450652 0.173328 0.000000
0.482785 0.172423 0.000000
0.514725 0.171575 0.000000
0.546493 0.170779 0.000000
0.578110 0.170032 0.000000
0.609592 0.169331 0.000000
0.640951 0.168671 0.000000
0.672200 0.168050 0.000000
0.703347 0.167464 0.000000
0.734401 0.166909 0.000000
0.765368 0.166384 0.000000
0.796256 0.165887 0.000000
0.827068 0.165414 0.000000
0.857809 0.164963 0.000000
0.888484 0.164534 0.000000
0.919096 0.164124 0.000000
0.949648 0.163732 0.000000
0.980143 0.163357 0.000000
1.000000 0.194827 0.128622
1.000000 0.261457 0.227702
0.000000 0.216531 0.000000
0.036082 0.216490 0.000000
0.072105 0.216315 0.000000
0.107986 0.215972 0.000000
0.143635 0.215452 0.000000
0.178973 0.214768 0.000000
0.213946 0.213946 0.000000
0.248524 0.213021 0.000000
0.282703 0.212027 0.000000
0.316497 0.210998 0.000000
0.349930 0.209958 0.000000
0.383036 0.208929 0.000000
0.415846 0.207923 0.000000
0.448393 0.206951 0.000000
0.480706 0.206017 0.000000
0.512811 0.205124 0.000000
0.544731 0.204274 0.000000
0.576485 0.203465 0.000000
0.608091 0.202697 0.000000
0.639562 0.201967 0.000000
0.670912 0.201273 0.000000
0.702150 0.200614 0.000000
0.733286 0.199987 0.000000
0.764327 0.199390 0.000000
0.795282 0.198820 0.000000
0.826155 0.198277 0.000000
0.856951 0.197758 0.000000
0.887677 0.197261 0.000000
0.918334 0.196786 0.000000
0.948929 0.196330 0.000000
0.979462 0.195892 0.000000
1.000000 0.219672 0.126758
1.000000 0.278402 0.228732
0.000000 0.248393 0.000000
0.035480 0.248363 0.000000
0.070924 0.248234 0.000000
0.106277 0.247980 0.000000
0.141479 0.247587 0.000000
0.176471 0.247060 0.000000
0.211207 0.246408 0.000000
0.245652 0.245652 0.000000
0.279788 0.244815 0.000000
0.313610 0.243919 0.000000
0.347123 0.242986 0.000000
0.380343 0.242037 0.000000
0.413289 0.241085 0.000000
0.445981 0.240144 0.000000
0.478441 0.239221 0.000000
0.510691 0.238323 0.000000
0.542750 0.237453 0.000000
0.574635 0.236614 0.000000
0.606363 0.235808 0.000000
0.637948 0.235033 0.000000
0.669402 0.234291 0.000000
0.700736 0.233579 0.000000
0.731961 0.232897 0.000000
0.763084 0.232243 0.000000
0.794112 0.231616 0.000000
0.825053 0.231015 0.000000
0.855913 0.230438 0.000000
0.886696 0.229884 0.000000
0.917407 0.229352 0.000000
0.948050 0.228840 0.000000
0.978628 0.228347 0.000000
1.000000 0.246282 0.124224
1.000000 0.297909 0.230006
0.000000 0.280049 0.000000
0.035003 0.280026 0.000000
0.069982 0.279927 0.000000
0.104899 0.279731 0.000000
0.139712 0.279424 0.000000
0.174379 0.279006 0.000000
0.208861 0.278481 0.000000
0.243126 0.277858 0.000000
0.277153 0.277153 0.000000
0.310928 0.276380 0.000000
0.344447 0.275558 0.000000
0.377712 0.274700 0.000000
0.410733 0.273822 0.000000
0.443520 0.272935 0.000000
0.476088 0.272050 0.000000
0.508451 0.271174 0.000000
0.540626 0.270313 0.000000
0.572625 0.269471 0.000000
0.604465 0.268651 0.000000
0.636156 0.267855 0.000000
0.667711 0.267084 0.000000
0.699141 0.266339 0.000000
0.730454 0.265620 0.000000
0.761660 0.264925 0.000000
0.792767 0.264256 0.000000
0.823780 0.263610 0.000000
0.854707 0.262987 0.000000
0.885552 0.262386 0.000000
0.916321 0.261806 0.000000
0.947018 0.261246 0.000000
0.977646 0.260706 0.000000
1.000000 0.274090 0.120831
1.000000 0.319515 0.231525
0.000000 0.311525 0.000000
0.034612 0.311507 0.000000
0.069206 0.311429 0.000000
0.103757 0.311272 0.000000
0.138234 0.311026 0.000000
0.172604 0.310687 0.000000
0.206837 0.310255 0.000000
0.240906 0.309737 0.000000
0.274791 0.309139 0.000000
0.308474 0.308474 0.000000
0.341946 0.307752 0.000000
0.375204 0.306985 0.000000
0.408249 0.306187 0.000000
0.441085 0.305366 0.000000
0.473720 0.304534 0.000000
0.506163 0.303698 0.000000
0.538425 0.302864 0.000000
0.570517 0.302038 0.000000
0.602450 0.301225 0.000000
0.634235 0.300427 0.000000
0.665882 0.299647 0.000000
0.697400 0.298886 0.000000
0.728799 0.298145 0.000000
0.760086 0.297425 0.000000
0.791269 0.296726 0.000000
0.822355 0.296048 0.000000
0.853351 0.295391 0.000000
0.884260 0.294753 0.000000
0.915090 0.294136 0.000000
0.945843 0.293538 0.000000
0.976526 0.292958 0.000000
1.000000 0.302724 0.116310
1.000000 0.342804 0.233283
0.000000 0.342842 0.000000
0.034283 0.342827 0.000000
0.068553 0.342763 0.000000
0.102790 0.342635 0.000000
0.136973 0.342432 0.000000
0.171076 0.342152 0.000000
0.205075 0.341792 0.000000
0.238948 0.341354 0.000000
0.272675 0.340844 0.000000
0.306241 0.340268 0.000000
0.339635 0.339635 0.000000
0.372848 0.338953 0.000000
0.405878 0.338232 0.000000
0.438725 0.337481 0.000000
0.471391 0.336708 0.000000
0.503881 0.335921 0.000000
0.536203 0.335127 0.000000
0.568363 0.334331 0.000000
0.600369 0.333539 0.000000
0.632231 0.332753 0.000000
0.663956 0.331978 0.000000
0.695553 0.331215 0.000000
0.727028 0.330467 0.000000
0.758391 0.329735 0.000000
0.789647 0.329020 0.000000
0.820803 0.328321 0.000000
0.851865 0.327640 0.000000
0.882839 0.326977 0.000000
0.913729 0.326332 0.000000
0.944541 0.325704 0.000000
0.975278 0.325093 0.000000
1.000000 0.331933 0.110250
1.000000 0.367428 0.235271
0.000000 0.374015 0.000000
0.034000 0.374002 0.000000
0.067991 0.373949 0.000000
0.101957 0.373842 0.000000
0.135881 0.373672 0.000000
0.169744 0.373436 0.000000
0.203526 0.373131 0.000000
0.237209 0.372757 0.000000
0.270776 0.372317 0.000000
0.304213 0.371816 0.000000
0.337508 0.371259 0.000000
0.370652 0.370652 0.000000
0.403639 0.370003 0.000000
0.436467 0.369319 0.000000
0.469135 0.368606 0.000000
0.501645 0.367873 0.000000
0.534000 0.367125 0.000000
0.566204 0.366367 0.000000
0.598263 0.365605 0.000000
0.630184 0.364843 0.000000
0.661971 0.364084 0.000000
0.693633 0.363332 0.000000
0.725175 0.362588 0.000000
0.756605 0.361854 0.000000
0.787927 0.361133 0.000000
0.819148 0.360425 0.000000
0.850273 0.359731 0.000000
0.881308 0.359052 0.000000
0.912258 0.358387 0.000000
0.943126 0.357737 0.000000
0.973918 0.357103 0.000000
1.000000 0.361549 0.101979
1.000000 0.393108 0.237475
0.000000 0.405057 0.000000
0.033754 0.405046 0.000000
0.067500 0.405001 0.000000
0.101227 0.404910 0.000000
0.134922 0.404766 0.000000
0.168568 0.404563 0.000000
0.202151 0.404301 0.000000
0.235654 0.403978 0.000000
0.269064 0.403596 0.000000
0.302367 0.403157 0.000000
0.335553 0.402664 0.000000
0.368613 0.402123 0.000000
0.401539 0.401539 0.000000
0.434326 0.400917 0.000000
0.466974 0.400263 0.000000
0.499480 0.399584 0.000000
0.531845 0.398884 0.000000
0.564072 0.398169 0.000000
0.596164 0.397443 0.000000
0.628125 0.396711 0.000000
0.659960 0.395976 0.000000
0.691673 0.395242 0.000000
0.723270 0.394511 0.000000
0.754755 0.393785 0.000000
0.786135 0.393068 0.000000
0.817414 0.392359 0.000000
0.848597 0.391660 0.000000
0.879688 0.390973 0.000000
0.910693 0.390297 0.000000
0.941616 0.389634 0.000000
0.972460 0.388984 0.000000
1.000000 0.391454 0.090226
1.000000 0.419619 0.239879
0.000000 0.435980 0.000000
0.033536 0.435971 0.000000
0.067066 0.435932 0.000000
0.100581 0.435853 0.000000
0.134070 0.435728 0.000000
0.167520 0.435553 0.000000
0.200919 0.435325 0.000000
0.234254 0.435043 0.000000
0.267513 0.434708 0.000000
0.300683 0.434320 0.000000
0.333756 0.433882 0.000000
0.366721 0.433398 0.000000
0.399573 0.432871 0.000000
0.432306 0.432306 0.000000
0.464915 0.431707 0.000000
0.497399 0.431079 0.000000
0.529757 0.430428 0.000000
0.561989 0.429756 0.000000
0.594096 0.429070 0.000000
0.626082 0.428372 0.000000
0.657948 0.427666 0.000000
0.689698 0.426956 0.000000
0.721337 0.426245 0.000000
0.752868 0.425534 0.000000
0.784296 0.424827 0.000000
0.815624 0.424124 0.000000
0.846857 0.423429 0.000000
0.877999 0.422740 0.000000
0.909055 0.422061 0.000000
0.940028 0.421392 0.000000
0.970921 0.420732 0.000000
1.000000 0.421567 0.071886
1.000000 0.446786 0.242466
0.000000 0.466792 0.000000
0.033342 0.466784 0.000000
0.066679 0.466750 0.000000
0.100003 0.466681 0.000000
0.133306 0.466572 0.000000
0.166578 0.466419 0.000000
0.199808 0.466219 0.000000
0.232985 0.465971 0.000000
0.266099 0.465674 0.000000
0.299140 0.465329 0.000000
0.332099 0.464938 0.000000
0.364966 0.464503 0.000000
0.397737 0.464026 0.000000
0.430404 0.463512 0.000000
0.462963 0.462963 0.000000
0.495411 0.462384 0.000000
0.527747 0.461778 0.000000
0.559968 0.461150 0.000000
0.592076 0.460504 0.000000
0.624071 0.459842 0.000000
0.655955 0.459168 0.000000
0.687730 0.458486 0.000000
0.719398 0.457799 0.000000
0.750964 0.457108 0.000000
0.782429 0.456417 0.000000
0.813798 0.455727 0.000000
0.845074 0.455040 0.000000
0.876260 0.454357 0.000000
0.907360 0.453680 0.000000
0.938378 0.453010 0.000000
0.969316 0.452348 0.000000
1.000000 0.451829 0.028783
1.000000 0.474471 0.245216
0.000000 0.497502 0.000000
0.033166 0.497495 0.000000
0.066329 0.497465 0.000000
0.099481 0.497404 0.000000
0.132616 0.497308 0.000000
0.165724 0.497173 0.000000
0.198798 0.496995 0.000000
0.231828 0.496775 0.000000
0.264805 0.496510 0.000000
0.297721 0.496202 0.000000
0.330567 0.495850 0.000000
0.363335 0.495457 0.000000
0.396020 0.495025 0.000000
0.428615 0.494556 0.000000
0.461116 0.494052 0.000000
0.493518 0.493518 0.000000
0.525820 0.492956 0.000000
0.558019 0.492370 0.000000
0.590115 0.491762 0.000000
0.622107 0.491137 0.000000
0.653996 0.490497 0.000000
0.685783 0.489845 0.000000
0.717470 0.489184 0.000000
0.749060 0.488517 0.000000
0.780553 0.487846 0.000000
0.811954 0.487172 0.000000
0.843264 0.486498 0.000000
0.874487 0.485826 0.000000
0.905625 0.485156 0.000000
0.936682 0.484491 0.000000
0.967660 0.483830 0.000000
0.998563 0.483176 0.000000
1.000000 0.502566 0.248108
0.000000 0.528117 0.000000
0.033007 0.528110 0.000000
0.066010 0.528084 0.000000
0.099006 0.528030 0.000000
0.131986 0.527944 0.000000
0.164945 0.527823 0.000000
0.197874 0.527665 0.000000
0.230767 0.527468 0.000000
0.263615 0.527230 0.000000
0.296411 0.526952 0.000000
0.329147 0.526635 0.000000
0.361817 0.526279 0.000000
0.394414 0.525885 0.000000
0.426933 0.525456 0.000000
0.459369 0.524993 0.000000
0.491718 0.524500 0.000000
0.523978 0.523978 0.000000
0.556145 0.523431 0.000000
0.588219 0.522861 0.000000
0.620198 0.522272 0.000000
0.652082 0.521665 0.000000
0.683871 0.521045 0.000000
0.715567 0.520412 0.000000
0.747170 0.519770 0.000000
0.778682 0.519122 0.000000
0.810106 0.518468 0.000000
0.841442 0.517811 0.000000
0.872694 0.517152 0.000000
0.903864 0.516494 0.000000
0.934954 0.515837 0.000000
0.965967 0.515182 0.000000
0.996905 0.514532 0.000000
1.000000 0.530985 0.251125
0.000000 0.558642 0.000000
0.032861 0.558636 0.000000
0.065719 0.558613 0.000000
0.098570 0.558564 0.000000
0.131409 0.558487 0.000000
0.164229 0.558379 0.000000
0.197025 0.558236 0.000000
0.229789 0.558058 0.000000
0.262515 0.557844 0.000000
0.295196 0.557593 0.000000
0.327826 0.557304 0.000000
0.360399 0.556980 0.000000
0.392908 0.556620 0.000000
0.425350 0.556226 0.000000
0.457718 0.555800 0.000000
0.490009 0.555344 0.000000
0.522221 0.554859 0.000000
0.554349 0.554349 0.000000
0.586392 0.553815 0.000000
0.618349 0.553260 0.000000
0.650219 0.552686 0.000000
0.682002 0.552097 0.000000
0.713697 0.551493 0.000000
0.745306 0.550878 0.000000
0.776828 0.550253 0.000000
0.808267 0.549621 0.000000
0.839622 0.548983 0.000000
0.870896 0.548342 0.000000
0.902090 0.547698 0.000000
0.933207 0.547053 0.000000
0.964249 0.546408 0.000000
0.995218 0.545765 0.000000
1.000000 0.559661 0.254245
0.000000 0.589083 0.000000
0.032727 0.589078 0.000000
0.065451 0.589057 0.000000
0.098169 0.589013 0.000000
0.130876 0.588944 0.000000
0.163568 0.588846 0.000000
0.196239 0.588717 0.000000
0.228883 0.588555 0.000000
0.261494 0.588361 0.000000
0.294066 0.588132 0.000000
0.326594 0.587869 0.000000
0.359072 0.587572 0.000000
0.391495 0.587242 0.000000
0.423858 0.586880 0.000000
0.456156 0.586486 0.000000
0.488386 0.586064 0.000000
0.520545 0.585613 0.000000
0.552629 0.585136 0.000000
0.584636 0.584636 0.000000
0.616565 0.584114 0.000000
0.648413 0.583572 0.000000
0.680181 0.583013 0.000000
0.711868 0.582438 0.000000
0.743474 0.581850 0.000000
0.775000 0.581250 0.000000
0.806446 0.580641 0.000000
0.837812 0.580024 0.000000
0.869101 0.579401 0.000000
0.900314 0.578773 0.000000
0.931452 0.578143 0.000000
0.962517 0.577510 0.000000
0.993511 0.576877 0.000000
1.000000 0.588539 0.257452
0.000000 0.619446 0.000000
0.032602 0.619441 0.000000
0.065202 0.619422 0.000000
0.097797 0.619382 0.000000
0.130383 0.619319 0.000000
0.162955 0.619230 0.000000
0.195509 0.619112 0.000000
0.228040 0.618965 0.000000
0.260542 0.618787 0.000000
0.293011 0.618578 0.000000
0.325441 0.618337 0.000000
0.357827 0.618065 0.000000
0.390165 0.617761 0.000000
0.422450 0.617427 0.000000
0.454678 0.617062 0.000000
0.486845 0.616670 0.000000
0.518947 0.616250 0.000000
0.550983 0.615805 0.000000
0.582950 0.615336 0.000000
0.614844 0.614844 0.000000
0.646666 0.614333 0.000000
0.678413 0.613802 0.000000
0.710086 0.613256 0.000000
0.741683 0.612694 0.000000
0.773204 0.612120 0.000000
0.804650 0.611534 0.000000
0.836022 0.610939 0.000000
0.867320 0.610336 0.000000
0.898545 0.609727 0.000000
0.929698 0.609112 0.000000
0.960781 0.608494 0.000000
0.991794 0.607874 0.000000
1.000000 0.617578 0.260728
0.000000 0.649733 0.000000
0.032486 0.649729 0.000000
0.064971 0.649711 0.000000
0.097451 0.649675 0.000000
0.129923 0.649617 0.000000
0.162384 0.649536 0.000000
0.194828 0.649428 0.000000
0.227253 0.649293 0.000000
0.259652 0.649130 0.000000
0.292022 0.648938 0.000000
0.324358 0.648717 0.000000
0.356656 0.648466 0.000000
0.388911 0.648185 0.000000
0.421119 0.647875 0.000000
0.453276 0.647537 0.000000
0.485379 0.647172 0.000000
0.517424 0.646781 0.000000
0.549409 0.646364 0.000000
0.581331 0.645924 0.000000
0.613188 0.645461 0.000000
0.644978 0.644978 0.000000
0.676699 0.644476 0.000000
0.708352 0.643956 0.000000
0.739934 0.643421 0.000000
0.771445 0.642871 0.000000
0.802887 0.642309 0.000000
0.834257 0.641737 0.000000
0.865558 0.641154 0.000000
0.896790 0.640564 0.000000
0.927952 0.639967 0.000000
0.959048 0.639365 0.000000
0.990076 0.638759 0.000000
1.000000 0.646742 0.264058
0.000000 0.679950 0.000000
0.032378 0.679946 0.000000
0.064755 0.679929 0.000000
0.097128 0.679896 0.000000
0.129494 0.679843 0.000000
0.161850 0.679768 0.000000
0.194191 0.679669 0.000000
0.226515 0.679545 0.000000
0.258817 0.679395 0.000000
0.291093 0.679218 0.000000
0.323340 0.679013 0.000000
0.355552 0.678781 0.000000
0.387726 0.678521 0.000000
0.419859 0.678234 0.000000
0.451946 0.677919 0.000000
0.483985 0.677579 0.000000
0.515972 0.677213 0.000000
0.547904 0.676822 0.000000
0.579779 0.676408 0.000000
0.611594 0.675973 0.000000
0.643349 0.675516 0.000000
0.675040 0.675040 0.000000
0.706668 0.674547 0.000000
0.738231 0.674037 0.000000
0.769728 0.673512 0.000000
0.801159 0.672973 0.000000
0.832523 0.672423 0.000000
0.863822 0.671862 0.000000
0.895055 0.671291 0.000000
0.926222 0.670713 0.000000
0.957325 0.670127 0.000000
0.988363 0.669537 0.000000
1.000000 0.676003 0.267427
0.000000 0.710098 0.000000
0.032277 0.710095 0.000000
0.064553 0.710080 0.000000
0.096825 0.710049 0.000000
0.129091 0.710000 0.000000
0.161348 0.709931 0.000000
0.193593 0.709840 0.000000
0.225822 0.709725 0.000000
0.258031 0.709586 0.000000
0.290218 0.709422 0.000000
0.322379 0.709233 0.000000
0.354509 0.709017 0.000000
0.386605 0.708776 0.000000
0.418664 0.708508 0.000000
0.450682 0.708215 0.000000
0.482657 0.707896 0.000000
0.514584 0.707554 0.000000
0.546463 0.707187 0.000000
0.578289 0.706798 0.000000
0.610062 0.706387 0.000000
0.641778 0.705956 0.000000
0.673436 0.705505 0.000000
0.705036 0.705036 0.000000
0.736575 0.704550 0.000000
0.768053 0.704049 0.000000
0.799469 0.703533 0.000000
0.830823 0.703004 0.000000
0.862115 0.702464 0.000000
0.893345 0.701914 0.000000
0.924512 0.701354 0.000000
0.955618 0.700786 0.000000
0.986662 0.700212 0.000000
1.000000 0.705338 0.270822
0.000000 0.740183 0.000000
0.032182 0.740179 0.000000
0.064362 0.740165 0.000000
0.096540 0.740137 0.000000
0.128712 0.740092 0.000000
0.160876 0.740028 0.000000
0.193029 0.739943 0.000000
0.225168 0.739837 0.000000
0.257290 0.739708 0.000000
0.289391 0.739556 0.000000
0.321469 0.739380 0.000000
0.353520 0.739179 0.000000
0.385541 0.738954 0.000000
0.417528 0.738704 0.000000
0.449479 0.738430 0.000000
0.481390 0.738131 0.000000
0.513259 0.737810 0.000000
0.545083 0.737465 0.000000
0.576860 0.737099 0.000000
0.608587 0.736711 0.000000
0.640263 0.736303 0.000000
0.671886 0.735875 0.000000
0.703454 0.735430 0.000000
0.734967 0.734967 0.000000
0.766422 0.734488 0.000000
0.797820 0.733995 0.000000
0.829160 0.733488 0.000000
0.860441 0.732968 0.000000
0.891663 0.732438 0.000000
0.922826 0.731897 0.000000
0.953931 0.731347 0.000000
0.984977 0.730789 0.000000
1.000000 0.734730 0.274232
0.000000 0.770206 0.000000
0.032092 0.770203 0.000000
0.064182 0.770190 0.000000
0.096270 0.770163 0.000000
0.128354 0.770121 0.000000
0.160429 0.770062 0.000000
0.192496 0.769983 0.000000
0.224550 0.769884 0.000000
0.256588 0.769764 0.000000
0.288608 0.769622 0.000000
0.320607 0.769458 0.000000
0.352582 0.769270 0.000000
0.384530 0.769060 0.000000
0.416447 0.768826 0.000000
0.448332 0.768569 0.000000
0.480181 0.768289 0.000000
0.511991 0.767987 0.000000
0.543761 0.767663 0.000000
0.575488 0.767317 0.000000
0.607169 0.766950 0.000000
0.638803 0.766564 0.000000
0.670388 0.766158 0.000000
0.701923 0.765735 0.000000
0.733406 0.765294 0.000000
0.764837 0.764837 0.000000
0.796213 0.764364 0.000000
0.827535 0.763878 0.000000
0.858802 0.763379 0.000000
0.890013 0.762868 0.000000
0.921168 0.762346 0.000000
0.952268 0.761814 0.000000
0.983312 0.761274 0.000000
1.000000 0.764163 0.277646
0.000000 0.800170 0.000000
0.032007 0.800167 0.000000
0.064012 0.800155 0.000000
0.096016 0.800130 0.000000
0.128015 0.800091 0.000000
0.160007 0.800035 0.000000
0.191991 0.799962 0.000000
0.223964 0.799870 0.000000
0.255922 0.799758 0.000000
0.287865 0.799625 0.000000
0.319788 0.799471 0.000000
0.351690 0.799296 0.000000
0.383567 0.799098 0.000000
0.415417 0.798879 0.000000
0.447237 0.798638 0.000000
0.479025 0.798375 0.000000
0.510778 0.798090 0.000000
0.542493 0.797784 0.000000
0.574169 0.797457 0.000000
0.605804 0.797110 0.000000
0.637395 0.796744 0.000000
0.668942 0.796359 0.000000
0.700441 0.795956 0.000000
0.731893 0.795536 0.000000
0.763295 0.795099 0.000000
0.794648 0.794648 0.000000
0.825949 0.794182 0.000000
0.857198 0.793702 0.000000
0.888395 0.793210 0.000000
0.919540 0.792707 0.000000
0.950631 0.792193 0.000000
0.981670 0.791669 0.000000
1.000000 0.793625 0.281056
0.000000 0.830077 0.000000
0.031926 0.830074 0.000000
0.063851 0.830063 0.000000
0.095774 0.830040 0.000000
0.127693 0.830003 0.000000
0.159606 0.829951 0.000000
0.191511 0.829883 0.000000
0.223407 0.829796 0.000000
0.255290 0.829691 0.000000
0.287158 0.829567 0.000000
0.319009 0.829423 0.000000
0.350840 0.829258 0.000000
0.382649 0.829073 0.000000
0.414433 0.828867 0.000000
0.446191 0.828640 0.000000
0.477918 0.828392 0.000000
0.509614 0.828123 0.000000
0.541276 0.827834 0.000000
0.572902 0.827525 0.000000
0.604490 0.827196 0.000000
0.636038 0.826849 0.000000
0.667544 0.826483 0.000000
0.699007 0.826099 0.000000
0.730425 0.825698 0.000000
0.761798 0.825281 0.000000
