correction_luts/flat_lift.cube
# Lifts shadows for a softer, more open look
# Strength: 1.0
# Color model: linear-light tone (v2)
TITLE "Flat Lift - Softer Shadows"
LUT_3D_SIZE 33
0.027349 0.027349 0.027349
0.089682 0.000000 0.000000
0.125867 0.000000 0.000000
0.161155 0.000000 0.000000
0.195778 0.000000 0.000000
0.229873 0.000000 0.000000
0.263533 0.000000 0.000000
0.296821 0.000000 0.000000
0.329788 0.000000 0.000000
0.362470 0.000000 0.000000
0.394897 0.000000 0.000000
0.427094 0.000000 0.000000
0.459081 0.000000 0.000000
0.490875 0.000000 0.000000
0.522492 0.000000 0.000000
0.553942 0.000000 0.000000
0.585238 0.000000 0.000000
0.616389 0.000000 0.000000
0.647404 0.000000 0.000000
0.678289 0.000000 0.000000
0.709053 0.000000 0.000000
0.739702 0.000000 0.000000
0.770240 0.000000 0.000000
0.800673 0.000000 0.000000
0.831006 0.000000 0.000000
0.861244 0.000000 0.000000
0.891389 0.000000 0.000000
0.921445 0.000000 0.000000
0.951417 0.000000 0.000000
0.981306 0.000000 0.000000
1.000000 0.128447 0.128447
1.000000 0.222822 0.222822
1.000000 0.282097 0.282097
0.000000 0.068526 0.000000
0.065174 0.065174 0.000000
0.115675 0.057837 0.000000
0.156283 0.052094 0.000000
0.193058 0.048265 0.000000
0.228170 0.045634 0.000000
0.262375 0.043729 0.000000
0.295985 0.042284 0.000000
0.329156 0.041145 0.000000
0.361976 0.040220 0.000000
0.394500 0.039450 0.000000
0.426767 0.038797 0.000000
0.458807 0.038234 0.000000
0.490642 0.037742 0.000000
0.522291 0.037306 0.000000
0.553767 0.036918 0.000000
0.585084 0.036568 0.000000
0.616252 0.036250 0.000000
0.647281 0.035960 0.000000
0.678179 0.035694 0.000000
0.708953 0.035448 0.000000
0.739610 0.035220 0.000000
0.770156 0.035007 0.000000
0.800596 0.034809 0.000000
0.830935 0.034622 0.000000
0.861178 0.034447 0.000000
0.891327 0.034282 0.000000
0.921388 0.034125 0.000000
0.951363 0.033977 0.000000
0.981256 0.033836 0.000000
1.000000 0.130350 0.128284
1.000000 0.223694 0.222822
1.000000 0.282715 0.282147
0.000000 0.103840 0.000000
0.051532 0.103063 0.000000
0.100284 0.100284 0.000000
0.144516 0.096344 0.000000
0.184762 0.092381 0.000000
0.222289 0.088916 0.000000
0.258085 0.086028 0.000000
0.292754 0.083644 0.000000
0.326648 0.081662 0.000000
0.359978 0.079995 0.000000
0.392873 0.078575 0.000000
0.425417 0.077349 0.000000
0.457669 0.076278 0.000000
0.489668 0.075334 0.000000
0.521447 0.074492 0.000000
0.553029 0.073737 0.000000
0.584432 0.073054 0.000000
0.615672 0.072432 0.000000
0.646761 0.071862 0.000000
0.677710 0.071338 0.000000
0.708528 0.070853 0.000000
0.739222 0.070402 0.000000
0.769801 0.069982 0.000000
0.800269 0.069589 0.000000
0.830633 0.069219 0.000000
0.860897 0.068872 0.000000
0.891066 0.068544 0.000000
0.921145 0.068233 0.000000
0.951136 0.067938 0.000000
0.981043 0.067658 0.000000
1.000000 0.138082 0.127577
1.000000 0.227371 0.222825
1.000000 0.285337 0.282357
0.000000 0.138119 0.000000
0.045933 0.137800 0.000000
0.091019 0.136529 0.000000
0.134332 0.134332 0.000000
0.175425 0.131569 0.000000
0.214396 0.128638 0.000000
0.251616 0.125808 0.000000
0.287484 0.123208 0.000000
0.322334 0.120875 0.000000
0.356411 0.118804 0.000000
0.389888 0.116966 0.000000
0.422890 0.115334 0.000000
0.455505 0.113876 0.000000
0.487797 0.112568 0.000000
0.519813 0.111388 0.000000
0.551589 0.110318 0.000000
0.583154 0.109341 0.000000
0.614529 0.108446 0.000000
0.645732 0.107622 0.000000
0.676779 0.106860 0.000000
0.707681 0.106152 0.000000
0.738448 0.105493 0.000000
0.769090 0.104876 0.000000
0.799614 0.104297 0.000000
0.830027 0.103753 0.000000
0.860334 0.103240 0.000000
0.890542 0.102755 0.000000
0.920655 0.102295 0.000000
0.950677 0.101858 0.000000
0.980612 0.101443 0.000000
1.000000 0.152149 0.126110
1.000000 0.234591 0.222825
1.000000 0.290558 0.282783
0.000000 0.171664 0.000000
0.042873 0.171494 0.000000
0.085394 0.170789 0.000000
0.127105 0.169473 0.000000
0.167637 0.167637 0.000000
0.206817 0.165454 0.000000
0.244664 0.163109 0.000000
0.281312 0.160750 0.000000
0.316940 0.158470 0.000000
0.351724 0.156322 0.000000
0.385818 0.154327 0.000000
0.419344 0.152489 0.000000
0.452400 0.150800 0.000000
0.485063 0.149250 0.000000
0.517392 0.147826 0.000000
0.549432 0.146515 0.000000
0.581222 0.145305 0.000000
0.612788 0.144186 0.000000
0.644157 0.143146 0.000000
0.675345 0.142178 0.000000
0.706371 0.141274 0.000000
0.737246 0.140428 0.000000
0.767983 0.139633 0.000000
0.798591 0.138885 0.000000
0.829078 0.138180 0.000000
0.859452 0.137512 0.000000
0.889719 0.136880 0.000000
0.919885 0.136279 0.000000
0.949955 0.135708 0.000000
0.979933 0.135163 0.000000
1.000000 0.171442 0.123673
1.000000 0.245517 0.222816
1.000000 0.298636 0.283459
0.000000 0.204646 0.000000
0.040908 0.204540 0.000000
0.081638 0.204095 0.000000
0.121942 0.203236 0.000000
0.161578 0.201973 0.000000
0.200372 0.200372 0.000000
0.238238 0.198532 0.000000
0.275174 0.196553 0.000000
0.311238 0.194523 0.000000
0.346515 0.192509 0.000000
0.381105 0.190553 0.000000
0.415100 0.188682 0.000000
0.448585 0.186910 0.000000
0.481631 0.185243 0.000000
0.514298 0.183678 0.000000
0.546636 0.182212 0.000000
0.578686 0.180839 0.000000
0.610482 0.179553 0.000000
0.642051 0.178347 0.000000
0.673416 0.177215 0.000000
0.704597 0.176149 0.000000
0.735610 0.175145 0.000000
0.766470 0.174198 0.000000
0.797187 0.173301 0.000000
0.827771 0.172452 0.000000
0.858233 0.171647 0.000000
0.888579 0.170881 0.000000
0.918816 0.170151 0.000000
0.948950 0.169455 0.000000
0.978988 0.168791 0.000000
1.000000 0.194484 0.119998
1.000000 0.259940 0.222779
1.000000 0.309597 0.284407
0.000000 0.237169 0.000000
0.039516 0.237097 0.000000
0.078930 0.236791 0.000000
0.118095 0.236189 0.000000
0.156853 0.235279 0.000000
0.195069 0.234083 0.000000
0.232647 0.232647 0.000000
0.269537 0.231032 0.000000
0.305733 0.229300 0.000000
0.341261 0.227507 0.000000
0.376167 0.225700 0.000000
0.410507 0.223913 0.000000
0.444340 0.222170 0.000000
0.477722 0.220487 0.000000
0.510705 0.218873 0.000000
0.543334 0.217334 0.000000
0.575650 0.215869 0.000000
0.607687 0.214478 0.000000
0.639473 0.213158 0.000000
0.671034 0.211905 0.000000
0.702391 0.210717 0.000000
0.733563 0.209589 0.000000
0.764565 0.208518 0.000000
0.795411 0.207498 0.000000
0.826112 0.206528 0.000000
0.856679 0.205603 0.000000
0.887121 0.204720 0.000000
0.917445 0.203877 0.000000
0.947659 0.203070 0.000000
0.977769 0.202297 0.000000
1.000000 0.220056 0.114700
1.000000 0.277436 0.222689
1.000000 0.323299 0.285641
0.000000 0.269308 0.000000
0.038465 0.269255 0.000000
0.076866 0.269031 0.000000
0.115109 0.268587 0.000000
0.153088 0.267903 0.000000
0.190703 0.266984 0.000000
0.227871 0.265850 0.000000
0.264535 0.264535 0.000000
0.300662 0.263079 0.000000
0.336245 0.261524 0.000000
0.371297 0.259908 0.000000
0.405842 0.258263 0.000000
0.439916 0.256617 0.000000
0.473555 0.254991 0.000000
0.506798 0.253399 0.000000
0.539682 0.251852 0.000000
0.572242 0.250356 0.000000
0.604508 0.248915 0.000000
0.636509 0.247531 0.000000
0.668268 0.246204 0.000000
0.699808 0.244933 0.000000
0.731147 0.243716 0.000000
0.762303 0.242551 0.000000
0.793290 0.241436 0.000000
0.824120 0.240368 0.000000
0.854806 0.239346 0.000000
0.885356 0.238365 0.000000
0.915780 0.237424 0.000000
0.946086 0.236521 0.000000
0.976280 0.235654 0.000000
1.000000 0.247306 0.107158
1.000000 0.297497 0.222509
1.000000 0.339490 0.287169
0.000000 0.301115 0.000000
0.037634 0.301075 0.000000
0.075226 0.300904 0.000000
0.112711 0.300562 0.000000
0.150015 0.300030 0.000000
0.187065 0.299305 0.000000
0.223795 0.298393 0.000000
0.260150 0.297314 0.000000
0.296092 0.296092 0.000000
0.331599 0.294755 0.000000
0.366664 0.293332 0.000000
0.401294 0.291850 0.000000
0.435502 0.290335 0.000000
0.469311 0.288807 0.000000
0.502744 0.287282 0.000000
0.535829 0.285776 0.000000
0.568592 0.284296 0.000000
0.601060 0.282852 0.000000
0.633255 0.281447 0.000000
0.665201 0.280084 0.000000
0.696917 0.278767 0.000000
0.728423 0.277494 0.000000
0.759734 0.276267 0.000000
0.790865 0.275084 0.000000
0.821831 0.273944 0.000000
0.852641 0.272845 0.000000
0.883308 0.271787 0.000000
0.913840 0.270767 0.000000
0.944245 0.269784 0.000000
0.974533 0.268837 0.000000
1.000000 0.275675 0.096233
1.000000 0.319633 0.222188
1.000000 0.357863 0.288990
0.000000 0.332633 0.000000
0.036956 0.332601 0.000000
0.073881 0.332466 0.000000
0.110731 0.332194 0.000000
0.147453 0.331768 0.000000
0.183990 0.331182 0.000000
0.220290 0.330436 0.000000
0.256308 0.329539 0.000000
0.292006 0.328507 0.000000
0.327358 0.327358 0.000000
0.362347 0.326113 0.000000
0.396968 0.324792 0.000000
0.431223 0.323417 0.000000
0.465120 0.322006 0.000000
0.498673 0.320576 0.000000
0.531899 0.319140 0.000000
0.564818 0.317710 0.000000
0.597447 0.316296 0.000000
0.629807 0.314904 0.000000
0.661916 0.313539 0.000000
0.693793 0.312207 0.000000
0.725453 0.310908 0.000000
0.756913 0.309646 0.000000
0.788185 0.308420 0.000000
0.819284 0.307232 0.000000
0.850221 0.306080 0.000000
0.881006 0.304964 0.000000
0.911650 0.303883 0.000000
0.942160 0.302837 0.000000
0.972546 0.301824 0.000000
1.000000 0.304794 0.079324
1.000000 0.343413 0.221661
1.000000 0.378099 0.291098
0.000000 0.363893 0.000000
0.036387 0.363867 0.000000
0.072751 0.363757 0.000000
0.109060 0.363535 0.000000
0.145274 0.363186 0.000000
0.181351 0.362702 0.000000
0.217249 0.362081 0.000000
0.252929 0.361327 0.000000
0.288358 0.360448 0.000000
0.323511 0.359456 0.000000
0.358367 0.358367 0.000000
0.392914 0.357194 0.000000
0.427146 0.355955 0.000000
0.461066 0.354666 0.000000
0.494676 0.353340 0.000000
0.527988 0.351992 0.000000
0.561012 0.350632 0.000000
0.593761 0.349271 0.000000
0.626250 0.347917 0.000000
0.658494 0.346576 0.000000
0.690508 0.345254 0.000000
0.722305 0.343955 0.000000
0.753898 0.342681 0.000000
0.785302 0.341436 0.000000
0.816527 0.340220 0.000000
0.847586 0.339034 0.000000
0.878487 0.337880 0.000000
0.909242 0.336756 0.000000
0.939858 0.335663 0.000000
0.970343 0.334601 0.000000
1.000000 0.334423 0.045652
1.000000 0.368479 0.220844
1.000000 0.399900 0.293480
0.000000 0.394920 0.000000
0.035900 0.394899 0.000000
0.071783 0.394807 0.000000
0.107624 0.394622 0.000000
0.143393 0.394331 0.000000
0.179056 0.393924 0.000000
0.214581 0.393399 0.000000
0.249936 0.392757 0.000000
0.285092 0.392001 0.000000
0.320024 0.391141 0.000000
0.354713 0.390184 0.000000
0.389143 0.389143 0.000000
0.423306 0.388030 0.000000
0.457196 0.386858 0.000000
0.490813 0.385639 0.000000
0.524161 0.384385 0.000000
0.557245 0.383106 0.000000
0.590073 0.381812 0.000000
0.622656 0.380512 0.000000
0.655003 0.379212 0.000000
0.687127 0.377920 0.000000
0.719037 0.376639 0.000000
0.750747 0.375374 0.000000
0.782267 0.374128 0.000000
0.813607 0.372903 0.000000
0.844779 0.371703 0.000000
0.875790 0.370526 0.000000
0.906650 0.369376 0.000000
0.937368 0.368252 0.000000
0.967952 0.367154 0.000000
0.998407 0.366083 0.000000
1.000000 0.394547 0.219633
1.000000 0.422995 0.296120
0.000000 0.425737 0.000000
0.035477 0.425719 0.000000
0.070940 0.425641 0.000000
0.106371 0.425485 0.000000
0.141746 0.425237 0.000000
0.177038 0.424890 0.000000
0.212220 0.424440 0.000000
0.247267 0.423887 0.000000
0.282154 0.423231 0.000000
0.316859 0.422479 0.000000
0.351363 0.421635 0.000000
0.385650 0.420709 0.000000
0.419709 0.419709 0.000000
0.453533 0.418646 0.000000
0.487117 0.417529 0.000000
0.520461 0.416369 0.000000
0.553566 0.415175 0.000000
0.586437 0.413955 0.000000
0.619078 0.412719 0.000000
0.651498 0.411472 0.000000
0.683704 0.410222 0.000000
0.715705 0.408974 0.000000
0.747510 0.407733 0.000000
0.779129 0.406502 0.000000
0.810569 0.405284 0.000000
0.841840 0.404083 0.000000
0.872951 0.402901 0.000000
0.903910 0.401738 0.000000
0.934724 0.400596 0.000000
0.965401 0.399476 0.000000
0.995948 0.398379 0.000000
1.000000 0.421392 0.217894
1.000000 0.447152 0.298999
0.000000 0.456361 0.000000
0.035103 0.456345 0.000000
0.070197 0.456279 0.000000
0.105264 0.456144 0.000000
0.140286 0.455930 0.000000
0.175243 0.455631 0.000000
0.210111 0.455241 0.000000
0.244870 0.454759 0.000000
0.279499 0.454185 0.000000
0.313977 0.453522 0.000000
0.348288 0.452774 0.000000
0.382417 0.451947 0.000000
0.416351 0.451047 0.000000
0.450083 0.450083 0.000000
0.483604 0.449061 0.000000
0.516913 0.447991 0.000000
0.550007 0.446881 0.000000
0.582888 0.445738 0.000000
0.615558 0.444570 0.000000
0.648022 0.443384 0.000000
0.680284 0.442185 0.000000
0.712352 0.440980 0.000000
0.744231 0.439773 0.000000
0.775929 0.438568 0.000000
0.807453 0.437370 0.000000
0.838810 0.436181 0.000000
0.870009 0.435004 0.000000
0.901055 0.433842 0.000000
0.931957 0.432694 0.000000
0.962721 0.431564 0.000000
0.993352 0.430453 0.000000
1.000000 0.448839 0.215459
1.000000 0.472175 0.302094
0.000000 0.486807 0.000000
0.034771 0.486793 0.000000
0.069534 0.486735 0.000000
0.104275 0.486618 0.000000
0.138981 0.486432 0.000000
0.173632 0.486170 0.000000
0.208212 0.485829 0.000000
0.242702 0.485405 0.000000
0.277085 0.484898 0.000000
0.311342 0.484310 0.000000
0.345459 0.483643 0.000000
0.379422 0.482901 0.000000
0.413219 0.482089 0.000000
0.446841 0.481213 0.000000
0.480279 0.480279 0.000000
0.513529 0.479293 0.000000
0.546587 0.478263 0.000000
0.579452 0.477196 0.000000
0.612125 0.476097 0.000000
0.644607 0.474974 0.000000
0.676902 0.473831 0.000000
0.709013 0.472675 0.000000
0.740945 0.471510 0.000000
0.772703 0.470341 0.000000
0.804294 0.469171 0.000000
0.835722 0.468005 0.000000
0.866995 0.466843 0.000000
0.898118 0.465691 0.000000
0.929097 0.464549 0.000000
0.959939 0.463419 0.000000
0.990648 0.462303 0.000000
1.000000 0.476753 0.212107
1.000000 0.497901 0.305384
0.000000 0.517088 0.000000
0.034472 0.517076 0.000000
0.068937 0.517025 0.000000
0.103384 0.516922 0.000000
0.137802 0.516758 0.000000
0.172176 0.516527 0.000000
0.206490 0.516225 0.000000
0.240730 0.515849 0.000000
0.274879 0.515399 0.000000
0.308924 0.514874 0.000000
0.342850 0.514276 0.000000
0.376645 0.513607 0.000000
0.410297 0.512872 0.000000
0.443797 0.512074 0.000000
0.477137 0.511218 0.000000
0.510311 0.510311 0.000000
0.543313 0.509356 0.000000
0.576143 0.508361 0.000000
0.608797 0.507331 0.000000
0.641276 0.506271 0.000000
0.673582 0.505186 0.000000
0.705716 0.504083 0.000000
0.737682 0.502965 0.000000
0.769483 0.501836 0.000000
0.801123 0.500702 0.000000
0.832607 0.499564 0.000000
0.863940 0.498427 0.000000
0.895126 0.497292 0.000000
0.926172 0.496164 0.000000
0.957082 0.495042 0.000000
0.987860 0.493930 0.000000
1.000000 0.505028 0.207545
1.000000 0.524197 0.308843
0.000000 0.547216 0.000000
0.034200 0.547205 0.000000
0.068395 0.547160 0.000000
0.102575 0.547068 0.000000
0.136731 0.546923 0.000000
0.170849 0.546717 0.000000
0.204918 0.546448 0.000000
0.238924 0.546112 0.000000
0.272854 0.545709 0.000000
0.306696 0.545237 0.000000
0.340436 0.544698 0.000000
0.374064 0.544093 0.000000
0.407568 0.543424 0.000000
0.440940 0.542696 0.000000
0.474172 0.541911 0.000000
0.507257 0.541074 0.000000
0.540189 0.540189 0.000000
0.572966 0.539262 0.000000
0.605585 0.538298 0.000000
0.638043 0.537300 0.000000
0.670342 0.536274 0.000000
0.702482 0.535224 0.000000
0.734463 0.534155 0.000000
0.766290 0.533071 0.000000
0.797964 0.531976 0.000000
0.829488 0.530873 0.000000
0.860868 0.529765 0.000000
0.892105 0.528655 0.000000
0.923206 0.527546 0.000000
0.954173 0.526440 0.000000
0.985012 0.525340 0.000000
1.000000 0.533584 0.201359
1.000000 0.550951 0.312447
0.000000 0.577200 0.000000
0.033952 0.577190 0.000000
0.067900 0.577150 0.000000
0.101836 0.577068 0.000000
0.135750 0.576937 0.000000
0.169633 0.576753 0.000000
0.203475 0.576512 0.000000
0.237263 0.576210 0.000000
0.270986 0.575846 0.000000
0.304634 0.575419 0.000000
0.338195 0.574931 0.000000
0.371658 0.574381 0.000000
0.405015 0.573771 0.000000
0.438256 0.573103 0.000000
0.471373 0.572382 0.000000
0.504361 0.571609 0.000000
0.537213 0.570789 0.000000
0.569925 0.569925 0.000000
0.602494 0.569022 0.000000
0.634917 0.568084 0.000000
0.667194 0.567115 0.000000
0.699324 0.566119 0.000000
0.731306 0.565100 0.000000
0.763143 0.564062 0.000000
0.794836 0.563009 0.000000
0.826388 0.561944 0.000000
0.857800 0.560869 0.000000
0.889077 0.559789 0.000000
0.920221 0.558705 0.000000
0.951235 0.557621 0.000000
0.982124 0.556537 0.000000
1.000000 0.562357 0.192940
1.000000 0.578075 0.316175
0.000000 0.607049 0.000000
0.033724 0.607040 0.000000
0.067445 0.607004 0.000000
0.101155 0.606930 0.000000
0.134847 0.606812 0.000000
0.168513 0.606646 0.000000
0.202143 0.606428 0.000000
0.235727 0.606155 0.000000
0.269255 0.605825 0.000000
0.302719 0.605437 0.000000
0.336107 0.604992 0.000000
0.369411 0.604490 0.000000
0.402621 0.603931 0.000000
0.435730 0.603319 0.000000
0.468730 0.602653 0.000000
0.501615 0.601938 0.000000
0.534379 0.601177 0.000000
0.567018 0.600372 0.000000
0.599527 0.599527 0.000000
0.631903 0.598645 0.000000
0.664145 0.597731 0.000000
0.696252 0.596787 0.000000
0.728222 0.595818 0.000000
0.760057 0.594827 0.000000
0.791756 0.593817 0.000000
0.823321 0.592791 0.000000
0.854755 0.591753 0.000000
0.886058 0.590706 0.000000
0.917235 0.589651 0.000000
0.948286 0.588591 0.000000
0.979216 0.587529 0.000000
1.000000 0.591300 0.181314
1.000000 0.605494 0.320003
0.000000 0.636771 0.000000
0.033514 0.636763 0.000000
0.067024 0.636730 0.000000
0.100526 0.636663 0.000000
0.134012 0.636556 0.000000
0.167475 0.636405 0.000000
0.200907 0.636207 0.000000
0.234300 0.635958 0.000000
0.267645 0.635658 0.000000
0.300934 0.635304 0.000000
0.334156 0.634897 0.000000
0.367305 0.634436 0.000000
0.400373 0.633923 0.000000
0.433350 0.633358 0.000000
0.466232 0.632743 0.000000
0.499011 0.632081 0.000000
0.531682 0.631372 0.000000
0.564240 0.630621 0.000000
0.596681 0.629830 0.000000
0.629001 0.629001 0.000000
0.661199 0.628139 0.000000
0.693272 0.627246 0.000000
0.725219 0.626325 0.000000
0.757039 0.625380 0.000000
0.788733 0.624414 0.000000
0.820302 0.623429 0.000000
0.851745 0.622429 0.000000
0.883065 0.621416 0.000000
0.914263 0.620393 0.000000
0.945341 0.619361 0.000000
0.976302 0.618325 0.000000
1.000000 0.620379 0.164740
1.000000 0.633147 0.323912
0.000000 0.666373 0.000000
0.033318 0.666366 0.000000
0.066634 0.666336 0.000000
0.099941 0.666275 0.000000
0.133235 0.666177 0.000000
0.166510 0.666039 0.000000
0.199757 0.665858 0.000000
0.232971 0.665631 0.000000
0.266142 0.665355 0.000000
0.299264 0.665031 0.000000
0.332329 0.664657 0.000000
0.365328 0.664233 0.000000
0.398256 0.663760 0.000000
0.431105 0.663238 0.000000
0.463868 0.662668 0.000000
0.496539 0.662052 0.000000
0.529114 0.661392 0.000000
0.561587 0.660690 0.000000
0.593954 0.659948 0.000000
0.626211 0.659170 0.000000
0.658356 0.658356 0.000000
0.690387 0.657511 0.000000
0.722301 0.656638 0.000000
0.754098 0.655738 0.000000
0.785777 0.654814 0.000000
0.817338 0.653870 0.000000
0.848781 0.652909 0.000000
0.880107 0.651931 0.000000
0.911318 0.650941 0.000000
0.942414 0.649940 0.000000
0.973397 0.648931 0.000000
1.000000 0.649567 0.139426
1.000000 0.660987 0.327882
0.000000 0.695861 0.000000
0.033136 0.695854 0.000000
0.066269 0.695827 0.000000
0.099396 0.695771 0.000000
0.132511 0.695681 0.000000
0.165608 0.695555 0.000000
0.198682 0.695388 0.000000
0.231726 0.695179 0.000000
0.264734 0.694926 0.000000
0.297698 0.694628 0.000000
0.330611 0.694283 0.000000
0.363467 0.693891 0.000000
0.396259 0.693453 0.000000
0.428981 0.692969 0.000000
0.461627 0.692440 0.000000
0.494190 0.691867 0.000000
0.526667 0.691251 0.000000
0.559052 0.690594 0.000000
0.591341 0.689898 0.000000
0.623530 0.689165 0.000000
0.655617 0.688398 0.000000
0.687598 0.687598 0.000000
0.719472 0.686769 0.000000
0.751237 0.685912 0.000000
0.782893 0.685031 0.000000
0.814437 0.684127 0.000000
0.845872 0.683204 0.000000
0.877195 0.682263 0.000000
0.908409 0.681307 0.000000
0.939514 0.680338 0.000000
0.970511 0.679358 0.000000
1.000000 0.678849 0.092254
1.000000 0.688972 0.331897
0.000000 0.725240 0.000000
0.032965 0.725234 0.000000
0.065928 0.725209 0.000000
0.098885 0.725157 0.000000
0.131832 0.725075 0.000000
0.164763 0.724959 0.000000
0.197674 0.724805 0.000000
0.230558 0.724612 0.000000
0.263410 0.724379 0.000000
0.296224 0.724103 0.000000
0.328993 0.723784 0.000000
0.361710 0.723421 0.000000
0.394371 0.723014 0.000000
0.426970 0.722564 0.000000
0.459500 0.722071 0.000000
0.491956 0.721536 0.000000
0.524334 0.720960 0.000000
0.556629 0.720344 0.000000
0.588837 0.719690 0.000000
0.620955 0.719000 0.000000
0.652978 0.718276 0.000000
0.684904 0.717519 0.000000
0.716732 0.716732 0.000000
0.748459 0.715917 0.000000
0.780083 0.715076 0.000000
0.811605 0.714212 0.000000
0.843022 0.713326 0.000000
0.874336 0.712422 0.000000
0.905545 0.711500 0.000000
0.936651 0.710563 0.000000
0.967655 0.709613 0.000000
0.998556 0.708653 0.000000
1.000000 0.717069 0.335940
0.000000 0.754517 0.000000
0.032805 0.754511 0.000000
0.065608 0.754488 0.000000
0.098405 0.754440 0.000000
0.131194 0.754364 0.000000
0.163969 0.754256 0.000000
0.196725 0.754114 0.000000
0.229459 0.753936 0.000000
0.262163 0.753719 0.000000
0.294833 0.753463 0.000000
0.327464 0.753167 0.000000
0.360049 0.752830 0.000000
0.392583 0.752451 0.000000
0.425061 0.752032 0.000000
0.457478 0.751571 0.000000
0.489829 0.751071 0.000000
0.522108 0.750531 0.000000
0.554313 0.749953 0.000000
0.586438 0.749337 0.000000
0.618480 0.748687 0.000000
0.650437 0.748002 0.000000
0.682304 0.747286 0.000000
0.714080 0.746539 0.000000
0.745763 0.745763 0.000000
0.777351 0.744961 0.000000
0.808843 0.744135 0.000000
0.840237 0.743286 0.000000
0.871533 0.742417 0.000000
0.902732 0.741530 0.000000
0.933832 0.740625 0.000000
0.964835 0.739707 0.000000
0.995740 0.738775 0.000000
1.000000 0.745250 0.339999
0.000000 0.783695 0.000000
0.032654 0.783690 0.000000
0.065306 0.783668 0.000000
0.097953 0.783624 0.000000
0.130592 0.783553 0.000000
0.163219 0.783453 0.000000
0.195830 0.783321 0.000000
0.228420 0.783155 0.000000
0.260985 0.782954 0.000000
0.293518 0.782716 0.000000
0.326016 0.782440 0.000000
0.358474 0.782125 0.000000
0.390886 0.781772 0.000000
0.423247 0.781380 0.000000
0.455553 0.780949 0.000000
0.487800 0.780480 0.000000
0.519982 0.779973 0.000000
0.552095 0.779429 0.000000
0.584137 0.778849 0.000000
0.616103 0.778235 0.000000
0.647990 0.777588 0.000000
0.679795 0.776909 0.000000
0.711516 0.776199 0.000000
0.743150 0.775461 0.000000
0.774697 0.774697 0.000000
0.806153 0.773907 0.000000
0.837518 0.773094 0.000000
0.868792 0.772259 0.000000
0.899973 0.771405 0.000000
0.931061 0.770533 0.000000
0.962057 0.769645 0.000000
0.992960 0.768743 0.000000
1.000000 0.773494 0.344060
0.000000 0.812778 0.000000
0.032511 0.812774 0.000000
0.065020 0.812753 0.000000
0.097525 0.812712 0.000000
0.130023 0.812646 0.000000
0.162511 0.812553 0.000000
0.194983 0.812430 0.000000
0.227437 0.812276 0.000000
0.259868 0.812088 0.000000
0.292272 0.811866 0.000000
0.324643 0.811608 0.000000
0.356978 0.811314 0.000000
0.389272 0.810983 0.000000
0.421520 0.810616 0.000000
0.453718 0.810212 0.000000
0.485862 0.809771 0.000000
0.517948 0.809294 0.000000
0.549972 0.808782 0.000000
0.581929 0.808235 0.000000
0.613817 0.807654 0.000000
0.645633 0.807041 0.000000
0.677374 0.806397 0.000000
0.709036 0.805723 0.000000
0.740619 0.805021 0.000000
0.772119 0.804291 0.000000
0.803536 0.803536 0.000000
0.834868 0.802757 0.000000
0.866113 0.801957 0.000000
0.897272 0.801135 0.000000
0.928343 0.800295 0.000000
0.959326 0.799438 0.000000
0.990221 0.798565 0.000000
1.000000 0.801781 0.348114
0.000000 0.841772 0.000000
0.032376 0.841768 0.000000
0.064750 0.841749 0.000000
0.097120 0.841710 0.000000
0.129484 0.841649 0.000000
0.161839 0.841562 0.000000
0.194180 0.841447 0.000000
0.226504 0.841302 0.000000
0.258808 0.841126 0.000000
0.291087 0.840918 0.000000
0.323337 0.840677 0.000000
0.355554 0.840401 0.000000
0.387734 0.840091 0.000000
0.419873 0.839746 0.000000
0.451966 0.839366 0.000000
0.484010 0.838951 0.000000
0.516001 0.838502 0.000000
0.547935 0.838019 0.000000
0.579809 0.837502 0.000000
0.611619 0.836953 0.000000
0.643363 0.836371 0.000000
0.675037 0.835760 0.000000
0.706639 0.835119 0.000000
0.738167 0.834450 0.000000
0.769618 0.833753 0.000000
