correction_luts/golden_warm.cube
# Strong warm/golden shift for a golden-hour look
# g_gain stays at 1.0 to avoid green cast
# Higher gain_ramp protects highlights from pink cast
# Strength: 1.0
# Color model: linear-light tone (v2)
TITLE "Golden Warm - Strong Golden Tone"
LUT_3D_SIZE 33
0.000000 0.000000 0.000000
0.032878 0.000000 0.000000
0.069010 0.000000 0.000000
0.108398 0.000000 0.000000
0.150000 0.000000 0.000000
0.187500 0.000000 0.000000
0.225000 0.000000 0.000000
0.262500 0.000000 0.000000
0.300000 0.000000 0.000000
0.337500 0.000000 0.000000
0.375000 0.000000 0.000000
0.412500 0.000000 0.000000
0.450000 0.000000 0.000000
0.487500 0.000000 0.000000
0.525000 0.000000 0.000000
0.562500 0.000000 0.000000
0.600000 0.000000 0.000000
0.637500 0.000000 0.000000
0.675000 0.000000 0.000000
0.712500 0.000000 0.000000
0.750000 0.000000 0.000000
0.787500 0.000000 0.000000
0.825000 0.000000 0.000000
0.862500 0.000000 0.000000
0.900000 0.000000 0.000000
0.937500 0.000000 0.000000
0.975000 0.000000 0.000000
1.000000 0.000000 0.000000
1.000000 0.000000 0.000000
1.000000 0.000000 0.000000
1.000000 0.000000 0.000000
1.000000 0.000000 0.000000
1.000000 0.000000 0.000000
0.000000 0.031250 0.000000
0.032878 0.031250 0.000000
0.069010 0.031250 0.000000
0.108398 0.031250 0.000000
0.150000 0.031250 0.000000
0.187500 0.031250 0.000000
0.225000 0.031250 0.000000
0.262500 0.031250 0.000000
0.300000 0.031250 0.000000
0.337500 0.031250 0.000000
0.375000 0.031250 0.000000
0.412500 0.031250 0.000000
0.450000 0.031250 0.000000
0.487500 0.031250 0.000000
0.525000 0.031250 0.000000
0.562500 0.031250 0.000000
0.600000 0.031250 0.000000
0.637500 0.031250 0.000000
0.675000 0.031250 0.000000
0.712500 0.031250 0.000000
0.750000 0.031250 0.000000
0.787500 0.031250 0.000000
0.825000 0.031250 0.000000
0.862500 0.031250 0.000000
0.900000 0.031250 0.000000
0.937500 0.031250 0.000000
0.975000 0.031250 0.000000
1.000000 0.031250 0.000000
1.000000 0.031250 0.000000
1.000000 0.031250 0.000000
1.000000 0.031250 0.000000
1.000000 0.031250 0.000000
1.000000 0.031250 0.000000
0.000000 0.062500 0.000000
0.034505 0.062500 0.000000
0.069010 0.062500 0.000000
0.108398 0.062500 0.000000
0.150000 0.062500 0.000000
0.187500 0.062500 0.000000
0.225000 0.062500 0.000000
0.262500 0.062500 0.000000
0.300000 0.062500 0.000000
0.337500 0.062500 0.000000
0.375000 0.062500 0.000000
0.412500 0.062500 0.000000
0.450000 0.062500 0.000000
0.487500 0.062500 0.000000
0.525000 0.062500 0.000000
0.562500 0.062500 0.000000
0.600000 0.062500 0.000000
0.637500 0.062500 0.000000
0.675000 0.062500 0.000000
0.712500 0.062500 0.000000
0.750000 0.062500 0.000000
0.787500 0.062500 0.000000
0.825000 0.062500 0.000000
0.862500 0.062500 0.000000
0.900000 0.062500 0.000000
0.937500 0.062500 0.000000
0.975000 0.062500 0.000000
1.000000 0.062500 0.000000
1.000000 0.062500 0.000000
1.000000 0.062500 0.000000
1.000000 0.062500 0.000000
1.000000 0.062500 0.000000
1.000000 0.062500 0.000000
0.000000 0.093750 0.000000
0.036133 0.093750 0.000000
0.072266 0.093750 0.000000
0.108398 0.093750 0.000000
0.150000 0.093750 0.000000
0.187500 0.093750 0.000000
0.225000 0.093750 0.000000
0.262500 0.093750 0.000000
0.300000 0.093750 0.000000
0.337500 0.093750 0.000000
0.375000 0.093750 0.000000
0.412500 0.093750 0.000000
0.450000 0.093750 0.000000
0.487500 0.093750 0.000000
0.525000 0.093750 0.000000
0.562500 0.093750 0.000000
0.600000 0.093750 0.000000
0.637500 0.093750 0.000000
0.675000 0.093750 0.000000
0.712500 0.093750 0.000000
0.750000 0.093750 0.000000
0.787500 0.093750 0.000000
0.825000 0.093750 0.000000
0.862500 0.093750 0.000000
0.900000 0.093750 0.000000
0.937500 0.093750 0.000000
0.975000 0.093750 0.000000
1.000000 0.093750 0.000000
1.000000 0.093750 0.000000
1.000000 0.093750 0.000000
1.000000 0.093750 0.000000
1.000000 0.093750 0.000000
1.000000 0.093750 0.000000
0.000000 0.125000 0.000000
0.037500 0.125000 0.000000
0.075000 0.125000 0.000000
0.112500 0.125000 0.000000
0.150000 0.125000 0.000000
0.187500 0.125000 0.000000
0.225000 0.125000 0.000000
0.262500 0.125000 0.000000
0.300000 0.125000 0.000000
0.337500 0.125000 0.000000
0.375000 0.125000 0.000000
0.412500 0.125000 0.000000
0.450000 0.125000 0.000000
0.487500 0.125000 0.000000
0.525000 0.125000 0.000000
0.562500 0.125000 0.000000
0.600000 0.125000 0.000000
0.637500 0.125000 0.000000
0.675000 0.125000 0.000000
0.712500 0.125000 0.000000
0.750000 0.125000 0.000000
0.787500 0.125000 0.000000
0.825000 0.125000 0.000000
0.862500 0.125000 0.000000
0.900000 0.125000 0.000000
0.937500 0.125000 0.000000
0.975000 0.125000 0.000000
1.000000 0.125000 0.000000
1.000000 0.125000 0.000000
1.000000 0.125000 0.000000
1.000000 0.125000 0.000000
1.000000 0.125000 0.000000
1.000000 0.125000 0.000000
0.000000 0.156250 0.000000
0.037500 0.156250 0.000000
0.075000 0.156250 0.000000
0.112500 0.156250 0.000000
0.150000 0.156250 0.000000
0.187500 0.156250 0.000000
0.225000 0.156250 0.000000
0.262500 0.156250 0.000000
0.300000 0.156250 0.000000
0.337500 0.156250 0.000000
0.375000 0.156250 0.000000
0.412500 0.156250 0.000000
0.450000 0.156250 0.000000
0.487500 0.156250 0.000000
0.525000 0.156250 0.000000
0.562500 0.156250 0.000000
0.600000 0.156250 0.000000
0.637500 0.156250 0.000000
0.675000 0.156250 0.000000
0.712500 0.156250 0.000000
0.750000 0.156250 0.000000
0.787500 0.156250 0.000000
0.825000 0.156250 0.000000
0.862500 0.156250 0.000000
0.900000 0.156250 0.000000
0.937500 0.156250 0.000000
0.975000 0.156250 0.000000
1.000000 0.156250 0.000000
1.000000 0.156250 0.000000
1.000000 0.156250 0.000000
1.000000 0.156250 0.000000
1.000000 0.156250 0.000000
1.000000 0.156250 0.000000
0.000000 0.187500 0.000000
0.037500 0.187500 0.000000
0.075000 0.187500 0.000000
0.112500 0.187500 0.000000
0.150000 0.187500 0.000000
0.187500 0.187500 0.000000
0.225000 0.187500 0.000000
0.262500 0.187500 0.000000
0.300000 0.187500 0.000000
0.337500 0.187500 0.000000
0.375000 0.187500 0.000000
0.412500 0.187500 0.000000
0.450000 0.187500 0.000000
0.487500 0.187500 0.000000
0.525000 0.187500 0.000000
0.562500 0.187500 0.000000
0.600000 0.187500 0.000000
0.637500 0.187500 0.000000
0.675000 0.187500 0.000000
0.712500 0.187500 0.000000
0.750000 0.187500 0.000000
0.787500 0.187500 0.000000
0.825000 0.187500 0.000000
0.862500 0.187500 0.000000
0.900000 0.187500 0.000000
0.937500 0.187500 0.000000
0.975000 0.187500 0.000000
1.000000 0.187500 0.000000
1.000000 0.187500 0.000000
1.000000 0.187500 0.000000
1.000000 0.187500 0.000000
1.000000 0.187500 0.000000
1.000000 0.187500 0.000000
0.000000 0.218750 0.000000
0.037500 0.218750 0.000000
0.075000 0.218750 0.000000
0.112500 0.218750 0.000000
0.150000 0.218750 0.000000
0.187500 0.218750 0.000000
0.225000 0.218750 0.000000
0.262500 0.218750 0.000000
0.300000 0.218750 0.000000
0.337500 0.218750 0.000000
0.375000 0.218750 0.000000
0.412500 0.218750 0.000000
0.450000 0.218750 0.000000
0.487500 0.218750 0.000000
0.525000 0.218750 0.000000
0.562500 0.218750 0.000000
0.600000 0.218750 0.000000
0.637500 0.218750 0.000000
0.675000 0.218750 0.000000
0.712500 0.218750 0.000000
0.750000 0.218750 0.000000
0.787500 0.218750 0.000000
0.825000 0.218750 0.000000
0.862500 0.218750 0.000000
0.900000 0.218750 0.000000
0.937500 0.218750 0.000000
0.975000 0.218750 0.000000
1.000000 0.218750 0.000000
1.000000 0.218750 0.000000
1.000000 0.218750 0.000000
1.000000 0.218750 0.000000
1.000000 0.218750 0.000000
1.000000 0.218750 0.000000
0.000000 0.250000 0.000000
0.037500 0.250000 0.000000
0.075000 0.250000 0.000000
0.112500 0.250000 0.000000
0.150000 0.250000 0.000000
0.187500 0.250000 0.000000
0.225000 0.250000 0.000000
0.262500 0.250000 0.000000
0.300000 0.250000 0.000000
0.337500 0.250000 0.000000
0.375000 0.250000 0.000000
0.412500 0.250000 0.000000
0.450000 0.250000 0.000000
0.487500 0.250000 0.000000
0.525000 0.250000 0.000000
0.562500 0.250000 0.000000
0.600000 0.250000 0.000000
0.637500 0.250000 0.000000
0.675000 0.250000 0.000000
0.712500 0.250000 0.000000
0.750000 0.250000 0.000000
0.787500 0.250000 0.000000
0.825000 0.250000 0.000000
0.862500 0.250000 0.000000
0.900000 0.250000 0.000000
0.937500 0.250000 0.000000
0.975000 0.250000 0.000000
1.000000 0.250000 0.000000
1.000000 0.250000 0.000000
1.000000 0.250000 0.000000
1.000000 0.250000 0.000000
1.000000 0.250000 0.000000
1.000000 0.250000 0.000000
0.000000 0.281250 0.000000
0.037500 0.281250 0.000000
0.075000 0.281250 0.000000
0.112500 0.281250 0.000000
0.150000 0.281250 0.000000
0.187500 0.281250 0.000000
0.225000 0.281250 0.000000
0.262500 0.281250 0.000000
0.300000 0.281250 0.000000
0.337500 0.281250 0.000000
0.375000 0.281250 0.000000
0.412500 0.281250 0.000000
0.450000 0.281250 0.000000
0.487500 0.281250 0.000000
0.525000 0.281250 0.000000
0.562500 0.281250 0.000000
0.600000 0.281250 0.000000
0.637500 0.281250 0.000000
0.675000 0.281250 0.000000
0.712500 0.281250 0.000000
0.750000 0.281250 0.000000
0.787500 0.281250 0.000000
0.825000 0.281250 0.000000
0.862500 0.281250 0.000000
0.900000 0.281250 0.000000
0.937500 0.281250 0.000000
0.975000 0.281250 0.000000
1.000000 0.281250 0.000000
1.000000 0.281250 0.000000
1.000000 0.281250 0.000000
1.000000 0.281250 0.000000
1.000000 0.281250 0.000000
1.000000 0.281250 0.000000
0.000000 0.312500 0.000000
0.037500 0.312500 0.000000
0.075000 0.312500 0.000000
0.112500 0.312500 0.000000
0.150000 0.312500 0.000000
0.187500 0.312500 0.000000
0.225000 0.312500 0.000000
0.262500 0.312500 0.000000
0.300000 0.312500 0.000000
0.337500 0.312500 0.000000
0.375000 0.312500 0.000000
0.412500 0.312500 0.000000
0.450000 0.312500 0.000000
0.487500 0.312500 0.000000
0.525000 0.312500 0.000000
0.562500 0.312500 0.000000
0.600000 0.312500 0.000000
0.637500 0.312500 0.000000
0.675000 0.312500 0.000000
0.712500 0.312500 0.000000
0.750000 0.312500 0.000000
0.787500 0.312500 0.000000
0.825000 0.312500 0.000000
0.862500 0.312500 0.000000
0.900000 0.312500 0.000000
0.937500 0.312500 0.000000
0.975000 0.312500 0.000000
1.000000 0.312500 0.000000
1.000000 0.312500 0.000000
1.000000 0.312500 0.000000
1.000000 0.312500 0.000000
1.000000 0.312500 0.000000
1.000000 0.312500 0.000000
0.000000 0.343750 0.000000
0.037500 0.343750 0.000000
0.075000 0.343750 0.000000
0.112500 0.343750 0.000000
0.150000 0.343750 0.000000
0.187500 0.343750 0.000000
0.225000 0.343750 0.000000
0.262500 0.343750 0.000000
0.300000 0.343750 0.000000
0.337500 0.343750 0.000000
0.375000 0.343750 0.000000
0.412500 0.343750 0.000000
0.450000 0.343750 0.000000
0.487500 0.343750 0.000000
0.525000 0.343750 0.000000
0.562500 0.343750 0.000000
0.600000 0.343750 0.000000
0.637500 0.343750 0.000000
0.675000 0.343750 0.000000
0.712500 0.343750 0.000000
0.750000 0.343750 0.000000
0.787500 0.343750 0.000000
0.825000 0.343750 0.000000
0.862500 0.343750 0.000000
0.900000 0.343750 0.000000
0.937500 0.343750 0.000000
0.975000 0.343750 0.000000
1.000000 0.343750 0.000000
1.000000 0.343750 0.000000
1.000000 0.343750 0.000000
1.000000 0.343750 0.000000
1.000000 0.343750 0.000000
1.000000 0.343750 0.000000
0.000000 0.375000 0.000000
0.037500 0.375000 0.000000
0.075000 0.375000 0.000000
0.112500 0.375000 0.000000
0.150000 0.375000 0.000000
0.187500 0.375000 0.000000
0.225000 0.375000 0.000000
0.262500 0.375000 0.000000
0.300000 0.375000 0.000000
0.337500 0.375000 0.000000
0.375000 0.375000 0.000000
0.412500 0.375000 0.000000
0.450000 0.375000 0.000000
0.487500 0.375000 0.000000
0.525000 0.375000 0.000000
0.562500 0.375000 0.000000
0.600000 0.375000 0.000000
0.637500 0.375000 0.000000
0.675000 0.375000 0.000000
0.712500 0.375000 0.000000
0.750000 0.375000 0.000000
0.787500 0.375000 0.000000
0.825000 0.375000 0.000000
0.862500 0.375000 0.000000
0.900000 0.375000 0.000000
0.937500 0.375000 0.000000
0.975000 0.375000 0.000000
1.000000 0.375000 0.000000
1.000000 0.375000 0.000000
1.000000 0.375000 0.000000
1.000000 0.375000 0.000000
1.000000 0.375000 0.000000
1.000000 0.375000 0.000000
0.000000 0.406250 0.000000
0.037500 0.406250 0.000000
0.075000 0.406250 0.000000
0.112500 0.406250 0.000000
0.150000 0.406250 0.000000
0.187500 0.406250 0.000000
0.225000 0.406250 0.000000
0.262500 0.406250 0.000000
0.300000 0.406250 0.000000
0.337500 0.406250 0.000000
0.375000 0.406250 0.000000
0.412500 0.406250 0.000000
0.450000 0.406250 0.000000
0.487500 0.406250 0.000000
0.525000 0.406250 0.000000
0.562500 0.406250 0.000000
0.600000 0.406250 0.000000
0.637500 0.406250 0.000000
0.675000 0.406250 0.000000
0.712500 0.406250 0.000000
0.750000 0.406250 0.000000
0.787500 0.406250 0.000000
0.825000 0.406250 0.000000
0.862500 0.406250 0.000000
0.900000 0.406250 0.000000
0.937500 0.406250 0.000000
0.975000 0.406250 0.000000
1.000000 0.406250 0.000000
1.000000 0.406250 0.000000
1.000000 0.406250 0.000000
1.000000 0.406250 0.000000
1.000000 0.406250 0.000000
1.000000 0.406250 0.000000
0.000000 0.437500 0.000000
0.037500 0.437500 0.000000
0.075000 0.437500 0.000000
0.112500 0.437500 0.000000
0.150000 0.437500 0.000000
0.187500 0.437500 0.000000
0.225000 0.437500 0.000000
0.262500 0.437500 0.000000
0.300000 0.437500 0.000000
0.337500 0.437500 0.000000
0.375000 0.437500 0.000000
0.412500 0.437500 0.000000
0.450000 0.437500 0.000000
0.487500 0.437500 0.000000
0.525000 0.437500 0.000000
0.562500 0.437500 0.000000
0.600000 0.437500 0.000000
0.637500 0.437500 0.000000
0.675000 0.437500 0.000000
0.712500 0.437500 0.000000
0.750000 0.437500 0.000000
0.787500 0.437500 0.000000
0.825000 0.437500 0.000000
0.862500 0.437500 0.000000
0.900000 0.437500 0.000000
0.937500 0.437500 0.000000
0.975000 0.437500 0.000000
1.000000 0.437500 0.000000
1.000000 0.437500 0.000000
1.000000 0.437500 0.000000
1.000000 0.437500 0.000000
1.000000 0.437500 0.000000
1.000000 0.437500 0.000000
0.000000 0.468750 0.000000
0.037500 0.468750 0.000000
0.075000 0.468750 0.000000
0.112500 0.468750 0.000000
0.150000 0.468750 0.000000
0.187500 0.468750 0.000000
0.225000 0.468750 0.000000
0.262500 0.468750 0.000000
0.300000 0.468750 0.000000
0.337500 0.468750 0.000000
0.375000 0.468750 0.000000
0.412500 0.468750 0.000000
0.450000 0.468750 0.000000
0.487500 0.468750 0.000000
0.525000 0.468750 0.000000
0.562500 0.468750 0.000000
0.600000 0.468750 0.000000
0.637500 0.468750 0.000000
0.675000 0.468750 0.000000
0.712500 0.468750 0.000000
0.750000 0.468750 0.000000
0.787500 0.468750 0.000000
0.825000 0.468750 0.000000
0.862500 0.468750 0.000000
0.900000 0.468750 0.000000
0.937500 0.468750 0.000000
0.975000 0.468750 0.000000
1.000000 0.468750 0.000000
1.000000 0.468750 0.000000
1.000000 0.468750 0.000000
1.000000 0.468750 0.000000
1.000000 0.468750 0.000000
1.000000 0.468750 0.000000
0.000000 0.500000 0.000000
0.037500 0.500000 0.000000
0.075000 0.500000 0.000000
0.112500 0.500000 0.000000
0.150000 0.500000 0.000000
0.187500 0.500000 0.000000
0.225000 0.500000 0.000000
0.262500 0.500000 0.000000
0.300000 0.500000 0.000000
0.337500 0.500000 0.000000
0.375000 0.500000 0.000000
0.412500 0.500000 0.000000
0.450000 0.500000 0.000000
0.487500 0.500000 0.000000
0.525000 0.500000 0.000000
0.562500 0.500000 0.000000
0.600000 0.500000 0.000000
0.637500 0.500000 0.000000
0.675000 0.500000 0.000000
0.712500 0.500000 0.000000
0.750000 0.500000 0.000000
0.787500 0.500000 0.000000
0.825000 0.500000 0.000000
0.862500 0.500000 0.000000
0.900000 0.500000 0.000000
0.937500 0.500000 0.000000
0.975000 0.500000 0.000000
1.000000 0.500000 0.000000
1.000000 0.500000 0.000000
1.000000 0.500000 0.000000
1.000000 0.500000 0.000000
1.000000 0.500000 0.000000
1.000000 0.500000 0.000000
0.000000 0.531250 0.000000
0.037500 0.531250 0.000000
0.075000 0.531250 0.000000
0.112500 0.531250 0.000000
0.150000 0.531250 0.000000
0.187500 0.531250 0.000000
0.225000 0.531250 0.000000
0.262500 0.531250 0.000000
0.300000 0.531250 0.000000
0.337500 0.531250 0.000000
0.375000 0.531250 0.000000
0.412500 0.531250 0.000000
0.450000 0.531250 0.000000
0.487500 0.531250 0.000000
0.525000 0.531250 0.000000
0.562500 0.531250 0.000000
0.600000 0.531250 0.000000
0.637500 0.531250 0.000000
0.675000 0.531250 0.000000
0.712500 0.531250 0.000000
0.750000 0.531250 0.000000
0.787500 0.531250 0.000000
0.825000 0.531250 0.000000
0.862500 0.531250 0.000000
0.900000 0.531250 0.000000
0.937500 0.531250 0.000000
0.975000 0.531250 0.000000
1.000000 0.531250 0.000000
1.000000 0.531250 0.000000
1.000000 0.531250 0.000000
1.000000 0.531250 0.000000
1.000000 0.531250 0.000000
1.000000 0.531250 0.000000
0.000000 0.562500 0.000000
0.037500 0.562500 0.000000
0.075000 0.562500 0.000000
0.112500 0.562500 0.000000
0.150000 0.562500 0.000000
0.187500 0.562500 0.000000
0.225000 0.562500 0.000000
0.262500 0.562500 0.000000
0.300000 0.562500 0.000000
0.337500 0.562500 0.000000
0.375000 0.562500 0.000000
0.412500 0.562500 0.000000
0.450000 0.562500 0.000000
0.487500 0.562500 0.000000
0.525000 0.562500 0.000000
0.562500 0.562500 0.000000
0.600000 0.562500 0.000000
0.637500 0.562500 0.000000
0.675000 0.562500 0.000000
0.712500 0.562500 0.000000
0.750000 0.562500 0.000000
0.787500 0.562500 0.000000
0.825000 0.562500 0.000000
0.862500 0.562500 0.000000
0.900000 0.562500 0.000000
0.937500 0.562500 0.000000
0.975000 0.562500 0.000000
1.000000 0.562500 0.000000
1.000000 0.562500 0.000000
1.000000 0.562500 0.000000
1.000000 0.562500 0.000000
1.000000 0.562500 0.000000
1.000000 0.562500 0.000000
0.000000 0.593750 0.000000
0.037500 0.593750 0.000000
0.075000 0.593750 0.000000
0.112500 0.593750 0.000000
0.150000 0.593750 0.000000
0.187500 0.593750 0.000000
0.225000 0.593750 0.000000
0.262500 0.593750 0.000000
0.300000 0.593750 0.000000
0.337500 0.593750 0.000000
0.375000 0.593750 0.000000
0.412500 0.593750 0.000000
0.450000 0.593750 0.000000
0.487500 0.593750 0.000000
0.525000 0.593750 0.000000
0.562500 0.593750 0.000000
0.600000 0.593750 0.000000
0.637500 0.593750 0.000000
0.675000 0.593750 0.000000
0.712500 0.593750 0.000000
0.750000 0.593750 0.000000
0.787500 0.593750 0.000000
0.825000 0.593750 0.000000
0.862500 0.593750 0.000000
0.900000 0.593750 0.000000
0.937500 0.593750 0.000000
0.975000 0.593750 0.000000
1.000000 0.593750 0.000000
1.000000 0.593750 0.000000
1.000000 0.593750 0.000000
1.000000 0.593750 0.000000
1.000000 0.593750 0.000000
1.000000 0.593750 0.000000
0.000000 0.625000 0.000000
0.037500 0.625000 0.000000
0.075000 0.625000 0.000000
0.112500 0.625000 0.000000
0.150000 0.625000 0.000000
0.187500 0.625000 0.000000
0.225000 0.625000 0.000000
0.262500 0.625000 0.000000
0.300000 0.625000 0.000000
0.337500 0.625000 0.000000
0.375000 0.625000 0.000000
0.412500 0.625000 0.000000
0.450000 0.625000 0.000000
0.487500 0.625000 0.000000
0.525000 0.625000 0.000000
0.562500 0.625000 0.000000
0.600000 0.625000 0.000000
0.637500 0.625000 0.000000
0.675000 0.625000 0.000000
0.712500 0.625000 0.000000
0.750000 0.625000 0.000000
0.787500 0.625000 0.000000
0.825000 0.625000 0.000000
0.862500 0.625000 0.000000
0.900000 0.625000 0.000000
0.937500 0.625000 0.000000
0.975000 0.625000 0.000000
1.000000 0.625000 0.000000
1.000000 0.625000 0.000000
1.000000 0.625000 0.000000
1.000000 0.625000 0.000000
1.000000 0.625000 0.000000
1.000000 0.625000 0.000000
0.000000 0.656250 0.000000
0.037500 0.656250 0.000000
0.075000 0.656250 0.000000
0.112500 0.656250 0.000000
0.150000 0.656250 0.000000
0.187500 0.656250 0.000000
0.225000 0.656250 0.000000
0.262500 0.656250 0.000000
0.300000 0.656250 0.000000
0.337500 0.656250 0.000000
0.375000 0.656250 0.000000
0.412500 0.656250 0.000000
0.450000 0.656250 0.000000
0.487500 0.656250 0.000000
0.525000 0.656250 0.000000
0.562500 0.656250 0.000000
0.600000 0.656250 0.000000
0.637500 0.656250 0.000000
0.675000 0.656250 0.000000
0.712500 0.656250 0.000000
0.750000 0.656250 0.000000
0.787500 0.656250 0.000000
0.825000 0.656250 0.000000
0.862500 0.656250 0.000000
0.900000 0.656250 0.000000
0.937500 0.656250 0.000000
0.975000 0.656250 0.000000
1.000000 0.656250 0.000000
1.000000 0.656250 0.000000
1.000000 0.656250 0.000000
1.000000 0.656250 0.000000
1.000000 0.656250 0.000000
1.000000 0.656250 0.000000
0.000000 0.687500 0.000000
0.037500 0.687500 0.000000
0.075000 0.687500 0.000000
0.112500 0.687500 0.000000
0.150000 0.687500 0.000000
0.187500 0.687500 0.000000
0.225000 0.687500 0.000000
0.262500 0.687500 0.000000
0.300000 0.687500 0.000000
0.337500 0.687500 0.000000
0.375000 0.687500 0.000000
0.412500 0.687500 0.000000
0.450000 0.687500 0.000000
0.487500 0.687500 0.000000
0.525000 0.687500 0.000000
0.562500 0.687500 0.000000
0.600000 0.687500 0.000000
0.637500 0.687500 0.000000
0.675000 0.687500 0.000000
0.712500 0.687500 0.000000
0.750000 0.687500 0.000000
0.787500 0.687500 0.000000
0.825000 0.687500 0.000000
0.862500 0.687500 0.000000
0.900000 0.687500 0.000000
0.937500 0.687500 0.000000
0.975000 0.687500 0.000000
1.000000 0.687500 0.000000
1.000000 0.687500 0.000000
1.000000 0.687500 0.000000
1.000000 0.687500 0.000000
1.000000 0.687500 0.000000
1.000000 0.687500 0.000000
0.000000 0.718750 0.000000
0.037500 0.718750 0.000000
0.075000 0.718750 0.000000
0.112500 0.718750 0.000000
0.150000 0.718750 0.000000
0.187500 0.718750 0.000000
0.225000 0.718750 0.000000
0.262500 0.718750 0.000000
0.300000 0.718750 0.000000
0.337500 0.718750 0.000000
0.375000 0.718750 0.000000
0.412500 0.718750 0.000000
0.450000 0.718750 0.000000
0.487500 0.718750 0.000000
0.525000 0.718750 0.000000
0.562500 0.718750 0.000000
0.600000 0.718750 0.000000
0.637500 0.718750 0.000000
0.675000 0.718750 0.000000
0.712500 0.718750 0.000000
0.750000 0.718750 0.000000
0.787500 0.718750 0.000000
0.825000 0.718750 0.000000
0.862500 0.718750 0.000000
0.900000 0.718750 0.000000
0.937500 0.718750 0.000000
0.975000 0.718750 0.000000
1.000000 0.718750 0.000000
1.000000 0.718750 0.000000
1.000000 0.718750 0.000000
1.000000 0.718750 0.000000
1.000000 0.718750 0.000000
1.000000 0.718750 0.000000
0.000000 0.750000 0.000000
0.037500 0.750000 0.000000
0.075000 0.750000 0.000000
0.112500 0.750000 0.000000
0.150000 0.750000 0.000000
0.187500 0.750000 0.000000
0.225000 0.750000 0.000000
0.262500 0.750000 0.000000
0.300000 0.750000 0.000000
0.337500 0.750000 0.000000
0.375000 0.750000 0.000000
0.412500 0.750000 0.000000
0.450000 0.750000 0.000000
0.487500 0.750000 0.000000
0.525000 0.750000 0.000000
0.562500 0.750000 0.000000
0.600000 0.750000 0.000000
0.637500 0.750000 0.000000
0.675000 0.750000 0.000000
0.712500 0.750000 0.000000
0.750000 0.750000 0.000000
0.787500 0.750000 0.000000
0.825000 0.750000 0.000000
0.862500 0.750000 0.000000
0.900000 0.750000 0.000000
0.937500 0.750000 0.000000
0.975000 0.750000 0.000000
1.000000 0.750000 0.000000
1.000000 0.750000 0.000000
1.000000 0.750000 0.000000
1.000000 0.750000 0.000000
1.000000 0.750000 0.000000
1.000000 0.750000 0.000000
0.000000 0.781250 0.000000
0.037500 0.781250 0.000000
0.075000 0.781250 0.000000
0.112500 0.781250 0.000000
0.150000 0.781250 0.000000
0.187500 0.781250 0.000000
0.225000 0.781250 0.000000
0.262500 0.781250 0.000000
0.300000 0.781250 0.000000
0.337500 0.781250 0.000000
0.375000 0.781250 0.000000
0.412500 0.781250 0.000000
0.450000 0.781250 0.000000
0.487500 0.781250 0.000000
0.525000 0.781250 0.000000
0.562500 0.781250 0.000000
0.600000 0.781250 0.000000
0.637500 0.781250 0.000000
0.675000 0.781250 0.000000
0.712500 0.781250 0.000000
0.750000 0.781250 0.000000
0.787500 0.781250 0.000000
0.825000 0.781250 0.000000
0.862500 0.781250 0.000000
0.900000 0.781250 0.000000
0.937500 0.781250 0.000000
0.975000 0.781250 0.000000
1.000000 0.781250 0.000000
1.000000 0.781250 0.000000
1.000000 0.781250 0.000000
1.000000 0.781250 0.000000
1.000000 0.781250 0.000000
1.000000 0.781250 0.000000
0.000000 0.812500 0.000000
0.037500 0.812500 0.000000
0.075000 0.812500 0.000000
0.112500 0.812500 0.000000
0.150000 0.812500 0.000000
0.187500 0.812500 0.000000
0.225000 0.812500 0.000000
0.262500 0.812500 0.000000
0.300000 0.812500 0.000000
0.337500 0.812500 0.000000
0.375000 0.812500 0.000000
0.412500 0.812500 0.000000
0.450000 0.812500 0.000000
0.487500 0.812500 0.000000
0.525000 0.812500 0.000000
0.562500 0.812500 0.000000
0.600000 0.812500 0.000000
0.637500 0.812500 0.000000
0.675000 0.812500 0.000000
0.712500 0.812500 0.000000
0.750000 0.812500 0.000000
