correction_luts/golden_warm.cube
# Strong warm/golden shift for a golden-hour look
# g_gain stays at 1.0 to avoid green cast
# Higher gain_ramp protects highlights from pink cast
# Strength: 1.0
# Color model: linear-light tone (v2)
TITLE "Golden Warm - Strong Golden Tone"
LUT_3D_SIZE 5
0.000000 0.000000 0.000000
0.300000 0.000000 0.000000
0.600000 0.000000 0.000000
0.900000 0.000000 0.000000
1.000000 0.000000 0.000000
0.000000 0.250000 0.000000
0.300000 0.250000 0.000000
0.600000 0.250000 0.000000
0.900000 0.250000 0.000000
1.000000 0.250000 0.000000
0.000000 0.500000 0.000000
0.300000 0.500000 0.000000
0.600000 0.500000 0.000000
0.900000 0.500000 0.000000
1.000000 0.500000 0.000000
0.000000 0.750000 0.000000
0.300000 0.750000 0.000000
0.600000 0.750000 0.000000
0.900000 0.750000 0.000000
1.000000 0.750000 0.000000
0.000000 1.000000 0.000000
0.300000 1.000000 0.000000
0.600000 1.000000 0.000000
0.900000 1.000000 0.000000
1.000000 1.000000 0.000000
0.000000 0.000000 0.200000
0.300000 0.000000 0.200000
0.600000 0.000000 0.200000
0.900000 0.000000 0.200000
1.000000 0.000000 0.200000
0.000000 0.250000 0.200000
0.300000 0.250000 0.200000
0.600000 0.250000 0.200000
0.900000 0.250000 0.200000
1.000000 0.250000 0.200000
0.000000 0.500000 0.200000
0.300000 0.500000 0.200000
0.600000 0.500000 0.200000
0.900000 0.500000 0.200000
1.000000 0.500000 0.200000
0.000000 0.750000 0.200000
0.300000 0.750000 0.200000
0.600000 0.750000 0.200000
0.900000 0.750000 0.200000
1.000000 0.750000 0.200000
0.000000 1.000000 0.200000
0.300000 1.000000 0.200000
0.600000 1.000000 0.200000
0.900000 1.000000 0.200000
1.000000 1.000000 0.200000
0.000000 0.000000 0.400000
0.300000 0.000000 0.400000
0.600000 0.000000 0.400000
0.900000 0.000000 0.400000
1.000000 0.000000 0.400000
0.000000 0.250000 0.400000
0.300000 0.250000 0.400000
0.600000 0.250000 0.400000
0.900000 0.250000 0.400000
1.000000 0.250000 0.400000
0.000000 0.500000 0.400000
0.300000 0.500000 0.400000
0.600000 0.500000 0.400000
0.900000 0.500000 0.400000
1.000000 0.500000 0.400000
0.000000 0.750000 0.400000
0.300000 0.750000 0.400000
0.600000 0.750000 0.400000
0.900000 0.750000 0.400000
1.000000 0.750000 0.400000
0.000000 1.000000 0.400000
0.300000 1.000000 0.400000
0.600000 1.000000 0.400000
0.900000 1.000000 0.400000
1.000000 1.000000 0.400000
0.000000 0.000000 0.600000
0.300000 0.000000 0.600000
0.600000 0.000000 0.600000
0.900000 0.000000 0.600000
1.000000 0.000000 0.600000
0.000000 0.250000 0.600000
0.300000 0.250000 0.600000
0.600000 0.250000 0.600000
0.900000 0.250000 0.600000
1.000000 0.250000 0.600000
0.000000 0.500000 0.600000
0.300000 0.500000 0.600000
0.600000 0.500000 0.600000
0.900000 0.500000 0.600000
1.000000 0.500000 0.600000
0.000000 0.750000 0.600000
0.300000 0.750000 0.600000
0.600000 0.750000 0.600000
0.900000 0.750000 0.600000
1.000000 0.750000 0.600000
0.000000 1.000000 0.600000
0.300000 1.000000 0.600000
0.600000 1.000000 0.600000
0.900000 1.000000 0.600000
1.000000 1.000000 0.600000
0.000000 0.000000 0.800000
0.300000 0.000000 0.800000
0.600000 0.000000 0.800000
0.900000 0.000000 0.800000
1.000000 0.000000 0.800000
0.000000 0.250000 0.800000
0.300000 0.250000 0.800000
0.600000 0.250000 0.800000
0.900000 0.250000 0.800000
1.000000 0.250000 0.800000
0.000000 0.500000 0.800000
0.300000 0.500000 0.800000
0.600000 0.500000 0.800000
0.900000 0.500000 0.800000
1.000000 0.500000 0.800000
0.000000 0.750000 0.800000
0.300000 0.750000 0.800000
0.600000 0.750000 0.800000
0.900000 0.750000 0.800000
1.000000 0.750000 0.800000
0.000000 1.000000 0.800000
0.300000 1.000000 0.800000
0.600000 1.000000 0.800000
0.900000 1.000000 0.800000
1.000000 1.000000 0.800000
