correction_luts/led_green_fix.cube
# Fixes green tint from cheap LED or fluorescent lighting
# Strength: 1.0
TITLE "LED Green Fix - Reduce Green Tint"
LUT_3D_SIZE 33
0.000000 0.000000 0.000000
0.031641 0.000000 0.000000
0.063750 0.000000 0.000000
0.095625 0.000000 0.000000
0.127500 0.000000 0.000000
0.159375 0.000000 0.000000
0.191250 0.000000 0.000000
0.223125 0.000000 0.000000
0.255000 0.000000 0.000000
0.286875 0.000000 0.000000
0.318750 0.000000 0.000000
0.350625 0.000000 0.000000
0.382500 0.000000 0.000000
0.414375 0.000000 0.000000
0.446250 0.000000 0.000000
0.478125 0.000000 0.000000
0.510000 0.000000 0.000000
0.541875 0.000000 0.000000
0.573750 0.000000 0.000000
0.605625 0.000000 0.000000
0.637500 0.000000 0.000000
0.669375 0.000000 0.000000
0.701250 0.000000 0.000000
0.733125 0.000000 0.000000
0.765000 0.000000 0.000000
0.796875 0.000000 0.000000
0.828750 0.000000 0.000000
0.860625 0.000000 0.000000
0.892500 0.000000 0.000000
0.924375 0.000000 0.000000
0.956250 0.000000 0.000000
0.988125 0.000000 0.000000
1.000000 0.000000 0.000000
0.000000 0.030469 0.000000
0.031641 0.030469 0.000000
0.063750 0.030000 0.000000
0.095625 0.030000 0.000000
0.127500 0.030000 0.000000
0.159375 0.030000 0.000000
0.191250 0.030000 0.000000
0.223125 0.030000 0.000000
0.255000 0.030000 0.000000
0.286875 0.030000 0.000000
0.318750 0.030000 0.000000
0.350625 0.030000 0.000000
0.382500 0.030000 0.000000
0.414375 0.030000 0.000000
0.446250 0.030000 0.000000
0.478125 0.030000 0.000000
0.510000 0.030000 0.000000
0.541875 0.030000 0.000000
0.573750 0.030000 0.000000
0.605625 0.030000 0.000000
0.637500 0.030000 0.000000
0.669375 0.030000 0.000000
0.701250 0.030000 0.000000
0.733125 0.030000 0.000000
0.765000 0.030000 0.000000
0.796875 0.030000 0.000000
0.828750 0.030000 0.000000
0.860625 0.030000 0.000000
0.892500 0.030000 0.000000
0.924375 0.030000 0.000000
0.956250 0.030000 0.000000
0.988125 0.030000 0.000000
1.000000 0.030000 0.000000
0.000000 0.060000 0.000000
0.031875 0.060000 0.000000
0.063750 0.060000 0.000000
0.095625 0.060000 0.000000
0.127500 0.060000 0.000000
0.159375 0.060000 0.000000
0.191250 0.060000 0.000000
0.223125 0.060000 0.000000
0.255000 0.060000 0.000000
0.286875 0.060000 0.000000
0.318750 0.060000 0.000000
0.350625 0.060000 0.000000
0.382500 0.060000 0.000000
0.414375 0.060000 0.000000
0.446250 0.060000 0.000000
0.478125 0.060000 0.000000
0.510000 0.060000 0.000000
0.541875 0.060000 0.000000
0.573750 0.060000 0.000000
0.605625 0.060000 0.000000
0.637500 0.060000 0.000000
0.669375 0.060000 0.000000
0.701250 0.060000 0.000000
0.733125 0.060000 0.000000
0.765000 0.060000 0.000000
0.796875 0.060000 0.000000
0.828750 0.060000 0.000000
0.860625 0.060000 0.000000
0.892500 0.060000 0.000000
0.924375 0.060000 0.000000
0.956250 0.060000 0.000000
0.988125 0.060000 0.000000
1.000000 0.060000 0.000000
0.000000 0.090000 0.000000
0.031875 0.090000 0.000000
0.063750 0.090000 0.000000
0.095625 0.090000 0.000000
0.127500 0.090000 0.000000
0.159375 0.090000 0.000000
0.191250 0.090000 0.000000
0.223125 0.090000 0.000000
0.255000 0.090000 0.000000
0.286875 0.090000 0.000000
0.318750 0.090000 0.000000
0.350625 0.090000 0.000000
0.382500 0.090000 0.000000
0.414375 0.090000 0.000000
0.446250 0.090000 0.000000
0.478125 0.090000 0.000000
0.510000 0.090000 0.000000
0.541875 0.090000 0.000000
0.573750 0.090000 0.000000
0.605625 0.090000 0.000000
0.637500 0.090000 0.000000
0.669375 0.090000 0.000000
0.701250 0.090000 0.000000
0.733125 0.090000 0.000000
0.765000 0.090000 0.000000
0.796875 0.090000 0.000000
0.828750 0.090000 0.000000
0.860625 0.090000 0.000000
0.892500 0.090000 0.000000
0.924375 0.090000 0.000000
0.956250 0.090000 0.000000
0.988125 0.090000 0.000000
1.000000 0.090000 0.000000
0.000000 0.120000 0.000000
0.031875 0.120000 0.000000
0.063750 0.120000 0.000000
0.095625 0.120000 0.000000
0.127500 0.120000 0.000000
0.159375 0.120000 0.000000
0.191250 0.120000 0.000000
0.223125 0.120000 0.000000
0.255000 0.120000 0.000000
0.286875 0.120000 0.000000
0.318750 0.120000 0.000000
0.350625 0.120000 0.000000
0.382500 0.120000 0.000000
0.414375 0.120000 0.000000
0.446250 0.120000 0.000000
0.478125 0.120000 0.000000
0.510000 0.120000 0.000000
0.541875 0.120000 0.000000
0.573750 0.120000 0.000000
0.605625 0.120000 0.000000
0.637500 0.120000 0.000000
0.669375 0.120000 0.000000
0.701250 0.120000 0.000000
0.733125 0.120000 0.000000
0.765000 0.120000 0.000000
0.796875 0.120000 0.000000
0.828750 0.120000 0.000000
0.860625 0.120000 0.000000
0.892500 0.120000 0.000000
0.924375 0.120000 0.000000
0.956250 0.120000 0.000000
0.988125 0.120000 0.000000
1.000000 0.120000 0.000000
0.000000 0.150000 0.000000
0.031875 0.150000 0.000000
0.063750 0.150000 0.000000
0.095625 0.150000 0.000000
0.127500 0.150000 0.000000
0.159375 0.150000 0.000000
0.191250 0.150000 0.000000
0.223125 0.150000 0.000000
0.255000 0.150000 0.000000
0.286875 0.150000 0.000000
0.318750 0.150000 0.000000
0.350625 0.150000 0.000000
0.382500 0.150000 0.000000
0.414375 0.150000 0.000000
0.446250 0.150000 0.000000
0.478125 0.150000 0.000000
0.510000 0.150000 0.000000
0.541875 0.150000 0.000000
0.573750 0.150000 0.000000
0.605625 0.150000 0.000000
0.637500 0.150000 0.000000
0.669375 0.150000 0.000000
0.701250 0.150000 0.000000
0.733125 0.150000 0.000000
0.765000 0.150000 0.000000
0.796875 0.150000 0.000000
0.828750 0.150000 0.000000
0.860625 0.150000 0.000000
0.892500 0.150000 0.000000
0.924375 0.150000 0.000000
0.956250 0.150000 0.000000
0.988125 0.150000 0.000000
1.000000 0.150000 0.000000
0.000000 0.180000 0.000000
0.031875 0.180000 0.000000
0.063750 0.180000 0.000000
0.095625 0.180000 0.000000
0.127500 0.180000 0.000000
0.159375 0.180000 0.000000
0.191250 0.180000 0.000000
0.223125 0.180000 0.000000
0.255000 0.180000 0.000000
0.286875 0.180000 0.000000
0.318750 0.180000 0.000000
0.350625 0.180000 0.000000
0.382500 0.180000 0.000000
0.414375 0.180000 0.000000
0.446250 0.180000 0.000000
0.478125 0.180000 0.000000
0.510000 0.180000 0.000000
0.541875 0.180000 0.000000
0.573750 0.180000 0.000000
0.605625 0.180000 0.000000
0.637500 0.180000 0.000000
0.669375 0.180000 0.000000
0.701250 0.180000 0.000000
0.733125 0.180000 0.000000
0.765000 0.180000 0.000000
0.796875 0.180000 0.000000
0.828750 0.180000 0.000000
0.860625 0.180000 0.000000
0.892500 0.180000 0.000000
0.924375 0.180000 0.000000
0.956250 0.180000 0.000000
0.988125 0.180000 0.000000
1.000000 0.180000 0.000000
0.000000 0.210000 0.000000
0.031875 0.210000 0.000000
0.063750 0.210000 0.000000
0.095625 0.210000 0.000000
0.127500 0.210000 0.000000
0.159375 0.210000 0.000000
0.191250 0.210000 0.000000
0.223125 0.210000 0.000000
0.255000 0.210000 0.000000
0.286875 0.210000 0.000000
0.318750 0.210000 0.000000
0.350625 0.210000 0.000000
0.382500 0.210000 0.000000
0.414375 0.210000 0.000000
0.446250 0.210000 0.000000
0.478125 0.210000 0.000000
0.510000 0.210000 0.000000
0.541875 0.210000 0.000000
0.573750 0.210000 0.000000
0.605625 0.210000 0.000000
0.637500 0.210000 0.000000
0.669375 0.210000 0.000000
0.701250 0.210000 0.000000
0.733125 0.210000 0.000000
0.765000 0.210000 0.000000
0.796875 0.210000 0.000000
0.828750 0.210000 0.000000
0.860625 0.210000 0.000000
0.892500 0.210000 0.000000
0.924375 0.210000 0.000000
0.956250 0.210000 0.000000
0.988125 0.210000 0.000000
1.000000 0.210000 0.000000
0.000000 0.240000 0.000000
0.031875 0.240000 0.000000
0.063750 0.240000 0.000000
0.095625 0.240000 0.000000
0.127500 0.240000 0.000000
0.159375 0.240000 0.000000
0.191250 0.240000 0.000000
0.223125 0.240000 0.000000
0.255000 0.240000 0.000000
0.286875 0.240000 0.000000
0.318750 0.240000 0.000000
0.350625 0.240000 0.000000
0.382500 0.240000 0.000000
0.414375 0.240000 0.000000
0.446250 0.240000 0.000000
0.478125 0.240000 0.000000
0.510000 0.240000 0.000000
0.541875 0.240000 0.000000
0.573750 0.240000 0.000000
0.605625 0.240000 0.000000
0.637500 0.240000 0.000000
0.669375 0.240000 0.000000
0.701250 0.240000 0.000000
0.733125 0.240000 0.000000
0.765000 0.240000 0.000000
0.796875 0.240000 0.000000
0.828750 0.240000 0.000000
0.860625 0.240000 0.000000
0.892500 0.240000 0.000000
0.924375 0.240000 0.000000
0.956250 0.240000 0.000000
0.988125 0.240000 0.000000
1.000000 0.240000 0.000000
0.000000 0.270000 0.000000
0.031875 0.270000 0.000000
0.063750 0.270000 0.000000
0.095625 0.270000 0.000000
0.127500 0.270000 0.000000
0.159375 0.270000 0.000000
0.191250 0.270000 0.000000
0.223125 0.270000 0.000000
0.255000 0.270000 0.000000
0.286875 0.270000 0.000000
0.318750 0.270000 0.000000
0.350625 0.270000 0.000000
0.382500 0.270000 0.000000
0.414375 0.270000 0.000000
0.446250 0.270000 0.000000
0.478125 0.270000 0.000000
0.510000 0.270000 0.000000
0.541875 0.270000 0.000000
0.573750 0.270000 0.000000
0.605625 0.270000 0.000000
0.637500 0.270000 0.000000
0.669375 0.270000 0.000000
0.701250 0.270000 0.000000
0.733125 0.270000 0.000000
0.765000 0.270000 0.000000
0.796875 0.270000 0.000000
0.828750 0.270000 0.000000
0.860625 0.270000 0.000000
0.892500 0.270000 0.000000
0.924375 0.270000 0.000000
0.956250 0.270000 0.000000
0.988125 0.270000 0.000000
1.000000 0.270000 0.000000
0.000000 0.300000 0.000000
0.031875 0.300000 0.000000
0.063750 0.300000 0.000000
0.095625 0.300000 0.000000
0.127500 0.300000 0.000000
0.159375 0.300000 0.000000
0.191250 0.300000 0.000000
0.223125 0.300000 0.000000
0.255000 0.300000 0.000000
0.286875 0.300000 0.000000
0.318750 0.300000 0.000000
0.350625 0.300000 0.000000
0.382500 0.300000 0.000000
0.414375 0.300000 0.000000
0.446250 0.300000 0.000000
0.478125 0.300000 0.000000
0.510000 0.300000 0.000000
0.541875 0.300000 0.000000
0.573750 0.300000 0.000000
0.605625 0.300000 0.000000
0.637500 0.300000 0.000000
0.669375 0.300000 0.000000
0.701250 0.300000 0.000000
0.733125 0.300000 0.000000
0.765000 0.300000 0.000000
0.796875 0.300000 0.000000
0.828750 0.300000 0.000000
0.860625 0.300000 0.000000
0.892500 0.300000 0.000000
0.924375 0.300000 0.000000
0.956250 0.300000 0.000000
0.988125 0.300000 0.000000
1.000000 0.300000 0.000000
0.000000 0.330000 0.000000
0.031875 0.330000 0.000000
0.063750 0.330000 0.000000
0.095625 0.330000 0.000000
0.127500 0.330000 0.000000
0.159375 0.330000 0.000000
0.191250 0.330000 0.000000
0.223125 0.330000 0.000000
0.255000 0.330000 0.000000
0.286875 0.330000 0.000000
0.318750 0.330000 0.000000
0.350625 0.330000 0.000000
0.382500 0.330000 0.000000
0.414375 0.330000 0.000000
0.446250 0.330000 0.000000
0.478125 0.330000 0.000000
0.510000 0.330000 0.000000
0.541875 0.330000 0.000000
0.573750 0.330000 0.000000
0.605625 0.330000 0.000000
0.637500 0.330000 0.000000
0.669375 0.330000 0.000000
0.701250 0.330000 0.000000
0.733125 0.330000 0.000000
0.765000 0.330000 0.000000
0.796875 0.330000 0.000000
0.828750 0.330000 0.000000
0.860625 0.330000 0.000000
0.892500 0.330000 0.000000
0.924375 0.330000 0.000000
0.956250 0.330000 0.000000
0.988125 0.330000 0.000000
1.000000 0.330000 0.000000
0.000000 0.360000 0.000000
0.031875 0.360000 0.000000
0.063750 0.360000 0.000000
0.095625 0.360000 0.000000
0.127500 0.360000 0.000000
0.159375 0.360000 0.000000
0.191250 0.360000 0.000000
0.223125 0.360000 0.000000
0.255000 0.360000 0.000000
0.286875 0.360000 0.000000
0.318750 0.360000 0.000000
0.350625 0.360000 0.000000
0.382500 0.360000 0.000000
0.414375 0.360000 0.000000
0.446250 0.360000 0.000000
0.478125 0.360000 0.000000
0.510000 0.360000 0.000000
0.541875 0.360000 0.000000
0.573750 0.360000 0.000000
0.605625 0.360000 0.000000
0.637500 0.360000 0.000000
0.669375 0.360000 0.000000
0.701250 0.360000 0.000000
0.733125 0.360000 0.000000
0.765000 0.360000 0.000000
0.796875 0.360000 0.000000
0.828750 0.360000 0.000000
0.860625 0.360000 0.000000
0.892500 0.360000 0.000000
0.924375 0.360000 0.000000
0.956250 0.360000 0.000000
0.988125 0.360000 0.000000
1.000000 0.360000 0.000000
0.000000 0.390000 0.000000
0.031875 0.390000 0.000000
0.063750 0.390000 0.000000
0.095625 0.390000 0.000000
0.127500 0.390000 0.000000
0.159375 0.390000 0.000000
0.191250 0.390000 0.000000
0.223125 0.390000 0.000000
0.255000 0.390000 0.000000
0.286875 0.390000 0.000000
0.318750 0.390000 0.000000
0.350625 0.390000 0.000000
0.382500 0.390000 0.000000
0.414375 0.390000 0.000000
0.446250 0.390000 0.000000
0.478125 0.390000 0.000000
0.510000 0.390000 0.000000
0.541875 0.390000 0.000000
0.573750 0.390000 0.000000
0.605625 0.390000 0.000000
0.637500 0.390000 0.000000
0.669375 0.390000 0.000000
0.701250 0.390000 0.000000
0.733125 0.390000 0.000000
0.765000 0.390000 0.000000
0.796875 0.390000 0.000000
0.828750 0.390000 0.000000
0.860625 0.390000 0.000000
0.892500 0.390000 0.000000
0.924375 0.390000 0.000000
0.956250 0.390000 0.000000
0.988125 0.390000 0.000000
1.000000 0.390000 0.000000
0.000000 0.420000 0.000000
0.031875 0.420000 0.000000
0.063750 0.420000 0.000000
0.095625 0.420000 0.000000
0.127500 0.420000 0.000000
0.159375 0.420000 0.000000
0.191250 0.420000 0.000000
0.223125 0.420000 0.000000
0.255000 0.420000 0.000000
0.286875 0.420000 0.000000
0.318750 0.420000 0.000000
0.350625 0.420000 0.000000
0.382500 0.420000 0.000000
0.414375 0.420000 0.000000
0.446250 0.420000 0.000000
0.478125 0.420000 0.000000
0.510000 0.420000 0.000000
0.541875 0.420000 0.000000
0.573750 0.420000 0.000000
0.605625 0.420000 0.000000
0.637500 0.420000 0.000000
0.669375 0.420000 0.000000
0.701250 0.420000 0.000000
0.733125 0.420000 0.000000
0.765000 0.420000 0.000000
0.796875 0.420000 0.000000
0.828750 0.420000 0.000000
0.860625 0.420000 0.000000
0.892500 0.420000 0.000000
0.924375 0.420000 0.000000
0.956250 0.420000 0.000000
0.988125 0.420000 0.000000
1.000000 0.420000 0.000000
0.000000 0.450000 0.000000
0.031875 0.450000 0.000000
0.063750 0.450000 0.000000
0.095625 0.450000 0.000000
0.127500 0.450000 0.000000
0.159375 0.450000 0.000000
0.191250 0.450000 0.000000
0.223125 0.450000 0.000000
0.255000 0.450000 0.000000
0.286875 0.450000 0.000000
0.318750 0.450000 0.000000
0.350625 0.450000 0.000000
0.382500 0.450000 0.000000
0.414375 0.450000 0.000000
0.446250 0.450000 0.000000
0.478125 0.450000 0.000000
0.510000 0.450000 0.000000
0.541875 0.450000 0.000000
0.573750 0.450000 0.000000
0.605625 0.450000 0.000000
0.637500 0.450000 0.000000
0.669375 0.450000 0.000000
0.701250 0.450000 0.000000
0.733125 0.450000 0.000000
0.765000 0.450000 0.000000
0.796875 0.450000 0.000000
0.828750 0.450000 0.000000
0.860625 0.450000 0.000000
0.892500 0.450000 0.000000
0.924375 0.450000 0.000000
0.956250 0.450000 0.000000
0.988125 0.450000 0.000000
1.000000 0.450000 0.000000
0.000000 0.480000 0.000000
0.031875 0.480000 0.000000
0.063750 0.480000 0.000000
0.095625 0.480000 0.000000
0.127500 0.480000 0.000000
0.159375 0.480000 0.000000
0.191250 0.480000 0.000000
0.223125 0.480000 0.000000
0.255000 0.480000 0.000000
0.286875 0.480000 0.000000
0.318750 0.480000 0.000000
0.350625 0.480000 0.000000
0.382500 0.480000 0.000000
0.414375 0.480000 0.000000
0.446250 0.480000 0.000000
0.478125 0.480000 0.000000
0.510000 0.480000 0.000000
0.541875 0.480000 0.000000
0.573750 0.480000 0.000000
0.605625 0.480000 0.000000
0.637500 0.480000 0.000000
0.669375 0.480000 0.000000
0.701250 0.480000 0.000000
0.733125 0.480000 0.000000
0.765000 0.480000 0.000000
0.796875 0.480000 0.000000
0.828750 0.480000 0.000000
0.860625 0.480000 0.000000
0.892500 0.480000 0.000000
0.924375 0.480000 0.000000
0.956250 0.480000 0.000000
0.988125 0.480000 0.000000
1.000000 0.480000 0.000000
0.000000 0.510000 0.000000
0.031875 0.510000 0.000000
0.063750 0.510000 0.000000
0.095625 0.510000 0.000000
0.127500 0.510000 0.000000
0.159375 0.510000 0.000000
0.191250 0.510000 0.000000
0.223125 0.510000 0.000000
0.255000 0.510000 0.000000
0.286875 0.510000 0.000000
0.318750 0.510000 0.000000
0.350625 0.510000 0.000000
0.382500 0.510000 0.000000
0.414375 0.510000 0.000000
0.446250 0.510000 0.000000
0.478125 0.510000 0.000000
0.510000 0.510000 0.000000
0.541875 0.510000 0.000000
0.573750 0.510000 0.000000
0.605625 0.510000 0.000000
0.637500 0.510000 0.000000
0.669375 0.510000 0.000000
0.701250 0.510000 0.000000
0.733125 0.510000 0.000000
0.765000 0.510000 0.000000
0.796875 0.510000 0.000000
0.828750 0.510000 0.000000
0.860625 0.510000 0.000000
0.892500 0.510000 0.000000
0.924375 0.510000 0.000000
0.956250 0.510000 0.000000
0.988125 0.510000 0.000000
1.000000 0.510000 0.000000
0.000000 0.540000 0.000000
0.031875 0.540000 0.000000
0.063750 0.540000 0.000000
0.095625 0.540000 0.000000
0.127500 0.540000 0.000000
0.159375 0.540000 0.000000
0.191250 0.540000 0.000000
0.223125 0.540000 0.000000
0.255000 0.540000 0.000000
0.286875 0.540000 0.000000
0.318750 0.540000 0.000000
0.350625 0.540000 0.000000
0.382500 0.540000 0.000000
0.414375 0.540000 0.000000
0.446250 0.540000 0.000000
0.478125 0.540000 0.000000
0.510000 0.540000 0.000000
0.541875 0.540000 0.000000
0.573750 0.540000 0.000000
0.605625 0.540000 0.000000
0.637500 0.540000 0.000000
0.669375 0.540000 0.000000
0.701250 0.540000 0.000000
0.733125 0.540000 0.000000
0.765000 0.540000 0.000000
0.796875 0.540000 0.000000
0.828750 0.540000 0.000000
0.860625 0.540000 0.000000
0.892500 0.540000 0.000000
0.924375 0.540000 0.000000
0.956250 0.540000 0.000000
0.988125 0.540000 0.000000
1.000000 0.540000 0.000000
0.000000 0.570000 0.000000
0.031875 0.570000 0.000000
0.063750 0.570000 0.000000
0.095625 0.570000 0.000000
0.127500 0.570000 0.000000
0.159375 0.570000 0.000000
0.191250 0.570000 0.000000
0.223125 0.570000 0.000000
0.255000 0.570000 0.000000
0.286875 0.570000 0.000000
0.318750 0.570000 0.000000
0.350625 0.570000 0.000000
0.382500 0.570000 0.000000
0.414375 0.570000 0.000000
0.446250 0.570000 0.000000
0.478125 0.570000 0.000000
0.510000 0.570000 0.000000
0.541875 0.570000 0.000000
0.573750 0.570000 0.000000
0.605625 0.570000 0.000000
0.637500 0.570000 0.000000
0.669375 0.570000 0.000000
0.701250 0.570000 0.000000
0.733125 0.570000 0.000000
0.765000 0.570000 0.000000
0.796875 0.570000 0.000000
0.828750 0.570000 0.000000
0.860625 0.570000 0.000000
0.892500 0.570000 0.000000
0.924375 0.570000 0.000000
0.956250 0.570000 0.000000
0.988125 0.570000 0.000000
1.000000 0.570000 0.000000
0.000000 0.600000 0.000000
0.031875 0.600000 0.000000
0.063750 0.600000 0.000000
0.095625 0.600000 0.000000
0.127500 0.600000 0.000000
0.159375 0.600000 0.000000
0.191250 0.600000 0.000000
0.223125 0.600000 0.000000
0.255000 0.600000 0.000000
0.286875 0.600000 0.000000
0.318750 0.600000 0.000000
0.350625 0.600000 0.000000
0.382500 0.600000 0.000000
0.414375 0.600000 0.000000
0.446250 0.600000 0.000000
0.478125 0.600000 0.000000
0.510000 0.600000 0.000000
0.541875 0.600000 0.000000
0.573750 0.600000 0.000000
0.605625 0.600000 0.000000
0.637500 0.600000 0.000000
0.669375 0.600000 0.000000
0.701250 0.600000 0.000000
0.733125 0.600000 0.000000
0.765000 0.600000 0.000000
0.796875 0.600000 0.000000
0.828750 0.600000 0.000000
0.860625 0.600000 0.000000
0.892500 0.600000 0.000000
0.924375 0.600000 0.000000
0.956250 0.600000 0.000000
0.988125 0.600000 0.000000
1.000000 0.600000 0.000000
0.000000 0.630000 0.000000
0.031875 0.630000 0.000000
0.063750 0.630000 0.000000
0.095625 0.630000 0.000000
0.127500 0.630000 0.000000
0.159375 0.630000 0.000000
0.191250 0.630000 0.000000
0.223125 0.630000 0.000000
0.255000 0.630000 0.000000
0.286875 0.630000 0.000000
0.318750 0.630000 0.000000
0.350625 0.630000 0.000000
0.382500 0.630000 0.000000
0.414375 0.630000 0.000000
0.446250 0.630000 0.000000
0.478125 0.630000 0.000000
0.510000 0.630000 0.000000
0.541875 0.630000 0.000000
0.573750 0.630000 0.000000
0.605625 0.630000 0.000000
0.637500 0.630000 0.000000
0.669375 0.630000 0.000000
0.701250 0.630000 0.000000
0.733125 0.630000 0.000000
0.765000 0.630000 0.000000
0.796875 0.630000 0.000000
0.828750 0.630000 0.000000
0.860625 0.630000 0.000000
0.892500 0.630000 0.000000
0.924375 0.630000 0.000000
0.956250 0.630000 0.000000
0.988125 0.630000 0.000000
1.000000 0.630000 0.000000
0.000000 0.660000 0.000000
0.031875 0.660000 0.000000
0.063750 0.660000 0.000000
0.095625 0.660000 0.000000
0.127500 0.660000 0.000000
0.159375 0.660000 0.000000
0.191250 0.660000 0.000000
0.223125 0.660000 0.000000
0.255000 0.660000 0.000000
0.286875 0.660000 0.000000
0.318750 0.660000 0.000000
0.350625 0.660000 0.000000
0.382500 0.660000 0.000000
0.414375 0.660000 0.000000
0.446250 0.660000 0.000000
0.478125 0.660000 0.000000
0.510000 0.660000 0.000000
0.541875 0.660000 0.000000
0.573750 0.660000 0.000000
0.605625 0.660000 0.000000
0.637500 0.660000 0.000000
0.669375 0.660000 0.000000
0.701250 0.660000 0.000000
0.733125 0.660000 0.000000
0.765000 0.660000 0.000000
0.796875 0.660000 0.000000
0.828750 0.660000 0.000000
0.860625 0.660000 0.000000
0.892500 0.660000 0.000000
0.924375 0.660000 0.000000
0.956250 0.660000 0.000000
0.988125 0.660000 0.000000
1.000000 0.660000 0.000000
0.000000 0.690000 0.000000
0.031875 0.690000 0.000000
0.063750 0.690000 0.000000
0.095625 0.690000 0.000000
0.127500 0.690000 0.000000
0.159375 0.690000 0.000000
0.191250 0.690000 0.000000
0.223125 0.690000 0.000000
0.255000 0.690000 0.000000
0.286875 0.690000 0.000000
0.318750 0.690000 0.000000
0.350625 0.690000 0.000000
0.382500 0.690000 0.000000
0.414375 0.690000 0.000000
0.446250 0.690000 0.000000
0.478125 0.690000 0.000000
0.510000 0.690000 0.000000
0.541875 0.690000 0.000000
0.573750 0.690000 0.000000
0.605625 0.690000 0.000000
0.637500 0.690000 0.000000
0.669375 0.690000 0.000000
0.701250 0.690000 0.000000
0.733125 0.690000 0.000000
0.765000 0.690000 0.000000
0.796875 0.690000 0.000000
0.828750 0.690000 0.000000
0.860625 0.690000 0.000000
0.892500 0.690000 0.000000
0.924375 0.690000 0.000000
0.956250 0.690000 0.000000
0.988125 0.690000 0.000000
1.000000 0.690000 0.000000
0.000000 0.720000 0.000000
0.031875 0.720000 0.000000
0.063750 0.720000 0.000000
0.095625 0.720000 0.000000
0.127500 0.720000 0.000000
0.159375 0.720000 0.000000
0.191250 0.720000 0.000000
0.223125 0.720000 0.000000
0.255000 0.720000 0.000000
0.286875 0.720000 0.000000
0.318750 0.720000 0.000000
0.350625 0.720000 0.000000
0.382500 0.720000 0.000000
0.414375 0.720000 0.000000
0.446250 0.720000 0.000000
0.478125 0.720000 0.000000
0.510000 0.720000 0.000000
0.541875 0.720000 0.000000
0.573750 0.720000 0.000000
0.605625 0.720000 0.000000
0.637500 0.720000 0.000000
0.669375 0.720000 0.000000
0.701250 0.720000 0.000000
0.733125 0.720000 0.000000
0.765000 0.720000 0.000000
0.796875 0.720000 0.000000
0.828750 0.720000 0.000000
0.860625 0.720000 0.000000
0.892500 0.720000 0.000000
0.924375 0.720000 0.000000
0.956250 0.720000 0.000000
0.988125 0.720000 0.000000
1.000000 0.720000 0.000000
0.000000 0.750000 0.000000
0.031875 0.750000 0.000000
0.063750 0.750000 0.000000
0.095625 0.750000 0.000000
0.127500 0.750000 0.000000
0.159375 0.750000 0.000000
0.191250 0.750000 0.000000
0.223125 0.750000 0.000000
0.255000 0.750000 0.000000
0.286875 0.750000 0.000000
0.318750 0.750000 0.000000
0.350625 0.750000 0.000000
0.382500 0.750000 0.000000
0.414375 0.750000 0.000000
0.446250 0.750000 0.000000
0.478125 0.750000 0.000000
0.510000 0.750000 0.000000
0.541875 0.750000 0.000000
0.573750 0.750000 0.000000
0.605625 0.750000 0.000000
0.637500 0.750000 0.000000
0.669375 0.750000 0.000000
0.701250 0.750000 0.000000
0.733125 0.750000 0.000000
0.765000 0.750000 0.000000
0.796875 0.750000 0.000000
0.828750 0.750000 0.000000
0.860625 0.750000 0.000000
0.892500 0.750000 0.000000
0.924375 0.750000 0.000000
0.956250 0.750000 0.000000
0.988125 0.750000 0.000000
1.000000 0.750000 0.000000
0.000000 0.780000 0.000000
0.031875 0.780000 0.000000
0.063750 0.780000 0.000000
0.095625 0.780000 0.000000
0.127500 0.780000 0.000000
0.159375 0.780000 0.000000
0.191250 0.780000 0.000000
0.223125 0.780000 0.000000
0.255000 0.780000 0.000000
0.286875 0.780000 0.000000
0.318750 0.780000 0.000000
0.350625 0.780000 0.000000
0.382500 0.780000 0.000000
0.414375 0.780000 0.000000
0.446250 0.780000 0.000000
0.478125 0.780000 0.000000
0.510000 0.780000 0.000000
0.541875 0.780000 0.000000
0.573750 0.780000 0.000000
0.605625 0.780000 0.000000
0.637500 0.780000 0.000000
0.669375 0.780000 0.000000
0.701250 0.780000 0.000000
0.733125 0.780000 0.000000
0.765000 0.780000 0.000000
0.796875 0.780000 0.000000
