correction_luts/led_green_fix.cube
# Fixes green tint from cheap LED or fluorescent lighting
# Strength: 1.0
TITLE "LED Green Fix - Reduce Green Tint"
LUT_3D_SIZE 5
0.000000 0.000000 0.000000
0.255000 0.000000 0.000000
0.510000 0.000000 0.000000
0.765000 0.000000 0.000000
1.000000 0.000000 0.000000
0.000000 0.240000 0.000000
0.255000 0.240000 0.000000
0.510000 0.240000 0.000000
0.765000 0.240000 0.000000
1.000000 0.240000 0.000000
0.000000 0.480000 0.000000
0.255000 0.480000 0.000000
0.510000 0.480000 0.000000
0.765000 0.480000 0.000000
1.000000 0.480000 0.000000
0.000000 0.720000 0.000000
0.255000 0.720000 0.000000
0.510000 0.720000 0.000000
0.765000 0.720000 0.000000
1.000000 0.720000 0.000000
0.000000 0.960000 0.000000
0.255000 0.960000 0.000000
0.510000 0.960000 0.000000
0.765000 0.960000 0.000000
1.000000 0.960000 0.000000
0.000000 0.000000 0.255000
0.255000 0.000000 0.255000
0.510000 0.000000 0.255000
0.765000 0.000000 0.255000
1.000000 0.000000 0.255000
0.000000 0.240000 0.255000
0.255000 0.240000 0.255000
0.510000 0.240000 0.255000
0.765000 0.240000 0.255000
1.000000 0.240000 0.255000
0.000000 0.480000 0.255000
0.255000 0.480000 0.255000
0.510000 0.480000 0.255000
0.765000 0.480000 0.255000
1.000000 0.480000 0.255000
0.000000 0.720000 0.255000
0.255000 0.720000 0.255000
0.510000 0.720000 0.255000
0.765000 0.720000 0.255000
1.000000 0.720000 0.255000
0.000000 0.960000 0.255000
0.255000 0.960000 0.255000
0.510000 0.960000 0.255000
0.765000 0.960000 0.255000
1.000000 0.960000 0.255000
0.000000 0.000000 0.510000
0.255000 0.000000 0.510000
0.510000 0.000000 0.510000
0.765000 0.000000 0.510000
1.000000 0.000000 0.510000
0.000000 0.240000 0.510000
0.255000 0.240000 0.510000
0.510000 0.240000 0.510000
0.765000 0.240000 0.510000
1.000000 0.240000 0.510000
0.000000 0.480000 0.510000
0.255000 0.480000 0.510000
0.510000 0.480000 0.510000
0.765000 0.480000 0.510000
1.000000 0.480000 0.510000
0.000000 0.720000 0.510000
0.255000 0.720000 0.510000
0.510000 0.720000 0.510000
0.765000 0.720000 0.510000
1.000000 0.720000 0.510000
0.000000 0.960000 0.510000
0.255000 0.960000 0.510000
0.510000 0.960000 0.510000
0.765000 0.960000 0.510000
1.000000 0.960000 0.510000
0.000000 0.000000 0.765000
0.255000 0.000000 0.765000
0.510000 0.000000 0.765000
0.765000 0.000000 0.765000
1.000000 0.000000 0.765000
0.000000 0.240000 0.765000
0.255000 0.240000 0.765000
0.510000 0.240000 0.765000
0.765000 0.240000 0.765000
1.000000 0.240000 0.765000
0.000000 0.480000 0.765000
0.255000 0.480000 0.765000
0.510000 0.480000 0.765000
0.765000 0.480000 0.765000
1.000000 0.480000 0.765000
0.000000 0.720000 0.765000
0.255000 0.720000 0.765000
0.510000 0.720000 0.765000
0.765000 0.720000 0.765000
1.000000 0.720000 0.765000
0.000000 0.960000 0.765000
0.255000 0.960000 0.765000
0.510000 0.960000 0.765000
0.765000 0.960000 0.765000
1.000000 0.960000 0.765000
0.000000 0.000000 1.000000
0.255000 0.000000 1.000000
0.510000 0.000000 1.000000
0.765000 0.000000 1.000000
1.000000 0.000000 1.000000
0.000000 0.240000 1.000000
0.255000 0.240000 1.000000
0.510000 0.240000 1.000000
0.765000 0.240000 1.000000
1.000000 0.240000 1.000000
0.000000 0.480000 1.000000
0.255000 0.480000 1.000000
0.510000 0.480000 1.000000
0.765000 0.480000 1.000000
1.000000 0.480000 1.000000
0.000000 0.720000 1.000000
0.255000 0.720000 1.000000
0.510000 0.720000 1.000000
0.765000 0.720000 1.000000
1.000000 0.720000 1.000000
0.000000 0.960000 1.000000
0.255000 0.960000 1.000000
0.510000 0.960000 1.000000
0.765000 0.960000 1.000000
1.000000 0.960000 1.000000
