correction_luts/sat_reduce.cube
# Global saturation decrease for a more muted look
# Strength: 1.0
# Color model: linear-light tone (v2)
TITLE "Saturation Reduce - -15%"
LUT_3D_SIZE 9
0.000000 0.000000 0.000000
0.115625 0.009375 0.009375
0.231250 0.018750 0.018750
0.346875 0.028125 0.028125
0.462500 0.037500 0.037500
0.578125 0.046875 0.046875
0.693750 0.056250 0.056250
0.809375 0.065625 0.065625
0.925000 0.075000 0.075000
0.009375 0.115625 0.009375
0.115625 0.115625 0.009375
0.231250 0.125000 0.018750
0.346875 0.134375 0.028125
0.462500 0.143750 0.037500
0.578125 0.153125 0.046875
0.693750 0.162500 0.056250
0.809375 0.171875 0.065625
0.925000 0.181250 0.075000
0.018750 0.231250 0.018750
0.125000 0.231250 0.018750
0.231250 0.231250 0.018750
0.346875 0.240625 0.028125
0.462500 0.250000 0.037500
0.578125 0.259375 0.046875
0.693750 0.268750 0.056250
0.809375 0.278125 0.065625
0.925000 0.287500 0.075000
0.028125 0.346875 0.028125
0.134375 0.346875 0.028125
0.240625 0.346875 0.028125
0.346875 0.346875 0.028125
0.462500 0.356250 0.037500
0.578125 0.365625 0.046875
0.693750 0.375000 0.056250
0.809375 0.384375 0.065625
0.925000 0.393750 0.075000
0.037500 0.462500 0.037500
0.143750 0.462500 0.037500
0.250000 0.462500 0.037500
0.356250 0.462500 0.037500
0.462500 0.462500 0.037500
0.578125 0.471875 0.046875
0.693750 0.481250 0.056250
0.809375 0.490625 0.065625
0.925000 0.500000 0.075000
0.046875 0.578125 0.046875
0.153125 0.578125 0.046875
0.259375 0.578125 0.046875
0.365625 0.578125 0.046875
0.471875 0.578125 0.046875
0.578125 0.578125 0.046875
0.693750 0.587500 0.056250
0.809375 0.596875 0.065625
0.925000 0.606250 0.075000
0.056250 0.693750 0.056250
0.162500 0.693750 0.056250
0.268750 0.693750 0.056250
0.375000 0.693750 0.056250
0.481250 0.693750 0.056250
0.587500 0.693750 0.056250
0.693750 0.693750 0.056250
0.809375 0.703125 0.065625
0.925000 0.712500 0.075000
0.065625 0.809375 0.065625
0.171875 0.809375 0.065625
0.278125 0.809375 0.065625
0.384375 0.809375 0.065625
0.490625 0.809375 0.065625
0.596875 0.809375 0.065625
0.703125 0.809375 0.065625
0.809375 0.809375 0.065625
0.925000 0.818750 0.075000
0.075000 0.925000 0.075000
0.181250 0.925000 0.075000
0.287500 0.925000 0.075000
0.393750 0.925000 0.075000
0.500000 0.925000 0.075000
0.606250 0.925000 0.075000
0.712500 0.925000 0.075000
0.818750 0.925000 0.075000
0.925000 0.925000 0.075000
0.009375 0.009375 0.115625
0.115625 0.009375 0.115625
0.231250 0.018750 0.125000
0.346875 0.028125 0.134375
0.462500 0.037500 0.143750
0.578125 0.046875 0.153125
0.693750 0.056250 0.162500
0.809375 0.065625 0.171875
0.925000 0.075000 0.181250
0.009375 0.115625 0.115625
0.125000 0.125000 0.125000
0.240625 0.134375 0.134375
0.356250 0.143750 0.143750
0.471875 0.153125 0.153125
0.587500 0.162500 0.162500
0.703125 0.171875 0.171875
0.818750 0.181250 0.181250
0.934375 0.190625 0.190625
0.018750 0.231250 0.125000
0.134375 0.240625 0.134375
0.240625 0.240625 0.134375
0.356250 0.250000 0.143750
0.471875 0.259375 0.153125
0.587500 0.268750 0.162500
0.703125 0.278125 0.171875
0.818750 0.287500 0.181250
0.934375 0.296875 0.190625
0.028125 0.346875 0.134375
0.143750 0.356250 0.143750
0.250000 0.356250 0.143750
0.356250 0.356250 0.143750
0.471875 0.365625 0.153125
0.587500 0.375000 0.162500
0.703125 0.384375 0.171875
0.818750 0.393750 0.181250
0.934375 0.403125 0.190625
0.037500 0.462500 0.143750
0.153125 0.471875 0.153125
0.259375 0.471875 0.153125
0.365625 0.471875 0.153125
0.471875 0.471875 0.153125
0.587500 0.481250 0.162500
0.703125 0.490625 0.171875
0.818750 0.500000 0.181250
0.934375 0.509375 0.190625
0.046875 0.578125 0.153125
0.162500 0.587500 0.162500
0.268750 0.587500 0.162500
0.375000 0.587500 0.162500
0.481250 0.587500 0.162500
0.587500 0.587500 0.162500
0.703125 0.596875 0.171875
0.818750 0.606250 0.181250
0.934375 0.615625 0.190625
0.056250 0.693750 0.162500
0.171875 0.703125 0.171875
0.278125 0.703125 0.171875
0.384375 0.703125 0.171875
0.490625 0.703125 0.171875
0.596875 0.703125 0.171875
0.703125 0.703125 0.171875
0.818750 0.712500 0.181250
0.934375 0.721875 0.190625
0.065625 0.809375 0.171875
0.181250 0.818750 0.181250
0.287500 0.818750 0.181250
0.393750 0.818750 0.181250
0.500000 0.818750 0.181250
0.606250 0.818750 0.181250
0.712500 0.818750 0.181250
0.818750 0.818750 0.181250
0.934375 0.828125 0.190625
0.075000 0.925000 0.181250
0.190625 0.934375 0.190625
0.296875 0.934375 0.190625
0.403125 0.934375 0.190625
0.509375 0.934375 0.190625
0.615625 0.934375 0.190625
0.721875 0.934375 0.190625
0.828125 0.934375 0.190625
0.934375 0.934375 0.190625
0.018750 0.018750 0.231250
0.125000 0.018750 0.231250
0.231250 0.018750 0.231250
0.346875 0.028125 0.240625
0.462500 0.037500 0.250000
0.578125 0.046875 0.259375
0.693750 0.056250 0.268750
0.809375 0.065625 0.278125
0.925000 0.075000 0.287500
0.018750 0.125000 0.231250
0.134375 0.134375 0.240625
0.240625 0.134375 0.240625
0.356250 0.143750 0.250000
0.471875 0.153125 0.259375
0.587500 0.162500 0.268750
0.703125 0.171875 0.278125
0.818750 0.181250 0.287500
0.934375 0.190625 0.296875
0.018750 0.231250 0.231250
0.134375 0.240625 0.240625
0.250000 0.250000 0.250000
0.365625 0.259375 0.259375
0.481250 0.268750 0.268750
0.596875 0.278125 0.278125
0.712500 0.287500 0.287500
0.828125 0.296875 0.296875
0.943750 0.306250 0.306250
0.028125 0.346875 0.240625
0.143750 0.356250 0.250000
0.259375 0.365625 0.259375
0.365625 0.365625 0.259375
0.481250 0.375000 0.268750
0.596875 0.384375 0.278125
0.712500 0.393750 0.287500
0.828125 0.403125 0.296875
0.943750 0.412500 0.306250
0.037500 0.462500 0.250000
0.153125 0.471875 0.259375
0.268750 0.481250 0.268750
0.375000 0.481250 0.268750
0.481250 0.481250 0.268750
0.596875 0.490625 0.278125
0.712500 0.500000 0.287500
0.828125 0.509375 0.296875
0.943750 0.518750 0.306250
0.046875 0.578125 0.259375
0.162500 0.587500 0.268750
0.278125 0.596875 0.278125
0.384375 0.596875 0.278125
0.490625 0.596875 0.278125
0.596875 0.596875 0.278125
0.712500 0.606250 0.287500
0.828125 0.615625 0.296875
0.943750 0.625000 0.306250
0.056250 0.693750 0.268750
0.171875 0.703125 0.278125
0.287500 0.712500 0.287500
0.393750 0.712500 0.287500
0.500000 0.712500 0.287500
0.606250 0.712500 0.287500
0.712500 0.712500 0.287500
0.828125 0.721875 0.296875
0.943750 0.731250 0.306250
0.065625 0.809375 0.278125
0.181250 0.818750 0.287500
0.296875 0.828125 0.296875
0.403125 0.828125 0.296875
0.509375 0.828125 0.296875
0.615625 0.828125 0.296875
0.721875 0.828125 0.296875
0.828125 0.828125 0.296875
0.943750 0.837500 0.306250
0.075000 0.925000 0.287500
0.190625 0.934375 0.296875
0.306250 0.943750 0.306250
0.412500 0.943750 0.306250
0.518750 0.943750 0.306250
0.625000 0.943750 0.306250
0.731250 0.943750 0.306250
0.837500 0.943750 0.306250
0.943750 0.943750 0.306250
0.028125 0.028125 0.346875
0.134375 0.028125 0.346875
0.240625 0.028125 0.346875
0.346875 0.028125 0.346875
0.462500 0.037500 0.356250
0.578125 0.046875 0.365625
0.693750 0.056250 0.375000
0.809375 0.065625 0.384375
0.925000 0.075000 0.393750
0.028125 0.134375 0.346875
0.143750 0.143750 0.356250
0.250000 0.143750 0.356250
0.356250 0.143750 0.356250
0.471875 0.153125 0.365625
0.587500 0.162500 0.375000
0.703125 0.171875 0.384375
0.818750 0.181250 0.393750
0.934375 0.190625 0.403125
0.028125 0.240625 0.346875
0.143750 0.250000 0.356250
0.259375 0.259375 0.365625
0.365625 0.259375 0.365625
0.481250 0.268750 0.375000
0.596875 0.278125 0.384375
0.712500 0.287500 0.393750
0.828125 0.296875 0.403125
0.943750 0.306250 0.412500
0.028125 0.346875 0.346875
0.143750 0.356250 0.356250
0.259375 0.365625 0.365625
0.375000 0.375000 0.375000
0.490625 0.384375 0.384375
0.606250 0.393750 0.393750
0.721875 0.403125 0.403125
0.837500 0.412500 0.412500
0.953125 0.421875 0.421875
0.037500 0.462500 0.356250
0.153125 0.471875 0.365625
0.268750 0.481250 0.375000
0.384375 0.490625 0.384375
0.490625 0.490625 0.384375
0.606250 0.500000 0.393750
0.721875 0.509375 0.403125
0.837500 0.518750 0.412500
0.953125 0.528125 0.421875
0.046875 0.578125 0.365625
0.162500 0.587500 0.375000
0.278125 0.596875 0.384375
0.393750 0.606250 0.393750
0.500000 0.606250 0.393750
0.606250 0.606250 0.393750
0.721875 0.615625 0.403125
0.837500 0.625000 0.412500
0.953125 0.634375 0.421875
0.056250 0.693750 0.375000
0.171875 0.703125 0.384375
0.287500 0.712500 0.393750
0.403125 0.721875 0.403125
0.509375 0.721875 0.403125
0.615625 0.721875 0.403125
0.721875 0.721875 0.403125
0.837500 0.731250 0.412500
0.953125 0.740625 0.421875
0.065625 0.809375 0.384375
0.181250 0.818750 0.393750
0.296875 0.828125 0.403125
0.412500 0.837500 0.412500
0.518750 0.837500 0.412500
0.625000 0.837500 0.412500
0.731250 0.837500 0.412500
0.837500 0.837500 0.412500
0.953125 0.846875 0.421875
0.075000 0.925000 0.393750
0.190625 0.934375 0.403125
0.306250 0.943750 0.412500
0.421875 0.953125 0.421875
0.528125 0.953125 0.421875
0.634375 0.953125 0.421875
0.740625 0.953125 0.421875
0.846875 0.953125 0.421875
0.953125 0.953125 0.421875
0.037500 0.037500 0.462500
0.143750 0.037500 0.462500
0.250000 0.037500 0.462500
0.356250 0.037500 0.462500
0.462500 0.037500 0.462500
0.578125 0.046875 0.471875
0.693750 0.056250 0.481250
0.809375 0.065625 0.490625
0.925000 0.075000 0.500000
0.037500 0.143750 0.462500
0.153125 0.153125 0.471875
0.259375 0.153125 0.471875
0.365625 0.153125 0.471875
0.471875 0.153125 0.471875
0.587500 0.162500 0.481250
0.703125 0.171875 0.490625
0.818750 0.181250 0.500000
0.934375 0.190625 0.509375
0.037500 0.250000 0.462500
0.153125 0.259375 0.471875
0.268750 0.268750 0.481250
0.375000 0.268750 0.481250
0.481250 0.268750 0.481250
0.596875 0.278125 0.490625
0.712500 0.287500 0.500000
0.828125 0.296875 0.509375
0.943750 0.306250 0.518750
0.037500 0.356250 0.462500
0.153125 0.365625 0.471875
0.268750 0.375000 0.481250
0.384375 0.384375 0.490625
0.490625 0.384375 0.490625
0.606250 0.393750 0.500000
0.721875 0.403125 0.509375
0.837500 0.412500 0.518750
0.953125 0.421875 0.528125
0.037500 0.462500 0.462500
0.153125 0.471875 0.471875
0.268750 0.481250 0.481250
0.384375 0.490625 0.490625
0.500000 0.500000 0.500000
0.615625 0.509375 0.509375
0.731250 0.518750 0.518750
0.846875 0.528125 0.528125
0.962500 0.537500 0.537500
0.046875 0.578125 0.471875
0.162500 0.587500 0.481250
0.278125 0.596875 0.490625
0.393750 0.606250 0.500000
0.509375 0.615625 0.509375
0.615625 0.615625 0.509375
0.731250 0.625000 0.518750
0.846875 0.634375 0.528125
0.962500 0.643750 0.537500
0.056250 0.693750 0.481250
0.171875 0.703125 0.490625
0.287500 0.712500 0.500000
0.403125 0.721875 0.509375
0.518750 0.731250 0.518750
0.625000 0.731250 0.518750
0.731250 0.731250 0.518750
0.846875 0.740625 0.528125
0.962500 0.750000 0.537500
0.065625 0.809375 0.490625
0.181250 0.818750 0.500000
0.296875 0.828125 0.509375
0.412500 0.837500 0.518750
0.528125 0.846875 0.528125
0.634375 0.846875 0.528125
0.740625 0.846875 0.528125
0.846875 0.846875 0.528125
0.962500 0.856250 0.537500
0.075000 0.925000 0.500000
0.190625 0.934375 0.509375
0.306250 0.943750 0.518750
0.421875 0.953125 0.528125
0.537500 0.962500 0.537500
0.643750 0.962500 0.537500
0.750000 0.962500 0.537500
0.856250 0.962500 0.537500
0.962500 0.962500 0.537500
0.046875 0.046875 0.578125
0.153125 0.046875 0.578125
0.259375 0.046875 0.578125
0.365625 0.046875 0.578125
0.471875 0.046875 0.578125
0.578125 0.046875 0.578125
0.693750 0.056250 0.587500
0.809375 0.065625 0.596875
0.925000 0.075000 0.606250
0.046875 0.153125 0.578125
0.162500 0.162500 0.587500
0.268750 0.162500 0.587500
0.375000 0.162500 0.587500
0.481250 0.162500 0.587500
0.587500 0.162500 0.587500
0.703125 0.171875 0.596875
0.818750 0.181250 0.606250
0.934375 0.190625 0.615625
0.046875 0.259375 0.578125
0.162500 0.268750 0.587500
0.278125 0.278125 0.596875
0.384375 0.278125 0.596875
0.490625 0.278125 0.596875
0.596875 0.278125 0.596875
0.712500 0.287500 0.606250
0.828125 0.296875 0.615625
0.943750 0.306250 0.625000
0.046875 0.365625 0.578125
0.162500 0.375000 0.587500
0.278125 0.384375 0.596875
0.393750 0.393750 0.606250
0.500000 0.393750 0.606250
0.606250 0.393750 0.606250
0.721875 0.403125 0.615625
0.837500 0.412500 0.625000
0.953125 0.421875 0.634375
0.046875 0.471875 0.578125
0.162500 0.481250 0.587500
0.278125 0.490625 0.596875
0.393750 0.500000 0.606250
0.509375 0.509375 0.615625
0.615625 0.509375 0.615625
0.731250 0.518750 0.625000
0.846875 0.528125 0.634375
0.962500 0.537500 0.643750
0.046875 0.578125 0.578125
0.162500 0.587500 0.587500
0.278125 0.596875 0.596875
0.393750 0.606250 0.606250
0.509375 0.615625 0.615625
0.625000 0.625000 0.625000
0.740625 0.634375 0.634375
0.856250 0.643750 0.643750
0.971875 0.653125 0.653125
0.056250 0.693750 0.587500
0.171875 0.703125 0.596875
0.287500 0.712500 0.606250
0.403125 0.721875 0.615625
0.518750 0.731250 0.625000
0.634375 0.740625 0.634375
0.740625 0.740625 0.634375
0.856250 0.750000 0.643750
0.971875 0.759375 0.653125
0.065625 0.809375 0.596875
0.181250 0.818750 0.606250
0.296875 0.828125 0.615625
0.412500 0.837500 0.625000
0.528125 0.846875 0.634375
0.643750 0.856250 0.643750
0.750000 0.856250 0.643750
0.856250 0.856250 0.643750
0.971875 0.865625 0.653125
0.075000 0.925000 0.606250
0.190625 0.934375 0.615625
0.306250 0.943750 0.625000
0.421875 0.953125 0.634375
0.537500 0.962500 0.643750
0.653125 0.971875 0.653125
0.759375 0.971875 0.653125
0.865625 0.971875 0.653125
0.971875 0.971875 0.653125
0.056250 0.056250 0.693750
0.162500 0.056250 0.693750
0.268750 0.056250 0.693750
0.375000 0.056250 0.693750
0.481250 0.056250 0.693750
0.587500 0.056250 0.693750
0.693750 0.056250 0.693750
0.809375 0.065625 0.703125
0.925000 0.075000 0.712500
0.056250 0.162500 0.693750
0.171875 0.171875 0.703125
0.278125 0.171875 0.703125
0.384375 0.171875 0.703125
0.490625 0.171875 0.703125
0.596875 0.171875 0.703125
0.703125 0.171875 0.703125
0.818750 0.181250 0.712500
0.934375 0.190625 0.721875
0.056250 0.268750 0.693750
0.171875 0.278125 0.703125
0.287500 0.287500 0.712500
0.393750 0.287500 0.712500
0.500000 0.287500 0.712500
0.606250 0.287500 0.712500
0.712500 0.287500 0.712500
0.828125 0.296875 0.721875
0.943750 0.306250 0.731250
0.056250 0.375000 0.693750
0.171875 0.384375 0.703125
0.287500 0.393750 0.712500
0.403125 0.403125 0.721875
0.509375 0.403125 0.721875
0.615625 0.403125 0.721875
0.721875 0.403125 0.721875
0.837500 0.412500 0.731250
0.953125 0.421875 0.740625
0.056250 0.481250 0.693750
0.171875 0.490625 0.703125
0.287500 0.500000 0.712500
0.403125 0.509375 0.721875
0.518750 0.518750 0.731250
0.625000 0.518750 0.731250
0.731250 0.518750 0.731250
0.846875 0.528125 0.740625
0.962500 0.537500 0.750000
0.056250 0.587500 0.693750
0.171875 0.596875 0.703125
0.287500 0.606250 0.712500
0.403125 0.615625 0.721875
0.518750 0.625000 0.731250
0.634375 0.634375 0.740625
0.740625 0.634375 0.740625
0.856250 0.643750 0.750000
0.971875 0.653125 0.759375
0.056250 0.693750 0.693750
0.171875 0.703125 0.703125
0.287500 0.712500 0.712500
0.403125 0.721875 0.721875
0.518750 0.731250 0.731250
0.634375 0.740625 0.740625
0.750000 0.750000 0.750000
0.865625 0.759375 0.759375
0.981250 0.768750 0.768750
0.065625 0.809375 0.703125
0.181250 0.818750 0.712500
0.296875 0.828125 0.721875
0.412500 0.837500 0.731250
0.528125 0.846875 0.740625
0.643750 0.856250 0.750000
0.759375 0.865625 0.759375
0.865625 0.865625 0.759375
0.981250 0.875000 0.768750
0.075000 0.925000 0.712500
0.190625 0.934375 0.721875
0.306250 0.943750 0.731250
0.421875 0.953125 0.740625
0.537500 0.962500 0.750000
0.653125 0.971875 0.759375
0.768750 0.981250 0.768750
0.875000 0.981250 0.768750
0.981250 0.981250 0.768750
0.065625 0.065625 0.809375
0.171875 0.065625 0.809375
0.278125 0.065625 0.809375
0.384375 0.065625 0.809375
0.490625 0.065625 0.809375
0.596875 0.065625 0.809375
0.703125 0.065625 0.809375
0.809375 0.065625 0.809375
0.925000 0.075000 0.818750
0.065625 0.171875 0.809375
0.181250 0.181250 0.818750
0.287500 0.181250 0.818750
0.393750 0.181250 0.818750
0.500000 0.181250 0.818750
0.606250 0.181250 0.818750
0.712500 0.181250 0.818750
0.818750 0.181250 0.818750
0.934375 0.190625 0.828125
0.065625 0.278125 0.809375
0.181250 0.287500 0.818750
0.296875 0.296875 0.828125
0.403125 0.296875 0.828125
0.509375 0.296875 0.828125
0.615625 0.296875 0.828125
0.721875 0.296875 0.828125
0.828125 0.296875 0.828125
0.943750 0.306250 0.837500
0.065625 0.384375 0.809375
0.181250 0.393750 0.818750
0.296875 0.403125 0.828125
0.412500 0.412500 0.837500
0.518750 0.412500 0.837500
0.625000 0.412500 0.837500
0.731250 0.412500 0.837500
0.837500 0.412500 0.837500
0.953125 0.421875 0.846875
0.065625 0.490625 0.809375
0.181250 0.500000 0.818750
0.296875 0.509375 0.828125
0.412500 0.518750 0.837500
0.528125 0.528125 0.846875
0.634375 0.528125 0.846875
0.740625 0.528125 0.846875
0.846875 0.528125 0.846875
0.962500 0.537500 0.856250
0.065625 0.596875 0.809375
0.181250 0.606250 0.818750
0.296875 0.615625 0.828125
0.412500 0.625000 0.837500
0.528125 0.634375 0.846875
0.643750 0.643750 0.856250
0.750000 0.643750 0.856250
0.856250 0.643750 0.856250
0.971875 0.653125 0.865625
0.065625 0.703125 0.809375
0.181250 0.712500 0.818750
0.296875 0.721875 0.828125
0.412500 0.731250 0.837500
0.528125 0.740625 0.846875
0.643750 0.750000 0.856250
0.759375 0.759375 0.865625
0.865625 0.759375 0.865625
0.981250 0.768750 0.875000
0.065625 0.809375 0.809375
0.181250 0.818750 0.818750
0.296875 0.828125 0.828125
0.412500 0.837500 0.837500
0.528125 0.846875 0.846875
0.643750 0.856250 0.856250
0.759375 0.865625 0.865625
0.875000 0.875000 0.875000
0.990625 0.884375 0.884375
0.075000 0.925000 0.818750
0.190625 0.934375 0.828125
0.306250 0.943750 0.837500
0.421875 0.953125 0.846875
0.537500 0.962500 0.856250
0.653125 0.971875 0.865625
0.768750 0.981250 0.875000
0.884375 0.990625 0.884375
0.990625 0.990625 0.884375
0.075000 0.075000 0.925000
0.181250 0.075000 0.925000
0.287500 0.075000 0.925000
0.393750 0.075000 0.925000
0.500000 0.075000 0.925000
0.606250 0.075000 0.925000
0.712500 0.075000 0.925000
0.818750 0.075000 0.925000
0.925000 0.075000 0.925000
0.075000 0.181250 0.925000
0.190625 0.190625 0.934375
0.296875 0.190625 0.934375
0.403125 0.190625 0.934375
0.509375 0.190625 0.934375
0.615625 0.190625 0.934375
0.721875 0.190625 0.934375
0.828125 0.190625 0.934375
0.934375 0.190625 0.934375
0.075000 0.287500 0.925000
0.190625 0.296875 0.934375
0.306250 0.306250 0.943750
0.412500 0.306250 0.943750
0.518750 0.306250 0.943750
0.625000 0.306250 0.943750
0.731250 0.306250 0.943750
0.837500 0.306250 0.943750
0.943750 0.306250 0.943750
0.075000 0.393750 0.925000
0.190625 0.403125 0.934375
0.306250 0.412500 0.943750
0.421875 0.421875 0.953125
0.528125 0.421875 0.953125
0.634375 0.421875 0.953125
0.740625 0.421875 0.953125
0.846875 0.421875 0.953125
0.953125 0.421875 0.953125
0.075000 0.500000 0.925000
0.190625 0.509375 0.934375
0.306250 0.518750 0.943750
0.421875 0.528125 0.953125
0.537500 0.537500 0.962500
0.643750 0.537500 0.962500
0.750000 0.537500 0.962500
0.856250 0.537500 0.962500
0.962500 0.537500 0.962500
0.075000 0.606250 0.925000
0.190625 0.615625 0.934375
0.306250 0.625000 0.943750
0.421875 0.634375 0.953125
0.537500 0.643750 0.962500
0.653125 0.653125 0.971875
0.759375 0.653125 0.971875
0.865625 0.653125 0.971875
0.971875 0.653125 0.971875
0.075000 0.712500 0.925000
0.190625 0.721875 0.934375
0.306250 0.731250 0.943750
0.421875 0.740625 0.953125
0.537500 0.750000 0.962500
0.653125 0.759375 0.971875
0.768750 0.768750 0.981250
0.875000 0.768750 0.981250
0.981250 0.768750 0.981250
0.075000 0.818750 0.925000
0.190625 0.828125 0.934375
0.306250 0.837500 0.943750
0.421875 0.846875 0.953125
0.537500 0.856250 0.962500
0.653125 0.865625 0.971875
0.768750 0.875000 0.981250
0.884375 0.884375 0.990625
0.990625 0.884375 0.990625
0.075000 0.925000 0.925000
0.190625 0.934375 0.934375
0.306250 0.943750 0.943750
0.421875 0.953125 0.953125
0.537500 0.962500 0.962500
0.653125 0.971875 0.971875
0.768750 0.981250 0.981250
0.884375 0.990625 0.990625
1.000000 1.000000 1.000000
