correction_luts/sat_reduce_40.cube
# Global saturation decrease for a more muted look
# Strength: 0.4
# Color model: linear-light tone (v2)
TITLE "Saturation Reduce - -15%"
LUT_3D_SIZE 5
0.000000 0.000000 0.000000
0.242500 0.007500 0.007500
0.485000 0.015000 0.015000
0.727500 0.022500 0.022500
0.970000 0.030000 0.030000
0.007500 0.242500 0.007500
0.242500 0.242500 0.007500
0.485000 0.250000 0.015000
0.727500 0.257500 0.022500
0.970000 0.265000 0.030000
0.015000 0.485000 0.015000
0.250000 0.485000 0.015000
0.485000 0.485000 0.015000
0.727500 0.492500 0.022500
0.970000 0.500000 0.030000
0.022500 0.727500 0.022500
0.257500 0.727500 0.022500
0.492500 0.727500 0.022500
0.727500 0.727500 0.022500
0.970000 0.735000 0.030000
0.030000 0.970000 0.030000
0.265000 0.970000 0.030000
0.500000 0.970000 0.030000
0.735000 0.970000 0.030000
0.970000 0.970000 0.030000
0.007500 0.007500 0.242500
0.242500 0.007500 0.242500
0.485000 0.015000 0.250000
0.727500 0.022500 0.257500
0.970000 0.030000 0.265000
0.007500 0.242500 0.242500
0.250000 0.250000 0.250000
0.492500 0.257500 0.257500
0.735000 0.265000 0.265000
0.977500 0.272500 0.272500
0.015000 0.485000 0.250000
0.257500 0.492500 0.257500
0.492500 0.492500 0.257500
0.735000 0.500000 0.265000
0.977500 0.507500 0.272500
0.022500 0.727500 0.257500
0.265000 0.735000 0.265000
0.500000 0.735000 0.265000
0.735000 0.735000 0.265000
0.977500 0.742500 0.272500
0.030000 0.970000 0.265000
0.272500 0.977500 0.272500
0.507500 0.977500 0.272500
0.742500 0.977500 0.272500
0.977500 0.977500 0.272500
0.015000 0.015000 0.485000
0.250000 0.015000 0.485000
0.485000 0.015000 0.485000
0.727500 0.022500 0.492500
0.970000 0.030000 0.500000
0.015000 0.250000 0.485000
0.257500 0.257500 0.492500
0.492500 0.257500 0.492500
0.735000 0.265000 0.500000
0.977500 0.272500 0.507500
0.015000 0.485000 0.485000
0.257500 0.492500 0.492500
0.500000 0.500000 0.500000
0.742500 0.507500 0.507500
0.985000 0.515000 0.515000
0.022500 0.727500 0.492500
0.265000 0.735000 0.500000
0.507500 0.742500 0.507500
0.742500 0.742500 0.507500
0.985000 0.750000 0.515000
0.030000 0.970000 0.500000
0.272500 0.977500 0.507500
0.515000 0.985000 0.515000
0.750000 0.985000 0.515000
0.985000 0.985000 0.515000
0.022500 0.022500 0.727500
0.257500 0.022500 0.727500
0.492500 0.022500 0.727500
0.727500 0.022500 0.727500
0.970000 0.030000 0.735000
0.022500 0.257500 0.727500
0.265000 0.265000 0.735000
0.500000 0.265000 0.735000
0.735000 0.265000 0.735000
0.977500 0.272500 0.742500
0.022500 0.492500 0.727500
0.265000 0.500000 0.735000
0.507500 0.507500 0.742500
0.742500 0.507500 0.742500
0.985000 0.515000 0.750000
0.022500 0.727500 0.727500
0.265000 0.735000 0.735000
0.507500 0.742500 0.742500
0.750000 0.750000 0.750000
0.992500 0.757500 0.757500
0.030000 0.970000 0.735000
0.272500 0.977500 0.742500
0.515000 0.985000 0.750000
0.757500 0.992500 0.757500
0.992500 0.992500 0.757500
0.030000 0.030000 0.970000
0.265000 0.030000 0.970000
0.500000 0.030000 0.970000
0.735000 0.030000 0.970000
0.970000 0.030000 0.970000
0.030000 0.265000 0.970000
0.272500 0.272500 0.977500
0.507500 0.272500 0.977500
0.742500 0.272500 0.977500
0.977500 0.272500 0.977500
0.030000 0.500000 0.970000
0.272500 0.507500 0.977500
0.515000 0.515000 0.985000
0.750000 0.515000 0.985000
0.985000 0.515000 0.985000
0.030000 0.735000 0.970000
0.272500 0.742500 0.977500
0.515000 0.750000 0.985000
0.757500 0.757500 0.992500
0.992500 0.757500 0.992500
0.030000 0.970000 0.970000
0.272500 0.977500 0.977500
0.515000 0.985000 0.985000
0.757500 0.992500 0.992500
1.000000 1.000000 1.000000
