correction_luts/sat_reduce_40.cube
# Global saturation decrease for a more muted look
# Strength: 0.4
# Color model: linear-light tone (v2)
TITLE "Saturation Reduce - -15%"
LUT_3D_SIZE 33
0.000000 0.000000 0.000000
0.030312 0.000938 0.000938
0.060625 0.001875 0.001875
0.090938 0.002812 0.002812
0.121250 0.003750 0.003750
0.151562 0.004688 0.004688
0.181875 0.005625 0.005625
0.212188 0.006562 0.006562
0.242500 0.007500 0.007500
0.272812 0.008437 0.008437
0.303125 0.009375 0.009375
0.333438 0.010312 0.010312
0.363750 0.011250 0.011250
0.394062 0.012188 0.012188
0.424375 0.013125 0.013125
0.454688 0.014063 0.014063
0.485000 0.015000 0.015000
0.515312 0.015938 0.015938
0.545625 0.016875 0.016875
0.575938 0.017812 0.017812
0.606250 0.018750 0.018750
0.636562 0.019687 0.019687
0.666875 0.020625 0.020625
0.697188 0.021563 0.021563
0.727500 0.022500 0.022500
0.757812 0.023438 0.023438
0.788125 0.024375 0.024375
0.818438 0.025313 0.025313
0.848750 0.026250 0.026250
0.879062 0.027188 0.027188
0.909375 0.028125 0.028125
0.939688 0.029062 0.029062
0.970000 0.030000 0.030000
0.000938 0.030312 0.000938
0.030312 0.030312 0.000938
0.060625 0.031250 0.001875
0.090938 0.032188 0.002812
0.121250 0.033125 0.003750
0.151562 0.034062 0.004688
0.181875 0.035000 0.005625
0.212188 0.035938 0.006562
0.242500 0.036875 0.007500
0.272812 0.037812 0.008437
0.303125 0.038750 0.009375
0.333438 0.039688 0.010312
0.363750 0.040625 0.011250
0.394062 0.041562 0.012188
0.424375 0.042500 0.013125
0.454688 0.043438 0.014063
0.485000 0.044375 0.015000
0.515312 0.045313 0.015938
0.545625 0.046250 0.016875
0.575938 0.047188 0.017812
0.606250 0.048125 0.018750
0.636562 0.049062 0.019687
0.666875 0.050000 0.020625
0.697188 0.050938 0.021563
0.727500 0.051875 0.022500
0.757812 0.052812 0.023438
0.788125 0.053750 0.024375
0.818438 0.054688 0.025313
0.848750 0.055625 0.026250
0.879062 0.056562 0.027188
0.909375 0.057500 0.028125
0.939688 0.058438 0.029062
0.970000 0.059375 0.030000
0.001875 0.060625 0.001875
0.031250 0.060625 0.001875
0.060625 0.060625 0.001875
0.090938 0.061562 0.002812
0.121250 0.062500 0.003750
0.151562 0.063438 0.004688
0.181875 0.064375 0.005625
0.212188 0.065312 0.006562
0.242500 0.066250 0.007500
0.272812 0.067188 0.008437
0.303125 0.068125 0.009375
0.333438 0.069062 0.010312
0.363750 0.070000 0.011250
0.394062 0.070938 0.012188
0.424375 0.071875 0.013125
0.454688 0.072812 0.014063
0.485000 0.073750 0.015000
0.515312 0.074688 0.015938
0.545625 0.075625 0.016875
0.575938 0.076562 0.017812
0.606250 0.077500 0.018750
0.636562 0.078438 0.019687
0.666875 0.079375 0.020625
0.697188 0.080312 0.021563
0.727500 0.081250 0.022500
0.757812 0.082188 0.023438
0.788125 0.083125 0.024375
0.818438 0.084063 0.025313
0.848750 0.085000 0.026250
0.879062 0.085938 0.027188
0.909375 0.086875 0.028125
0.939688 0.087812 0.029062
0.970000 0.088750 0.030000
0.002812 0.090938 0.002812
0.032187 0.090938 0.002812
0.061562 0.090938 0.002812
0.090938 0.090938 0.002812
0.121250 0.091875 0.003750
0.151562 0.092812 0.004688
0.181875 0.093750 0.005625
0.212188 0.094688 0.006562
0.242500 0.095625 0.007500
0.272812 0.096562 0.008437
0.303125 0.097500 0.009375
0.333438 0.098438 0.010312
0.363750 0.099375 0.011250
0.394062 0.100312 0.012188
0.424375 0.101250 0.013125
0.454688 0.102188 0.014063
0.485000 0.103125 0.015000
0.515312 0.104062 0.015938
0.545625 0.105000 0.016875
0.575938 0.105938 0.017812
0.606250 0.106875 0.018750
0.636562 0.107812 0.019687
0.666875 0.108750 0.020625
0.697188 0.109688 0.021563
0.727500 0.110625 0.022500
0.757812 0.111562 0.023438
0.788125 0.112500 0.024375
0.818438 0.113438 0.025313
0.848750 0.114375 0.026250
0.879062 0.115312 0.027188
0.909375 0.116250 0.028125
0.939688 0.117188 0.029062
0.970000 0.118125 0.030000
0.003750 0.121250 0.003750
0.033125 0.121250 0.003750
0.062500 0.121250 0.003750
0.091875 0.121250 0.003750
0.121250 0.121250 0.003750
0.151562 0.122188 0.004688
0.181875 0.123125 0.005625
0.212188 0.124062 0.006562
0.242500 0.125000 0.007500
0.272812 0.125938 0.008437
0.303125 0.126875 0.009375
0.333438 0.127812 0.010312
0.363750 0.128750 0.011250
0.394062 0.129688 0.012188
0.424375 0.130625 0.013125
0.454688 0.131562 0.014063
0.485000 0.132500 0.015000
0.515312 0.133438 0.015938
0.545625 0.134375 0.016875
0.575938 0.135312 0.017812
0.606250 0.136250 0.018750
0.636562 0.137188 0.019687
0.666875 0.138125 0.020625
0.697188 0.139062 0.021563
0.727500 0.140000 0.022500
0.757812 0.140938 0.023438
0.788125 0.141875 0.024375
0.818438 0.142812 0.025313
0.848750 0.143750 0.026250
0.879062 0.144688 0.027188
0.909375 0.145625 0.028125
0.939688 0.146562 0.029062
0.970000 0.147500 0.030000
0.004688 0.151562 0.004688
0.034062 0.151562 0.004688
0.063438 0.151562 0.004688
0.092812 0.151562 0.004688
0.122188 0.151562 0.004688
0.151562 0.151562 0.004688
0.181875 0.152500 0.005625
0.212188 0.153438 0.006562
0.242500 0.154375 0.007500
0.272812 0.155312 0.008437
0.303125 0.156250 0.009375
0.333438 0.157188 0.010312
0.363750 0.158125 0.011250
0.394062 0.159062 0.012188
0.424375 0.160000 0.013125
0.454688 0.160938 0.014063
0.485000 0.161875 0.015000
0.515312 0.162812 0.015938
0.545625 0.163750 0.016875
0.575938 0.164688 0.017812
0.606250 0.165625 0.018750
0.636562 0.166562 0.019687
0.666875 0.167500 0.020625
0.697188 0.168438 0.021563
0.727500 0.169375 0.022500
0.757812 0.170312 0.023438
0.788125 0.171250 0.024375
0.818438 0.172188 0.025313
0.848750 0.173125 0.026250
0.879062 0.174062 0.027188
0.909375 0.175000 0.028125
0.939688 0.175938 0.029062
0.970000 0.176875 0.030000
0.005625 0.181875 0.005625
0.035000 0.181875 0.005625
0.064375 0.181875 0.005625
0.093750 0.181875 0.005625
0.123125 0.181875 0.005625
0.152500 0.181875 0.005625
0.181875 0.181875 0.005625
0.212188 0.182812 0.006562
0.242500 0.183750 0.007500
0.272812 0.184688 0.008437
0.303125 0.185625 0.009375
0.333438 0.186562 0.010312
0.363750 0.187500 0.011250
0.394062 0.188438 0.012188
0.424375 0.189375 0.013125
0.454688 0.190312 0.014063
0.485000 0.191250 0.015000
0.515312 0.192188 0.015938
0.545625 0.193125 0.016875
0.575938 0.194062 0.017812
0.606250 0.195000 0.018750
0.636562 0.195938 0.019687
0.666875 0.196875 0.020625
0.697188 0.197812 0.021563
0.727500 0.198750 0.022500
0.757812 0.199688 0.023438
0.788125 0.200625 0.024375
0.818438 0.201562 0.025313
0.848750 0.202500 0.026250
0.879062 0.203438 0.027188
0.909375 0.204375 0.028125
0.939688 0.205312 0.029062
0.970000 0.206250 0.030000
0.006562 0.212188 0.006562
0.035938 0.212188 0.006562
0.065312 0.212188 0.006562
0.094688 0.212188 0.006562
0.124062 0.212188 0.006562
0.153438 0.212188 0.006562
0.182812 0.212188 0.006562
0.212188 0.212188 0.006562
0.242500 0.213125 0.007500
0.272812 0.214062 0.008437
0.303125 0.215000 0.009375
0.333438 0.215938 0.010312
0.363750 0.216875 0.011250
0.394062 0.217812 0.012188
0.424375 0.218750 0.013125
0.454688 0.219688 0.014063
0.485000 0.220625 0.015000
0.515312 0.221562 0.015938
0.545625 0.222500 0.016875
0.575938 0.223438 0.017812
0.606250 0.224375 0.018750
0.636562 0.225312 0.019687
0.666875 0.226250 0.020625
0.697188 0.227188 0.021563
0.727500 0.228125 0.022500
0.757812 0.229062 0.023438
0.788125 0.230000 0.024375
0.818438 0.230938 0.025313
0.848750 0.231875 0.026250
0.879062 0.232812 0.027188
0.909375 0.233750 0.028125
0.939688 0.234688 0.029062
0.970000 0.235625 0.030000
0.007500 0.242500 0.007500
0.036875 0.242500 0.007500
0.066250 0.242500 0.007500
0.095625 0.242500 0.007500
0.125000 0.242500 0.007500
0.154375 0.242500 0.007500
0.183750 0.242500 0.007500
0.213125 0.242500 0.007500
0.242500 0.242500 0.007500
0.272812 0.243438 0.008437
0.303125 0.244375 0.009375
0.333438 0.245312 0.010312
0.363750 0.246250 0.011250
0.394062 0.247188 0.012188
0.424375 0.248125 0.013125
0.454688 0.249062 0.014063
0.485000 0.250000 0.015000
0.515312 0.250938 0.015938
0.545625 0.251875 0.016875
0.575938 0.252812 0.017812
0.606250 0.253750 0.018750
0.636562 0.254688 0.019687
0.666875 0.255625 0.020625
0.697188 0.256562 0.021563
0.727500 0.257500 0.022500
0.757812 0.258438 0.023438
0.788125 0.259375 0.024375
0.818438 0.260312 0.025313
0.848750 0.261250 0.026250
0.879062 0.262188 0.027188
0.909375 0.263125 0.028125
0.939688 0.264062 0.029062
0.970000 0.265000 0.030000
0.008437 0.272812 0.008437
0.037812 0.272812 0.008437
0.067188 0.272812 0.008437
0.096562 0.272812 0.008437
0.125938 0.272812 0.008437
0.155312 0.272812 0.008437
0.184688 0.272812 0.008437
0.214062 0.272812 0.008437
0.243438 0.272812 0.008437
0.272812 0.272812 0.008437
0.303125 0.273750 0.009375
0.333438 0.274688 0.010312
0.363750 0.275625 0.011250
0.394062 0.276562 0.012188
0.424375 0.277500 0.013125
0.454688 0.278438 0.014063
0.485000 0.279375 0.015000
0.515312 0.280312 0.015938
0.545625 0.281250 0.016875
0.575938 0.282188 0.017812
0.606250 0.283125 0.018750
0.636562 0.284062 0.019687
0.666875 0.285000 0.020625
0.697188 0.285938 0.021563
0.727500 0.286875 0.022500
0.757812 0.287812 0.023438
0.788125 0.288750 0.024375
0.818438 0.289688 0.025313
0.848750 0.290625 0.026250
0.879062 0.291562 0.027188
0.909375 0.292500 0.028125
0.939688 0.293438 0.029062
0.970000 0.294375 0.030000
0.009375 0.303125 0.009375
0.038750 0.303125 0.009375
0.068125 0.303125 0.009375
0.097500 0.303125 0.009375
0.126875 0.303125 0.009375
0.156250 0.303125 0.009375
0.185625 0.303125 0.009375
0.215000 0.303125 0.009375
0.244375 0.303125 0.009375
0.273750 0.303125 0.009375
0.303125 0.303125 0.009375
0.333438 0.304062 0.010312
0.363750 0.305000 0.011250
0.394062 0.305938 0.012188
0.424375 0.306875 0.013125
0.454688 0.307812 0.014063
0.485000 0.308750 0.015000
0.515312 0.309688 0.015938
0.545625 0.310625 0.016875
0.575938 0.311562 0.017812
0.606250 0.312500 0.018750
0.636562 0.313438 0.019687
0.666875 0.314375 0.020625
0.697188 0.315312 0.021563
0.727500 0.316250 0.022500
0.757812 0.317188 0.023438
0.788125 0.318125 0.024375
0.818438 0.319062 0.025313
0.848750 0.320000 0.026250
0.879062 0.320938 0.027188
0.909375 0.321875 0.028125
0.939688 0.322812 0.029062
0.970000 0.323750 0.030000
0.010312 0.333438 0.010312
0.039688 0.333438 0.010312
0.069062 0.333438 0.010312
0.098437 0.333438 0.010312
0.127812 0.333438 0.010312
0.157188 0.333438 0.010312
0.186562 0.333438 0.010312
0.215938 0.333438 0.010312
0.245312 0.333438 0.010312
0.274688 0.333438 0.010312
0.304062 0.333438 0.010312
0.333438 0.333438 0.010312
0.363750 0.334375 0.011250
0.394062 0.335312 0.012188
0.424375 0.336250 0.013125
0.454688 0.337188 0.014063
0.485000 0.338125 0.015000
0.515312 0.339062 0.015938
0.545625 0.340000 0.016875
0.575938 0.340938 0.017812
0.606250 0.341875 0.018750
0.636562 0.342812 0.019687
0.666875 0.343750 0.020625
0.697188 0.344688 0.021563
0.727500 0.345625 0.022500
0.757812 0.346562 0.023438
0.788125 0.347500 0.024375
0.818438 0.348438 0.025313
0.848750 0.349375 0.026250
0.879062 0.350312 0.027188
0.909375 0.351250 0.028125
0.939688 0.352188 0.029062
0.970000 0.353125 0.030000
0.011250 0.363750 0.011250
0.040625 0.363750 0.011250
0.070000 0.363750 0.011250
0.099375 0.363750 0.011250
0.128750 0.363750 0.011250
0.158125 0.363750 0.011250
0.187500 0.363750 0.011250
0.216875 0.363750 0.011250
0.246250 0.363750 0.011250
0.275625 0.363750 0.011250
0.305000 0.363750 0.011250
0.334375 0.363750 0.011250
0.363750 0.363750 0.011250
0.394062 0.364688 0.012188
0.424375 0.365625 0.013125
0.454688 0.366562 0.014063
0.485000 0.367500 0.015000
0.515312 0.368438 0.015938
0.545625 0.369375 0.016875
0.575938 0.370312 0.017812
0.606250 0.371250 0.018750
0.636562 0.372188 0.019687
0.666875 0.373125 0.020625
0.697188 0.374062 0.021563
0.727500 0.375000 0.022500
0.757812 0.375938 0.023438
0.788125 0.376875 0.024375
0.818438 0.377812 0.025313
0.848750 0.378750 0.026250
0.879062 0.379688 0.027188
0.909375 0.380625 0.028125
0.939688 0.381562 0.029062
0.970000 0.382500 0.030000
0.012188 0.394062 0.012188
0.041562 0.394062 0.012188
0.070938 0.394062 0.012188
0.100312 0.394062 0.012188
0.129688 0.394062 0.012188
0.159062 0.394062 0.012188
0.188438 0.394062 0.012188
0.217812 0.394062 0.012188
0.247188 0.394062 0.012188
0.276562 0.394062 0.012188
0.305938 0.394062 0.012188
0.335312 0.394062 0.012188
0.364688 0.394062 0.012188
0.394062 0.394062 0.012188
0.424375 0.395000 0.013125
0.454688 0.395938 0.014063
0.485000 0.396875 0.015000
0.515312 0.397812 0.015938
0.545625 0.398750 0.016875
0.575938 0.399688 0.017812
0.606250 0.400625 0.018750
0.636562 0.401562 0.019687
0.666875 0.402500 0.020625
0.697188 0.403438 0.021563
0.727500 0.404375 0.022500
0.757812 0.405312 0.023438
0.788125 0.406250 0.024375
0.818438 0.407188 0.025313
0.848750 0.408125 0.026250
0.879062 0.409062 0.027188
0.909375 0.410000 0.028125
0.939688 0.410938 0.029062
0.970000 0.411875 0.030000
0.013125 0.424375 0.013125
0.042500 0.424375 0.013125
0.071875 0.424375 0.013125
0.101250 0.424375 0.013125
0.130625 0.424375 0.013125
0.160000 0.424375 0.013125
0.189375 0.424375 0.013125
0.218750 0.424375 0.013125
0.248125 0.424375 0.013125
0.277500 0.424375 0.013125
0.306875 0.424375 0.013125
0.336250 0.424375 0.013125
0.365625 0.424375 0.013125
0.395000 0.424375 0.013125
0.424375 0.424375 0.013125
0.454688 0.425312 0.014063
0.485000 0.426250 0.015000
0.515312 0.427188 0.015938
0.545625 0.428125 0.016875
0.575938 0.429062 0.017812
0.606250 0.430000 0.018750
0.636562 0.430938 0.019687
0.666875 0.431875 0.020625
0.697188 0.432812 0.021563
0.727500 0.433750 0.022500
0.757812 0.434688 0.023438
0.788125 0.435625 0.024375
0.818438 0.436562 0.025313
0.848750 0.437500 0.026250
0.879062 0.438438 0.027188
0.909375 0.439375 0.028125
0.939688 0.440312 0.029062
0.970000 0.441250 0.030000
0.014063 0.454688 0.014063
0.043437 0.454688 0.014063
0.072813 0.454688 0.014063
0.102188 0.454688 0.014063
0.131562 0.454688 0.014063
0.160938 0.454688 0.014063
0.190312 0.454688 0.014063
0.219688 0.454688 0.014063
0.249062 0.454688 0.014063
0.278438 0.454688 0.014063
0.307812 0.454688 0.014063
0.337188 0.454688 0.014063
0.366562 0.454688 0.014063
0.395938 0.454688 0.014063
0.425312 0.454688 0.014063
0.454688 0.454688 0.014063
0.485000 0.455625 0.015000
0.515312 0.456562 0.015938
0.545625 0.457500 0.016875
0.575938 0.458438 0.017812
0.606250 0.459375 0.018750
0.636562 0.460312 0.019687
0.666875 0.461250 0.020625
0.697188 0.462188 0.021563
0.727500 0.463125 0.022500
0.757812 0.464062 0.023438
0.788125 0.465000 0.024375
0.818438 0.465938 0.025313
0.848750 0.466875 0.026250
0.879062 0.467812 0.027188
0.909375 0.468750 0.028125
0.939688 0.469688 0.029062
0.970000 0.470625 0.030000
0.015000 0.485000 0.015000
0.044375 0.485000 0.015000
0.073750 0.485000 0.015000
0.103125 0.485000 0.015000
0.132500 0.485000 0.015000
0.161875 0.485000 0.015000
0.191250 0.485000 0.015000
0.220625 0.485000 0.015000
0.250000 0.485000 0.015000
0.279375 0.485000 0.015000
0.308750 0.485000 0.015000
0.338125 0.485000 0.015000
0.367500 0.485000 0.015000
0.396875 0.485000 0.015000
0.426250 0.485000 0.015000
0.455625 0.485000 0.015000
0.485000 0.485000 0.015000
0.515312 0.485938 0.015938
0.545625 0.486875 0.016875
0.575938 0.487812 0.017812
0.606250 0.488750 0.018750
0.636562 0.489688 0.019687
0.666875 0.490625 0.020625
0.697188 0.491562 0.021563
0.727500 0.492500 0.022500
0.757812 0.493438 0.023438
0.788125 0.494375 0.024375
0.818438 0.495312 0.025313
0.848750 0.496250 0.026250
0.879062 0.497188 0.027188
0.909375 0.498125 0.028125
0.939688 0.499062 0.029062
0.970000 0.500000 0.030000
0.015938 0.515312 0.015938
0.045312 0.515312 0.015938
0.074688 0.515312 0.015938
0.104062 0.515312 0.015938
0.133438 0.515312 0.015938
0.162812 0.515312 0.015938
0.192188 0.515312 0.015938
0.221562 0.515312 0.015938
0.250938 0.515312 0.015938
0.280312 0.515312 0.015938
0.309688 0.515312 0.015938
0.339062 0.515312 0.015938
0.368438 0.515312 0.015938
0.397812 0.515312 0.015938
0.427188 0.515312 0.015938
0.456562 0.515312 0.015938
0.485938 0.515312 0.015938
0.515312 0.515312 0.015938
0.545625 0.516250 0.016875
0.575938 0.517188 0.017812
0.606250 0.518125 0.018750
0.636562 0.519062 0.019687
0.666875 0.520000 0.020625
0.697188 0.520938 0.021563
0.727500 0.521875 0.022500
0.757812 0.522812 0.023438
0.788125 0.523750 0.024375
0.818438 0.524688 0.025313
0.848750 0.525625 0.026250
0.879062 0.526562 0.027188
0.909375 0.527500 0.028125
0.939688 0.528438 0.029062
0.970000 0.529375 0.030000
0.016875 0.545625 0.016875
0.046250 0.545625 0.016875
0.075625 0.545625 0.016875
0.105000 0.545625 0.016875
0.134375 0.545625 0.016875
0.163750 0.545625 0.016875
0.193125 0.545625 0.016875
0.222500 0.545625 0.016875
0.251875 0.545625 0.016875
0.281250 0.545625 0.016875
0.310625 0.545625 0.016875
0.340000 0.545625 0.016875
0.369375 0.545625 0.016875
0.398750 0.545625 0.016875
0.428125 0.545625 0.016875
0.457500 0.545625 0.016875
0.486875 0.545625 0.016875
0.516250 0.545625 0.016875
0.545625 0.545625 0.016875
0.575938 0.546562 0.017812
0.606250 0.547500 0.018750
0.636562 0.548438 0.019687
0.666875 0.549375 0.020625
0.697188 0.550312 0.021563
0.727500 0.551250 0.022500
0.757812 0.552188 0.023438
0.788125 0.553125 0.024375
0.818438 0.554062 0.025313
0.848750 0.555000 0.026250
0.879062 0.555938 0.027188
0.909375 0.556875 0.028125
0.939688 0.557812 0.029062
0.970000 0.558750 0.030000
0.017812 0.575938 0.017812
0.047187 0.575938 0.017812
0.076562 0.575938 0.017812
0.105938 0.575938 0.017812
0.135312 0.575938 0.017812
0.164688 0.575938 0.017812
0.194062 0.575938 0.017812
0.223438 0.575938 0.017812
0.252812 0.575938 0.017812
0.282187 0.575938 0.017812
0.311562 0.575938 0.017812
0.340938 0.575938 0.017812
0.370312 0.575938 0.017812
0.399688 0.575938 0.017812
0.429062 0.575938 0.017812
0.458438 0.575938 0.017812
0.487812 0.575938 0.017812
0.517188 0.575938 0.017812
0.546562 0.575938 0.017812
0.575938 0.575938 0.017812
0.606250 0.576875 0.018750
0.636562 0.577812 0.019687
0.666875 0.578750 0.020625
0.697188 0.579688 0.021563
0.727500 0.580625 0.022500
0.757812 0.581562 0.023438
0.788125 0.582500 0.024375
0.818438 0.583438 0.025313
0.848750 0.584375 0.026250
0.879062 0.585312 0.027188
0.909375 0.586250 0.028125
0.939688 0.587188 0.029062
0.970000 0.588125 0.030000
0.018750 0.606250 0.018750
0.048125 0.606250 0.018750
0.077500 0.606250 0.018750
0.106875 0.606250 0.018750
0.136250 0.606250 0.018750
0.165625 0.606250 0.018750
0.195000 0.606250 0.018750
0.224375 0.606250 0.018750
0.253750 0.606250 0.018750
0.283125 0.606250 0.018750
0.312500 0.606250 0.018750
0.341875 0.606250 0.018750
0.371250 0.606250 0.018750
0.400625 0.606250 0.018750
0.430000 0.606250 0.018750
0.459375 0.606250 0.018750
0.488750 0.606250 0.018750
0.518125 0.606250 0.018750
0.547500 0.606250 0.018750
0.576875 0.606250 0.018750
0.606250 0.606250 0.018750
0.636562 0.607188 0.019687
0.666875 0.608125 0.020625
0.697188 0.609062 0.021563
0.727500 0.610000 0.022500
0.757812 0.610938 0.023438
0.788125 0.611875 0.024375
0.818438 0.612812 0.025313
0.848750 0.613750 0.026250
0.879062 0.614688 0.027188
0.909375 0.615625 0.028125
0.939688 0.616562 0.029062
0.970000 0.617500 0.030000
0.019687 0.636562 0.019687
0.049062 0.636562 0.019687
0.078438 0.636562 0.019687
0.107812 0.636562 0.019687
0.137188 0.636562 0.019687
0.166562 0.636562 0.019687
0.195938 0.636562 0.019687
0.225312 0.636562 0.019687
0.254688 0.636562 0.019687
0.284063 0.636562 0.019687
0.313438 0.636562 0.019687
0.342812 0.636562 0.019687
0.372188 0.636562 0.019687
0.401562 0.636562 0.019687
0.430938 0.636562 0.019687
0.460312 0.636562 0.019687
0.489688 0.636562 0.019687
0.519062 0.636562 0.019687
0.548438 0.636562 0.019687
0.577812 0.636562 0.019687
0.607188 0.636562 0.019687
0.636562 0.636562 0.019687
0.666875 0.637500 0.020625
0.697188 0.638438 0.021563
0.727500 0.639375 0.022500
0.757812 0.640312 0.023438
0.788125 0.641250 0.024375
0.818438 0.642188 0.025313
0.848750 0.643125 0.026250
0.879062 0.644062 0.027188
0.909375 0.645000 0.028125
0.939688 0.645938 0.029062
0.970000 0.646875 0.030000
0.020625 0.666875 0.020625
0.050000 0.666875 0.020625
0.079375 0.666875 0.020625
0.108750 0.666875 0.020625
0.138125 0.666875 0.020625
0.167500 0.666875 0.020625
0.196875 0.666875 0.020625
0.226250 0.666875 0.020625
0.255625 0.666875 0.020625
0.285000 0.666875 0.020625
0.314375 0.666875 0.020625
0.343750 0.666875 0.020625
0.373125 0.666875 0.020625
0.402500 0.666875 0.020625
0.431875 0.666875 0.020625
0.461250 0.666875 0.020625
0.490625 0.666875 0.020625
0.520000 0.666875 0.020625
0.549375 0.666875 0.020625
0.578750 0.666875 0.020625
0.608125 0.666875 0.020625
0.637500 0.666875 0.020625
0.666875 0.666875 0.020625
0.697188 0.667812 0.021563
0.727500 0.668750 0.022500
0.757812 0.669688 0.023438
0.788125 0.670625 0.024375
0.818438 0.671562 0.025313
0.848750 0.672500 0.026250
0.879062 0.673438 0.027188
0.909375 0.674375 0.028125
0.939688 0.675312 0.029062
0.970000 0.676250 0.030000
0.021563 0.697188 0.021563
0.050937 0.697188 0.021563
0.080312 0.697188 0.021563
0.109688 0.697188 0.021563
0.139062 0.697188 0.021563
0.168438 0.697188 0.021563
0.197812 0.697188 0.021563
0.227188 0.697188 0.021563
0.256562 0.697188 0.021563
0.285938 0.697188 0.021563
0.315312 0.697188 0.021563
0.344688 0.697188 0.021563
0.374062 0.697188 0.021563
0.403438 0.697188 0.021563
0.432812 0.697188 0.021563
0.462188 0.697188 0.021563
0.491562 0.697188 0.021563
0.520938 0.697188 0.021563
0.550312 0.697188 0.021563
0.579688 0.697188 0.021563
0.609062 0.697188 0.021563
0.638438 0.697188 0.021563
0.667812 0.697188 0.021563
0.697188 0.697188 0.021563
0.727500 0.698125 0.022500
0.757812 0.699062 0.023438
0.788125 0.700000 0.024375
0.818438 0.700938 0.025313
0.848750 0.701875 0.026250
0.879062 0.702812 0.027188
0.909375 0.703750 0.028125
0.939688 0.704688 0.029062
0.970000 0.705625 0.030000
0.022500 0.727500 0.022500
0.051875 0.727500 0.022500
0.081250 0.727500 0.022500
0.110625 0.727500 0.022500
0.140000 0.727500 0.022500
0.169375 0.727500 0.022500
0.198750 0.727500 0.022500
0.228125 0.727500 0.022500
0.257500 0.727500 0.022500
0.286875 0.727500 0.022500
0.316250 0.727500 0.022500
0.345625 0.727500 0.022500
0.375000 0.727500 0.022500
0.404375 0.727500 0.022500
0.433750 0.727500 0.022500
0.463125 0.727500 0.022500
0.492500 0.727500 0.022500
0.521875 0.727500 0.022500
0.551250 0.727500 0.022500
0.580625 0.727500 0.022500
0.610000 0.727500 0.022500
0.639375 0.727500 0.022500
0.668750 0.727500 0.022500
0.698125 0.727500 0.022500
0.727500 0.727500 0.022500
0.757812 0.728438 0.023438
0.788125 0.729375 0.024375
0.818438 0.730312 0.025313
0.848750 0.731250 0.026250
0.879062 0.732188 0.027188
0.909375 0.733125 0.028125
0.939688 0.734062 0.029062
0.970000 0.735000 0.030000
0.023438 0.757812 0.023438
0.052813 0.757812 0.023438
0.082187 0.757812 0.023438
0.111562 0.757812 0.023438
0.140937 0.757812 0.023438
0.170312 0.757812 0.023438
0.199687 0.757812 0.023438
0.229062 0.757812 0.023438
0.258438 0.757812 0.023438
0.287812 0.757812 0.023438
0.317188 0.757812 0.023438
0.346562 0.757812 0.023438
0.375938 0.757812 0.023438
0.405312 0.757812 0.023438
0.434688 0.757812 0.023438
0.464062 0.757812 0.023438
0.493438 0.757812 0.023438
0.522813 0.757812 0.023438
0.552188 0.757812 0.023438
0.581562 0.757812 0.023438
0.610938 0.757812 0.023438
0.640312 0.757812 0.023438
0.669688 0.757812 0.023438
0.699062 0.757812 0.023438
0.728438 0.757812 0.023438
0.757812 0.757812 0.023438
0.788125 0.758750 0.024375
0.818438 0.759688 0.025313
0.848750 0.760625 0.026250
0.879062 0.761562 0.027188
0.909375 0.762500 0.028125
0.939688 0.763438 0.029062
0.970000 0.764375 0.030000
0.024375 0.788125 0.024375
0.053750 0.788125 0.024375
0.083125 0.788125 0.024375
0.112500 0.788125 0.024375
0.141875 0.788125 0.024375
0.171250 0.788125 0.024375
0.200625 0.788125 0.024375
0.230000 0.788125 0.024375
0.259375 0.788125 0.024375
0.288750 0.788125 0.024375
0.318125 0.788125 0.024375
0.347500 0.788125 0.024375
0.376875 0.788125 0.024375
0.406250 0.788125 0.024375
0.435625 0.788125 0.024375
0.465000 0.788125 0.024375
0.494375 0.788125 0.024375
0.523750 0.788125 0.024375
0.553125 0.788125 0.024375
0.582500 0.788125 0.024375
0.611875 0.788125 0.024375
0.641250 0.788125 0.024375
0.670625 0.788125 0.024375
0.700000 0.788125 0.024375
0.729375 0.788125 0.024375
