correction_luts/sat_boost.cube
# Global saturation increase for more vibrancy
# Strength: 1.0
TITLE "Saturation Boost - +15%"
LUT_3D_SIZE 5
0.000000 0.000000 0.000000
0.250000 0.000000 0.000000
0.500000 0.000000 0.000000
0.750000 0.000000 0.000000
1.000000 0.000000 0.000000
0.000000 0.250000 0.000000
0.250000 0.250000 0.000000
0.500000 0.250000 0.000000
0.750000 0.250000 0.000000
1.000000 0.250000 0.000000
0.000000 0.500000 0.000000
0.250000 0.500000 0.000000
0.500000 0.500000 0.000000
0.750000 0.500000 0.000000
1.000000 0.500000 0.000000
0.000000 0.750000 0.000000
0.250000 0.750000 0.000000
0.500000 0.750000 0.000000
0.750000 0.750000 0.000000
1.000000 0.750000 0.000000
0.000000 1.000000 0.000000
0.250000 1.000000 0.000000
0.500000 1.000000 0.000000
0.750000 1.000000 0.000000
1.000000 1.000000 0.000000
0.000000 0.000000 0.250000
0.250000 0.000000 0.250000
0.500000 0.000000 0.250000
0.750000 0.000000 0.250000
1.000000 0.000000 0.250000
0.000000 0.250000 0.250000
0.250000 0.250000 0.250000
0.518750 0.231250 0.231250
0.787500 0.212500 0.212500
1.000000 0.250000 0.250000
0.000000 0.500000 0.250000
0.231250 0.518750 0.231250
0.518750 0.518750 0.231250
0.787500 0.500000 0.212500
1.000000 0.500000 0.250000
0.000000 0.750000 0.250000
0.212500 0.787500 0.212500
0.500000 0.787500 0.212500
0.787500 0.787500 0.212500
1.000000 0.750000 0.250000
0.000000 1.000000 0.250000
0.250000 1.000000 0.250000
0.500000 1.000000 0.250000
0.750000 1.000000 0.250000
1.000000 1.000000 0.250000
0.000000 0.000000 0.500000
0.250000 0.000000 0.500000
0.500000 0.000000 0.500000
0.750000 0.000000 0.500000
1.000000 0.000000 0.500000
0.000000 0.250000 0.500000
0.231250 0.231250 0.518750
0.518750 0.231250 0.518750
0.787500 0.212500 0.500000
1.000000 0.250000 0.500000
0.000000 0.500000 0.500000
0.231250 0.518750 0.518750
0.500000 0.500000 0.500000
0.768750 0.481250 0.481250
1.000000 0.500000 0.500000
0.000000 0.750000 0.500000
0.212500 0.787500 0.500000
0.481250 0.768750 0.481250
0.768750 0.768750 0.481250
1.000000 0.750000 0.500000
0.000000 1.000000 0.500000
0.250000 1.000000 0.500000
0.500000 1.000000 0.500000
0.750000 1.000000 0.500000
1.000000 1.000000 0.500000
0.000000 0.000000 0.750000
0.250000 0.000000 0.750000
0.500000 0.000000 0.750000
0.750000 0.000000 0.750000
1.000000 0.000000 0.750000
0.000000 0.250000 0.750000
0.212500 0.212500 0.787500
0.500000 0.212500 0.787500
0.787500 0.212500 0.787500
1.000000 0.250000 0.750000
0.000000 0.500000 0.750000
0.212500 0.500000 0.787500
0.481250 0.481250 0.768750
0.768750 0.481250 0.768750
1.000000 0.500000 0.750000
0.000000 0.750000 0.750000
0.212500 0.787500 0.787500
0.481250 0.768750 0.768750
0.750000 0.750000 0.750000
1.000000 0.750000 0.750000
0.000000 1.000000 0.750000
0.250000 1.000000 0.750000
0.500000 1.000000 0.750000
0.750000 1.000000 0.750000
1.000000 1.000000 0.750000
0.000000 0.000000 1.000000
0.250000 0.000000 1.000000
0.500000 0.000000 1.000000
0.750000 0.000000 1.000000
1.000000 0.000000 1.000000
0.000000 0.250000 1.000000
0.250000 0.250000 1.000000
0.500000 0.250000 1.000000
0.750000 0.250000 1.000000
1.000000 0.250000 1.000000
0.000000 0.500000 1.000000
0.250000 0.500000 1.000000
0.500000 0.500000 1.000000
0.750000 0.500000 1.000000
1.000000 0.500000 1.000000
0.000000 0.750000 1.000000
0.250000 0.750000 1.000000
0.500000 0.750000 1.000000
0.750000 0.750000 1.000000
1.000000 0.750000 1.000000
0.000000 1.000000 1.000000
0.250000 1.000000 1.000000
0.500000 1.000000 1.000000
0.750000 1.000000 1.000000
1.000000 1.000000 1.000000
