correction_luts/sat_boost_70.cube
# Global saturation increase for more vibrancy
# Strength: 0.7
TITLE "Saturation Boost - +15%"
LUT_3D_SIZE 9
0.000000 0.000000 0.000000
0.125000 0.000000 0.000000
0.250000 0.000000 0.000000
0.375000 0.000000 0.000000
0.500000 0.000000 0.000000
0.625000 0.000000 0.000000
0.750000 0.000000 0.000000
0.875000 0.000000 0.000000
1.000000 0.000000 0.000000
0.000000 0.125000 0.000000
0.125000 0.125000 0.000000
0.250000 0.125000 0.000000
0.375000 0.125000 0.000000
0.500000 0.125000 0.000000
0.625000 0.125000 0.000000
0.750000 0.125000 0.000000
0.875000 0.125000 0.000000
1.000000 0.125000 0.000000
0.000000 0.250000 0.000000
0.125000 0.250000 0.000000
0.250000 0.250000 0.000000
0.375000 0.250000 0.000000
0.500000 0.250000 0.000000
0.625000 0.250000 0.000000
0.750000 0.250000 0.000000
0.875000 0.250000 0.000000
1.000000 0.250000 0.000000
0.000000 0.375000 0.000000
0.125000 0.375000 0.000000
0.250000 0.375000 0.000000
0.375000 0.375000 0.000000
0.500000 0.375000 0.000000
0.625000 0.375000 0.000000
0.750000 0.375000 0.000000
0.875000 0.375000 0.000000
1.000000 0.375000 0.000000
0.000000 0.500000 0.000000
0.125000 0.500000 0.000000
0.250000 0.500000 0.000000
0.375000 0.500000 0.000000
0.500000 0.500000 0.000000
0.625000 0.500000 0.000000
0.750000 0.500000 0.000000
0.875000 0.500000 0.000000
1.000000 0.500000 0.000000
0.000000 0.625000 0.000000
0.125000 0.625000 0.000000
0.250000 0.625000 0.000000
0.375000 0.625000 0.000000
0.500000 0.625000 0.000000
0.625000 0.625000 0.000000
0.750000 0.625000 0.000000
0.875000 0.625000 0.000000
1.000000 0.625000 0.000000
0.000000 0.750000 0.000000
0.125000 0.750000 0.000000
0.250000 0.750000 0.000000
0.375000 0.750000 0.000000
0.500000 0.750000 0.000000
0.625000 0.750000 0.000000
0.750000 0.750000 0.000000
0.875000 0.750000 0.000000
1.000000 0.750000 0.000000
0.000000 0.875000 0.000000
0.125000 0.875000 0.000000
0.250000 0.875000 0.000000
0.375000 0.875000 0.000000
0.500000 0.875000 0.000000
0.625000 0.875000 0.000000
0.750000 0.875000 0.000000
0.875000 0.875000 0.000000
1.000000 0.875000 0.000000
0.000000 1.000000 0.000000
0.125000 1.000000 0.000000
0.250000 1.000000 0.000000
0.375000 1.000000 0.000000
0.500000 1.000000 0.000000
0.625000 1.000000 0.000000
0.750000 1.000000 0.000000
0.875000 1.000000 0.000000
1.000000 1.000000 0.000000
0.000000 0.000000 0.125000
0.125000 0.000000 0.125000
0.250000 0.000000 0.125000
0.375000 0.000000 0.125000
0.500000 0.000000 0.125000
0.625000 0.000000 0.125000
0.750000 0.000000 0.125000
0.875000 0.000000 0.125000
1.000000 0.000000 0.125000
0.000000 0.125000 0.125000
0.125000 0.125000 0.125000
0.256562 0.118438 0.118438
0.388125 0.111875 0.111875
0.519688 0.105312 0.105312
0.651250 0.098750 0.098750
0.782812 0.092188 0.092188
0.914375 0.085625 0.085625
1.000000 0.125000 0.125000
0.000000 0.250000 0.125000
0.118438 0.256562 0.118438
0.256562 0.256562 0.118438
0.388125 0.250000 0.111875
0.519688 0.243438 0.105312
0.651250 0.236875 0.098750
0.782812 0.230312 0.092188
0.914375 0.223750 0.085625
1.000000 0.250000 0.125000
0.000000 0.375000 0.125000
0.111875 0.388125 0.111875
0.250000 0.388125 0.111875
0.388125 0.388125 0.111875
0.519688 0.381562 0.105312
0.651250 0.375000 0.098750
0.782812 0.368438 0.092188
0.914375 0.361875 0.085625
1.000000 0.375000 0.125000
0.000000 0.500000 0.125000
0.105312 0.519688 0.105312
0.243438 0.519688 0.105312
0.381562 0.519688 0.105312
0.519688 0.519688 0.105312
0.651250 0.513125 0.098750
0.782812 0.506562 0.092188
0.914375 0.500000 0.085625
1.000000 0.500000 0.125000
0.000000 0.625000 0.125000
0.098750 0.651250 0.098750
0.236875 0.651250 0.098750
0.375000 0.651250 0.098750
0.513125 0.651250 0.098750
0.651250 0.651250 0.098750
0.782812 0.644688 0.092188
0.914375 0.638125 0.085625
1.000000 0.625000 0.125000
0.000000 0.750000 0.125000
0.092188 0.782812 0.092188
0.230312 0.782812 0.092188
0.368438 0.782812 0.092188
0.506562 0.782812 0.092188
0.644688 0.782812 0.092188
0.782812 0.782812 0.092188
0.914375 0.776250 0.085625
1.000000 0.750000 0.125000
0.000000 0.875000 0.125000
0.085625 0.914375 0.085625
0.223750 0.914375 0.085625
0.361875 0.914375 0.085625
0.500000 0.914375 0.085625
0.638125 0.914375 0.085625
0.776250 0.914375 0.085625
0.914375 0.914375 0.085625
1.000000 0.875000 0.125000
0.000000 1.000000 0.125000
0.125000 1.000000 0.125000
0.250000 1.000000 0.125000
0.375000 1.000000 0.125000
0.500000 1.000000 0.125000
0.625000 1.000000 0.125000
0.750000 1.000000 0.125000
0.875000 1.000000 0.125000
1.000000 1.000000 0.125000
0.000000 0.000000 0.250000
0.125000 0.000000 0.250000
0.250000 0.000000 0.250000
0.375000 0.000000 0.250000
0.500000 0.000000 0.250000
0.625000 0.000000 0.250000
0.750000 0.000000 0.250000
0.875000 0.000000 0.250000
1.000000 0.000000 0.250000
0.000000 0.125000 0.250000
0.118438 0.118438 0.256562
0.256562 0.118438 0.256562
0.388125 0.111875 0.250000
0.519688 0.105312 0.243438
0.651250 0.098750 0.236875
0.782812 0.092188 0.230312
0.914375 0.085625 0.223750
1.000000 0.125000 0.250000
0.000000 0.250000 0.250000
0.118438 0.256562 0.256562
0.250000 0.250000 0.250000
0.381562 0.243438 0.243438
0.513125 0.236875 0.236875
0.644688 0.230312 0.230312
0.776250 0.223750 0.223750
0.907812 0.217188 0.217188
1.000000 0.250000 0.250000
0.000000 0.375000 0.250000
0.111875 0.388125 0.250000
0.243438 0.381562 0.243438
0.381562 0.381562 0.243438
0.513125 0.375000 0.236875
0.644688 0.368438 0.230312
0.776250 0.361875 0.223750
0.907812 0.355312 0.217188
1.000000 0.375000 0.250000
0.000000 0.500000 0.250000
0.105312 0.519688 0.243438
0.236875 0.513125 0.236875
0.375000 0.513125 0.236875
0.513125 0.513125 0.236875
0.644688 0.506562 0.230312
0.776250 0.500000 0.223750
0.907812 0.493438 0.217188
1.000000 0.500000 0.250000
0.000000 0.625000 0.250000
0.098750 0.651250 0.236875
0.230312 0.644688 0.230312
0.368438 0.644688 0.230312
0.506562 0.644688 0.230312
0.644688 0.644688 0.230312
0.776250 0.638125 0.223750
0.907812 0.631562 0.217188
1.000000 0.625000 0.250000
0.000000 0.750000 0.250000
0.092188 0.782812 0.230312
0.223750 0.776250 0.223750
0.361875 0.776250 0.223750
0.500000 0.776250 0.223750
0.638125 0.776250 0.223750
0.776250 0.776250 0.223750
0.907812 0.769688 0.217188
1.000000 0.750000 0.250000
0.000000 0.875000 0.250000
0.085625 0.914375 0.223750
0.217188 0.907812 0.217188
0.355312 0.907812 0.217188
0.493438 0.907812 0.217188
0.631562 0.907812 0.217188
0.769688 0.907812 0.217188
0.907812 0.907812 0.217188
1.000000 0.875000 0.250000
0.000000 1.000000 0.250000
0.125000 1.000000 0.250000
0.250000 1.000000 0.250000
0.375000 1.000000 0.250000
0.500000 1.000000 0.250000
0.625000 1.000000 0.250000
0.750000 1.000000 0.250000
0.875000 1.000000 0.250000
1.000000 1.000000 0.250000
0.000000 0.000000 0.375000
0.125000 0.000000 0.375000
0.250000 0.000000 0.375000
0.375000 0.000000 0.375000
0.500000 0.000000 0.375000
0.625000 0.000000 0.375000
0.750000 0.000000 0.375000
0.875000 0.000000 0.375000
1.000000 0.000000 0.375000
0.000000 0.125000 0.375000
0.111875 0.111875 0.388125
0.250000 0.111875 0.388125
0.388125 0.111875 0.388125
0.519688 0.105312 0.381562
0.651250 0.098750 0.375000
0.782812 0.092188 0.368437
0.914375 0.085625 0.361875
1.000000 0.125000 0.375000
0.000000 0.250000 0.375000
0.111875 0.250000 0.388125
0.243438 0.243438 0.381562
0.381562 0.243438 0.381562
0.513125 0.236875 0.375000
0.644688 0.230312 0.368438
0.776250 0.223750 0.361875
0.907812 0.217188 0.355312
1.000000 0.250000 0.375000
0.000000 0.375000 0.375000
0.111875 0.388125 0.388125
0.243438 0.381562 0.381562
0.375000 0.375000 0.375000
0.506562 0.368438 0.368438
0.638125 0.361875 0.361875
0.769688 0.355312 0.355312
0.901250 0.348750 0.348750
1.000000 0.375000 0.375000
0.000000 0.500000 0.375000
0.105312 0.519688 0.381562
0.236875 0.513125 0.375000
0.368438 0.506562 0.368438
0.506562 0.506562 0.368438
0.638125 0.500000 0.361875
0.769688 0.493438 0.355312
0.901250 0.486875 0.348750
1.000000 0.500000 0.375000
0.000000 0.625000 0.375000
0.098750 0.651250 0.375000
0.230312 0.644688 0.368438
0.361875 0.638125 0.361875
0.500000 0.638125 0.361875
0.638125 0.638125 0.361875
0.769688 0.631562 0.355312
0.901250 0.625000 0.348750
1.000000 0.625000 0.375000
0.000000 0.750000 0.375000
0.092188 0.782812 0.368438
0.223750 0.776250 0.361875
0.355312 0.769688 0.355312
0.493438 0.769688 0.355312
0.631562 0.769688 0.355312
0.769688 0.769688 0.355312
0.901250 0.763125 0.348750
1.000000 0.750000 0.375000
0.000000 0.875000 0.375000
0.085625 0.914375 0.361875
0.217188 0.907812 0.355312
0.348750 0.901250 0.348750
0.486875 0.901250 0.348750
0.625000 0.901250 0.348750
0.763125 0.901250 0.348750
0.901250 0.901250 0.348750
1.000000 0.875000 0.375000
0.000000 1.000000 0.375000
0.125000 1.000000 0.375000
0.250000 1.000000 0.375000
0.375000 1.000000 0.375000
0.500000 1.000000 0.375000
0.625000 1.000000 0.375000
0.750000 1.000000 0.375000
0.875000 1.000000 0.375000
1.000000 1.000000 0.375000
0.000000 0.000000 0.500000
0.125000 0.000000 0.500000
0.250000 0.000000 0.500000
0.375000 0.000000 0.500000
0.500000 0.000000 0.500000
0.625000 0.000000 0.500000
0.750000 0.000000 0.500000
0.875000 0.000000 0.500000
1.000000 0.000000 0.500000
0.000000 0.125000 0.500000
0.105312 0.105312 0.519688
0.243438 0.105312 0.519688
0.381562 0.105312 0.519688
0.519688 0.105312 0.519688
0.651250 0.098750 0.513125
0.782812 0.092188 0.506562
0.914375 0.085625 0.500000
1.000000 0.125000 0.500000
0.000000 0.250000 0.500000
0.105312 0.243438 0.519688
0.236875 0.236875 0.513125
0.375000 0.236875 0.513125
0.513125 0.236875 0.513125
0.644688 0.230312 0.506562
0.776250 0.223750 0.500000
0.907812 0.217188 0.493437
1.000000 0.250000 0.500000
0.000000 0.375000 0.500000
0.105312 0.381562 0.519688
0.236875 0.375000 0.513125
0.368438 0.368438 0.506562
0.506562 0.368438 0.506562
0.638125 0.361875 0.500000
0.769688 0.355312 0.493438
0.901250 0.348750 0.486875
1.000000 0.375000 0.500000
0.000000 0.500000 0.500000
0.105312 0.519688 0.519688
0.236875 0.513125 0.513125
0.368438 0.506562 0.506562
0.500000 0.500000 0.500000
0.631562 0.493438 0.493438
0.763125 0.486875 0.486875
0.894688 0.480312 0.480312
1.000000 0.500000 0.500000
0.000000 0.625000 0.500000
0.098750 0.651250 0.513125
0.230312 0.644688 0.506562
0.361875 0.638125 0.500000
0.493438 0.631562 0.493438
0.631562 0.631562 0.493438
0.763125 0.625000 0.486875
0.894688 0.618438 0.480312
1.000000 0.625000 0.500000
0.000000 0.750000 0.500000
0.092188 0.782812 0.506562
0.223750 0.776250 0.500000
0.355312 0.769688 0.493438
0.486875 0.763125 0.486875
0.625000 0.763125 0.486875
0.763125 0.763125 0.486875
0.894688 0.756562 0.480312
1.000000 0.750000 0.500000
0.000000 0.875000 0.500000
0.085625 0.914375 0.500000
0.217188 0.907812 0.493438
0.348750 0.901250 0.486875
0.480312 0.894688 0.480312
0.618438 0.894688 0.480312
0.756562 0.894688 0.480312
0.894688 0.894688 0.480312
1.000000 0.875000 0.500000
0.000000 1.000000 0.500000
0.125000 1.000000 0.500000
0.250000 1.000000 0.500000
0.375000 1.000000 0.500000
0.500000 1.000000 0.500000
0.625000 1.000000 0.500000
0.750000 1.000000 0.500000
0.875000 1.000000 0.500000
1.000000 1.000000 0.500000
0.000000 0.000000 0.625000
0.125000 0.000000 0.625000
0.250000 0.000000 0.625000
0.375000 0.000000 0.625000
0.500000 0.000000 0.625000
0.625000 0.000000 0.625000
0.750000 0.000000 0.625000
0.875000 0.000000 0.625000
1.000000 0.000000 0.625000
0.000000 0.125000 0.625000
0.098750 0.098750 0.651250
0.236875 0.098750 0.651250
0.375000 0.098750 0.651250
0.513125 0.098750 0.651250
0.651250 0.098750 0.651250
0.782812 0.092188 0.644687
0.914375 0.085625 0.638125
1.000000 0.125000 0.625000
0.000000 0.250000 0.625000
0.098750 0.236875 0.651250
0.230312 0.230312 0.644688
0.368438 0.230312 0.644688
0.506562 0.230312 0.644688
0.644688 0.230312 0.644688
0.776250 0.223750 0.638125
0.907812 0.217188 0.631562
1.000000 0.250000 0.625000
0.000000 0.375000 0.625000
0.098750 0.375000 0.651250
0.230312 0.368438 0.644688
0.361875 0.361875 0.638125
0.500000 0.361875 0.638125
0.638125 0.361875 0.638125
0.769688 0.355312 0.631562
0.901250 0.348750 0.625000
1.000000 0.375000 0.625000
0.000000 0.500000 0.625000
0.098750 0.513125 0.651250
0.230312 0.506562 0.644688
0.361875 0.500000 0.638125
0.493438 0.493438 0.631562
0.631562 0.493438 0.631562
0.763125 0.486875 0.625000
0.894688 0.480312 0.618438
1.000000 0.500000 0.625000
0.000000 0.625000 0.625000
0.098750 0.651250 0.651250
0.230312 0.644688 0.644688
0.361875 0.638125 0.638125
0.493438 0.631562 0.631562
0.625000 0.625000 0.625000
0.756562 0.618438 0.618438
0.888125 0.611875 0.611875
1.000000 0.625000 0.625000
0.000000 0.750000 0.625000
0.092188 0.782812 0.644688
0.223750 0.776250 0.638125
0.355312 0.769688 0.631562
0.486875 0.763125 0.625000
0.618438 0.756562 0.618438
0.756562 0.756562 0.618438
0.888125 0.750000 0.611875
1.000000 0.750000 0.625000
0.000000 0.875000 0.625000
0.085625 0.914375 0.638125
0.217188 0.907812 0.631562
0.348750 0.901250 0.625000
0.480312 0.894688 0.618438
0.611875 0.888125 0.611875
0.750000 0.888125 0.611875
0.888125 0.888125 0.611875
1.000000 0.875000 0.625000
0.000000 1.000000 0.625000
0.125000 1.000000 0.625000
0.250000 1.000000 0.625000
0.375000 1.000000 0.625000
0.500000 1.000000 0.625000
0.625000 1.000000 0.625000
0.750000 1.000000 0.625000
0.875000 1.000000 0.625000
1.000000 1.000000 0.625000
0.000000 0.000000 0.750000
0.125000 0.000000 0.750000
0.250000 0.000000 0.750000
0.375000 0.000000 0.750000
0.500000 0.000000 0.750000
0.625000 0.000000 0.750000
0.750000 0.000000 0.750000
0.875000 0.000000 0.750000
1.000000 0.000000 0.750000
0.000000 0.125000 0.750000
0.092188 0.092188 0.782812
0.230312 0.092188 0.782812
0.368438 0.092188 0.782812
0.506562 0.092188 0.782812
0.644688 0.092188 0.782812
0.782812 0.092188 0.782812
0.914375 0.085625 0.776250
1.000000 0.125000 0.750000
0.000000 0.250000 0.750000
0.092188 0.230312 0.782812
0.223750 0.223750 0.776250
0.361875 0.223750 0.776250
0.500000 0.223750 0.776250
0.638125 0.223750 0.776250
0.776250 0.223750 0.776250
0.907812 0.217188 0.769687
1.000000 0.250000 0.750000
0.000000 0.375000 0.750000
0.092188 0.368438 0.782812
0.223750 0.361875 0.776250
0.355312 0.355312 0.769688
0.493438 0.355312 0.769688
0.631562 0.355312 0.769688
0.769688 0.355312 0.769688
0.901250 0.348750 0.763125
1.000000 0.375000 0.750000
0.000000 0.500000 0.750000
0.092188 0.506562 0.782812
0.223750 0.500000 0.776250
0.355312 0.493438 0.769688
0.486875 0.486875 0.763125
0.625000 0.486875 0.763125
0.763125 0.486875 0.763125
0.894688 0.480312 0.756562
1.000000 0.500000 0.750000
0.000000 0.625000 0.750000
0.092188 0.644688 0.782812
0.223750 0.638125 0.776250
0.355312 0.631562 0.769688
0.486875 0.625000 0.763125
0.618438 0.618438 0.756562
0.756562 0.618438 0.756562
0.888125 0.611875 0.750000
1.000000 0.625000 0.750000
0.000000 0.750000 0.750000
0.092188 0.782812 0.782812
0.223750 0.776250 0.776250
0.355312 0.769688 0.769688
0.486875 0.763125 0.763125
0.618438 0.756562 0.756562
0.750000 0.750000 0.750000
0.881562 0.743438 0.743438
1.000000 0.750000 0.750000
0.000000 0.875000 0.750000
0.085625 0.914375 0.776250
0.217188 0.907812 0.769688
0.348750 0.901250 0.763125
0.480312 0.894688 0.756562
0.611875 0.888125 0.750000
0.743438 0.881562 0.743438
0.881562 0.881562 0.743438
1.000000 0.875000 0.750000
0.000000 1.000000 0.750000
0.125000 1.000000 0.750000
0.250000 1.000000 0.750000
0.375000 1.000000 0.750000
0.500000 1.000000 0.750000
0.625000 1.000000 0.750000
0.750000 1.000000 0.750000
0.875000 1.000000 0.750000
1.000000 1.000000 0.750000
0.000000 0.000000 0.875000
0.125000 0.000000 0.875000
0.250000 0.000000 0.875000
0.375000 0.000000 0.875000
0.500000 0.000000 0.875000
0.625000 0.000000 0.875000
0.750000 0.000000 0.875000
0.875000 0.000000 0.875000
1.000000 0.000000 0.875000
0.000000 0.125000 0.875000
0.085625 0.085625 0.914375
0.223750 0.085625 0.914375
0.361875 0.085625 0.914375
0.500000 0.085625 0.914375
0.638125 0.085625 0.914375
0.776250 0.085625 0.914375
0.914375 0.085625 0.914375
1.000000 0.125000 0.875000
0.000000 0.250000 0.875000
0.085625 0.223750 0.914375
0.217188 0.217188 0.907812
0.355312 0.217188 0.907812
0.493438 0.217188 0.907812
0.631562 0.217188 0.907812
0.769688 0.217188 0.907812
0.907812 0.217188 0.907812
1.000000 0.250000 0.875000
0.000000 0.375000 0.875000
0.085625 0.361875 0.914375
0.217188 0.355312 0.907812
0.348750 0.348750 0.901250
0.486875 0.348750 0.901250
0.625000 0.348750 0.901250
0.763125 0.348750 0.901250
0.901250 0.348750 0.901250
1.000000 0.375000 0.875000
0.000000 0.500000 0.875000
0.085625 0.500000 0.914375
0.217188 0.493438 0.907812
0.348750 0.486875 0.901250
0.480312 0.480312 0.894688
0.618438 0.480312 0.894688
0.756562 0.480312 0.894688
0.894688 0.480312 0.894688
1.000000 0.500000 0.875000
0.000000 0.625000 0.875000
0.085625 0.638125 0.914375
0.217188 0.631562 0.907812
0.348750 0.625000 0.901250
0.480312 0.618438 0.894688
0.611875 0.611875 0.888125
0.750000 0.611875 0.888125
0.888125 0.611875 0.888125
1.000000 0.625000 0.875000
0.000000 0.750000 0.875000
0.085625 0.776250 0.914375
0.217188 0.769688 0.907812
0.348750 0.763125 0.901250
0.480312 0.756562 0.894688
0.611875 0.750000 0.888125
0.743438 0.743438 0.881562
0.881562 0.743438 0.881562
1.000000 0.750000 0.875000
0.000000 0.875000 0.875000
0.085625 0.914375 0.914375
0.217188 0.907812 0.907812
0.348750 0.901250 0.901250
0.480312 0.894688 0.894688
0.611875 0.888125 0.888125
0.743438 0.881562 0.881562
0.875000 0.875000 0.875000
1.000000 0.875000 0.875000
0.000000 1.000000 0.875000
0.125000 1.000000 0.875000
0.250000 1.000000 0.875000
0.375000 1.000000 0.875000
0.500000 1.000000 0.875000
0.625000 1.000000 0.875000
0.750000 1.000000 0.875000
0.875000 1.000000 0.875000
1.000000 1.000000 0.875000
0.000000 0.000000 1.000000
0.125000 0.000000 1.000000
0.250000 0.000000 1.000000
0.375000 0.000000 1.000000
0.500000 0.000000 1.000000
0.625000 0.000000 1.000000
0.750000 0.000000 1.000000
0.875000 0.000000 1.000000
1.000000 0.000000 1.000000
0.000000 0.125000 1.000000
0.125000 0.125000 1.000000
0.250000 0.125000 1.000000
0.375000 0.125000 1.000000
0.500000 0.125000 1.000000
0.625000 0.125000 1.000000
0.750000 0.125000 1.000000
0.875000 0.125000 1.000000
1.000000 0.125000 1.000000
0.000000 0.250000 1.000000
0.125000 0.250000 1.000000
0.250000 0.250000 1.000000
0.375000 0.250000 1.000000
0.500000 0.250000 1.000000
0.625000 0.250000 1.000000
0.750000 0.250000 1.000000
0.875000 0.250000 1.000000
1.000000 0.250000 1.000000
0.000000 0.375000 1.000000
0.125000 0.375000 1.000000
0.250000 0.375000 1.000000
0.375000 0.375000 1.000000
0.500000 0.375000 1.000000
0.625000 0.375000 1.000000
0.750000 0.375000 1.000000
0.875000 0.375000 1.000000
1.000000 0.375000 1.000000
0.000000 0.500000 1.000000
0.125000 0.500000 1.000000
0.250000 0.500000 1.000000
0.375000 0.500000 1.000000
0.500000 0.500000 1.000000
0.625000 0.500000 1.000000
0.750000 0.500000 1.000000
0.875000 0.500000 1.000000
1.000000 0.500000 1.000000
0.000000 0.625000 1.000000
0.125000 0.625000 1.000000
0.250000 0.625000 1.000000
0.375000 0.625000 1.000000
0.500000 0.625000 1.000000
0.625000 0.625000 1.000000
0.750000 0.625000 1.000000
0.875000 0.625000 1.000000
1.000000 0.625000 1.000000
0.000000 0.750000 1.000000
0.125000 0.750000 1.000000
0.250000 0.750000 1.000000
0.375000 0.750000 1.000000
0.500000 0.750000 1.000000
0.625000 0.750000 1.000000
0.750000 0.750000 1.000000
0.875000 0.750000 1.000000
1.000000 0.750000 1.000000
0.000000 0.875000 1.000000
0.125000 0.875000 1.000000
0.250000 0.875000 1.000000
0.375000 0.875000 1.000000
0.500000 0.875000 1.000000
0.625000 0.875000 1.000000
0.750000 0.875000 1.000000
0.875000 0.875000 1.000000
1.000000 0.875000 1.000000
0.000000 1.000000 1.000000
0.125000 1.000000 1.000000
0.250000 1.000000 1.000000
0.375000 1.000000 1.000000
0.500000 1.000000 1.000000
0.625000 1.000000 1.000000
0.750000 1.000000 1.000000
0.875000 1.000000 1.000000
1.000000 1.000000 1.000000
