correction_luts/sat_boost_70.cube
# Global saturation increase for more vibrancy
# Strength: 0.7
TITLE "Saturation Boost - +15%"
LUT_3D_SIZE 5
0.000000 0.000000 0.000000
0.250000 0.000000 0.000000
0.500000 0.000000 0.000000
0.750000 0.000000 0.000000
1.000000 0.000000 0.000000
0.000000 0.250000 0.000000
0.250000 0.250000 0.000000
0.500000 0.250000 0.000000
0.750000 0.250000 0.000000
1.000000 0.250000 0.000000
0.000000 0.500000 0.000000
0.250000 0.500000 0.000000
0.500000 0.500000 0.000000
0.750000 0.500000 0.000000
1.000000 0.500000 0.000000
0.000000 0.750000 0.000000
0.250000 0.750000 0.000000
0.500000 0.750000 0.000000
0.750000 0.750000 0.000000
1.000000 0.750000 0.000000
0.000000 1.000000 0.000000
0.250000 1.000000 0.000000
0.500000 1.000000 0.000000
0.750000 1.000000 0.000000
1.000000 1.000000 0.000000
0.000000 0.000000 0.250000
0.250000 0.000000 0.250000
0.500000 0.000000 0.250000
0.750000 0.000000 0.250000
1.000000 0.000000 0.250000
0.000000 0.250000 0.250000
0.250000 0.250000 0.250000
0.513125 0.236875 0.236875
0.776250 0.223750 0.223750
1.000000 0.250000 0.250000
0.000000 0.500000 0.250000
0.236875 0.513125 0.236875
0.513125 0.513125 0.236875
0.776250 0.500000 0.223750
1.000000 0.500000 0.250000
0.000000 0.750000 0.250000
0.223750 0.776250 0.223750
0.500000 0.776250 0.223750
0.776250 0.776250 0.223750
1.000000 0.750000 0.250000
0.000000 1.000000 0.250000
0.250000 1.000000 0.250000
0.500000 1.000000 0.250000
0.750000 1.000000 0.250000
1.000000 1.000000 0.250000
0.000000 0.000000 0.500000
0.250000 0.000000 0.500000
0.500000 0.000000 0.500000
0.750000 0.000000 0.500000
1.000000 0.000000 0.500000
0.000000 0.250000 0.500000
0.236875 0.236875 0.513125
0.513125 0.236875 0.513125
0.776250 0.223750 0.500000
1.000000 0.250000 0.500000
0.000000 0.500000 0.500000
0.236875 0.513125 0.513125
0.500000 0.500000 0.500000
0.763125 0.486875 0.486875
1.000000 0.500000 0.500000
0.000000 0.750000 0.500000
0.223750 0.776250 0.500000
0.486875 0.763125 0.486875
0.763125 0.763125 0.486875
1.000000 0.750000 0.500000
0.000000 1.000000 0.500000
0.250000 1.000000 0.500000
0.500000 1.000000 0.500000
0.750000 1.000000 0.500000
1.000000 1.000000 0.500000
0.000000 0.000000 0.750000
0.250000 0.000000 0.750000
0.500000 0.000000 0.750000
0.750000 0.000000 0.750000
1.000000 0.000000 0.750000
0.000000 0.250000 0.750000
0.223750 0.223750 0.776250
0.500000 0.223750 0.776250
0.776250 0.223750 0.776250
1.000000 0.250000 0.750000
0.000000 0.500000 0.750000
0.223750 0.500000 0.776250
0.486875 0.486875 0.763125
0.763125 0.486875 0.763125
1.000000 0.500000 0.750000
0.000000 0.750000 0.750000
0.223750 0.776250 0.776250
0.486875 0.763125 0.763125
0.750000 0.750000 0.750000
1.000000 0.750000 0.750000
0.000000 1.000000 0.750000
0.250000 1.000000 0.750000
0.500000 1.000000 0.750000
0.750000 1.000000 0.750000
1.000000 1.000000 0.750000
0.000000 0.000000 1.000000
0.250000 0.000000 1.000000
0.500000 0.000000 1.000000
0.750000 0.000000 1.000000
1.000000 0.000000 1.000000
0.000000 0.250000 1.000000
0.250000 0.250000 1.000000
0.500000 0.250000 1.000000
0.750000 0.250000 1.000000
1.000000 0.250000 1.000000
0.000000 0.500000 1.000000
0.250000 0.500000 1.000000
0.500000 0.500000 1.000000
0.750000 0.500000 1.000000
1.000000 0.500000 1.000000
0.000000 0.750000 1.000000
0.250000 0.750000 1.000000
0.500000 0.750000 1.000000
0.750000 0.750000 1.000000
1.000000 0.750000 1.000000
0.000000 1.000000 1.000000
0.250000 1.000000 1.000000
0.500000 1.000000 1.000000
0.750000 1.000000 1.000000
1.000000 1.000000 1.000000
