correction_luts/sat_reduce_40.cube
# Global saturation decrease for a more muted look
# Strength: 0.4
# Color model: linear-light tone (v2)
TITLE "Saturation Reduce - -15%"
LUT_3D_SIZE 9
0.000000 0.000000 0.000000
0.121250 0.003750 0.003750
0.242500 0.007500 0.007500
0.363750 0.011250 0.011250
0.485000 0.015000 0.015000
0.606250 0.018750 0.018750
0.727500 0.022500 0.022500
0.848750 0.026250 0.026250
0.970000 0.030000 0.030000
0.003750 0.121250 0.003750
0.121250 0.121250 0.003750
0.242500 0.125000 0.007500
0.363750 0.128750 0.011250
0.485000 0.132500 0.015000
0.606250 0.136250 0.018750
0.727500 0.140000 0.022500
0.848750 0.143750 0.026250
0.970000 0.147500 0.030000
0.007500 0.242500 0.007500
0.125000 0.242500 0.007500
0.242500 0.242500 0.007500
0.363750 0.246250 0.011250
0.485000 0.250000 0.015000
0.606250 0.253750 0.018750
0.727500 0.257500 0.022500
0.848750 0.261250 0.026250
0.970000 0.265000 0.030000
0.011250 0.363750 0.011250
0.128750 0.363750 0.011250
0.246250 0.363750 0.011250
0.363750 0.363750 0.011250
0.485000 0.367500 0.015000
0.606250 0.371250 0.018750
0.727500 0.375000 0.022500
0.848750 0.378750 0.026250
0.970000 0.382500 0.030000
0.015000 0.485000 0.015000
0.132500 0.485000 0.015000
0.250000 0.485000 0.015000
0.367500 0.485000 0.015000
0.485000 0.485000 0.015000
0.606250 0.488750 0.018750
0.727500 0.492500 0.022500
0.848750 0.496250 0.026250
0.970000 0.500000 0.030000
0.018750 0.606250 0.018750
0.136250 0.606250 0.018750
0.253750 0.606250 0.018750
0.371250 0.606250 0.018750
0.488750 0.606250 0.018750
0.606250 0.606250 0.018750
0.727500 0.610000 0.022500
0.848750 0.613750 0.026250
0.970000 0.617500 0.030000
0.022500 0.727500 0.022500
0.140000 0.727500 0.022500
0.257500 0.727500 0.022500
0.375000 0.727500 0.022500
0.492500 0.727500 0.022500
0.610000 0.727500 0.022500
0.727500 0.727500 0.022500
0.848750 0.731250 0.026250
0.970000 0.735000 0.030000
0.026250 0.848750 0.026250
0.143750 0.848750 0.026250
0.261250 0.848750 0.026250
0.378750 0.848750 0.026250
0.496250 0.848750 0.026250
0.613750 0.848750 0.026250
0.731250 0.848750 0.026250
0.848750 0.848750 0.026250
0.970000 0.852500 0.030000
0.030000 0.970000 0.030000
0.147500 0.970000 0.030000
0.265000 0.970000 0.030000
0.382500 0.970000 0.030000
0.500000 0.970000 0.030000
0.617500 0.970000 0.030000
0.735000 0.970000 0.030000
0.852500 0.970000 0.030000
0.970000 0.970000 0.030000
0.003750 0.003750 0.121250
0.121250 0.003750 0.121250
0.242500 0.007500 0.125000
0.363750 0.011250 0.128750
0.485000 0.015000 0.132500
0.606250 0.018750 0.136250
0.727500 0.022500 0.140000
0.848750 0.026250 0.143750
0.970000 0.030000 0.147500
0.003750 0.121250 0.121250
0.125000 0.125000 0.125000
0.246250 0.128750 0.128750
0.367500 0.132500 0.132500
0.488750 0.136250 0.136250
0.610000 0.140000 0.140000
0.731250 0.143750 0.143750
0.852500 0.147500 0.147500
0.973750 0.151250 0.151250
0.007500 0.242500 0.125000
0.128750 0.246250 0.128750
0.246250 0.246250 0.128750
0.367500 0.250000 0.132500
0.488750 0.253750 0.136250
0.610000 0.257500 0.140000
0.731250 0.261250 0.143750
0.852500 0.265000 0.147500
0.973750 0.268750 0.151250
0.011250 0.363750 0.128750
0.132500 0.367500 0.132500
0.250000 0.367500 0.132500
0.367500 0.367500 0.132500
0.488750 0.371250 0.136250
0.610000 0.375000 0.140000
0.731250 0.378750 0.143750
0.852500 0.382500 0.147500
0.973750 0.386250 0.151250
0.015000 0.485000 0.132500
0.136250 0.488750 0.136250
0.253750 0.488750 0.136250
0.371250 0.488750 0.136250
0.488750 0.488750 0.136250
0.610000 0.492500 0.140000
0.731250 0.496250 0.143750
0.852500 0.500000 0.147500
0.973750 0.503750 0.151250
0.018750 0.606250 0.136250
0.140000 0.610000 0.140000
0.257500 0.610000 0.140000
0.375000 0.610000 0.140000
0.492500 0.610000 0.140000
0.610000 0.610000 0.140000
0.731250 0.613750 0.143750
0.852500 0.617500 0.147500
0.973750 0.621250 0.151250
0.022500 0.727500 0.140000
0.143750 0.731250 0.143750
0.261250 0.731250 0.143750
0.378750 0.731250 0.143750
0.496250 0.731250 0.143750
0.613750 0.731250 0.143750
0.731250 0.731250 0.143750
0.852500 0.735000 0.147500
0.973750 0.738750 0.151250
0.026250 0.848750 0.143750
0.147500 0.852500 0.147500
0.265000 0.852500 0.147500
0.382500 0.852500 0.147500
0.500000 0.852500 0.147500
0.617500 0.852500 0.147500
0.735000 0.852500 0.147500
0.852500 0.852500 0.147500
0.973750 0.856250 0.151250
0.030000 0.970000 0.147500
0.151250 0.973750 0.151250
0.268750 0.973750 0.151250
0.386250 0.973750 0.151250
0.503750 0.973750 0.151250
0.621250 0.973750 0.151250
0.738750 0.973750 0.151250
0.856250 0.973750 0.151250
0.973750 0.973750 0.151250
0.007500 0.007500 0.242500
0.125000 0.007500 0.242500
0.242500 0.007500 0.242500
0.363750 0.011250 0.246250
0.485000 0.015000 0.250000
0.606250 0.018750 0.253750
0.727500 0.022500 0.257500
0.848750 0.026250 0.261250
0.970000 0.030000 0.265000
0.007500 0.125000 0.242500
0.128750 0.128750 0.246250
0.246250 0.128750 0.246250
0.367500 0.132500 0.250000
0.488750 0.136250 0.253750
0.610000 0.140000 0.257500
0.731250 0.143750 0.261250
0.852500 0.147500 0.265000
0.973750 0.151250 0.268750
0.007500 0.242500 0.242500
0.128750 0.246250 0.246250
0.250000 0.250000 0.250000
0.371250 0.253750 0.253750
0.492500 0.257500 0.257500
0.613750 0.261250 0.261250
0.735000 0.265000 0.265000
0.856250 0.268750 0.268750
0.977500 0.272500 0.272500
0.011250 0.363750 0.246250
0.132500 0.367500 0.250000
0.253750 0.371250 0.253750
0.371250 0.371250 0.253750
0.492500 0.375000 0.257500
0.613750 0.378750 0.261250
0.735000 0.382500 0.265000
0.856250 0.386250 0.268750
0.977500 0.390000 0.272500
0.015000 0.485000 0.250000
0.136250 0.488750 0.253750
0.257500 0.492500 0.257500
0.375000 0.492500 0.257500
0.492500 0.492500 0.257500
0.613750 0.496250 0.261250
0.735000 0.500000 0.265000
0.856250 0.503750 0.268750
0.977500 0.507500 0.272500
0.018750 0.606250 0.253750
0.140000 0.610000 0.257500
0.261250 0.613750 0.261250
0.378750 0.613750 0.261250
0.496250 0.613750 0.261250
0.613750 0.613750 0.261250
0.735000 0.617500 0.265000
0.856250 0.621250 0.268750
0.977500 0.625000 0.272500
0.022500 0.727500 0.257500
0.143750 0.731250 0.261250
0.265000 0.735000 0.265000
0.382500 0.735000 0.265000
0.500000 0.735000 0.265000
0.617500 0.735000 0.265000
0.735000 0.735000 0.265000
0.856250 0.738750 0.268750
0.977500 0.742500 0.272500
0.026250 0.848750 0.261250
0.147500 0.852500 0.265000
0.268750 0.856250 0.268750
0.386250 0.856250 0.268750
0.503750 0.856250 0.268750
0.621250 0.856250 0.268750
0.738750 0.856250 0.268750
0.856250 0.856250 0.268750
0.977500 0.860000 0.272500
0.030000 0.970000 0.265000
0.151250 0.973750 0.268750
0.272500 0.977500 0.272500
0.390000 0.977500 0.272500
0.507500 0.977500 0.272500
0.625000 0.977500 0.272500
0.742500 0.977500 0.272500
0.860000 0.977500 0.272500
0.977500 0.977500 0.272500
0.011250 0.011250 0.363750
0.128750 0.011250 0.363750
0.246250 0.011250 0.363750
0.363750 0.011250 0.363750
0.485000 0.015000 0.367500
0.606250 0.018750 0.371250
0.727500 0.022500 0.375000
0.848750 0.026250 0.378750
0.970000 0.030000 0.382500
0.011250 0.128750 0.363750
0.132500 0.132500 0.367500
0.250000 0.132500 0.367500
0.367500 0.132500 0.367500
0.488750 0.136250 0.371250
0.610000 0.140000 0.375000
0.731250 0.143750 0.378750
0.852500 0.147500 0.382500
0.973750 0.151250 0.386250
0.011250 0.246250 0.363750
0.132500 0.250000 0.367500
0.253750 0.253750 0.371250
0.371250 0.253750 0.371250
0.492500 0.257500 0.375000
0.613750 0.261250 0.378750
0.735000 0.265000 0.382500
0.856250 0.268750 0.386250
0.977500 0.272500 0.390000
0.011250 0.363750 0.363750
0.132500 0.367500 0.367500
0.253750 0.371250 0.371250
0.375000 0.375000 0.375000
0.496250 0.378750 0.378750
0.617500 0.382500 0.382500
0.738750 0.386250 0.386250
0.860000 0.390000 0.390000
0.981250 0.393750 0.393750
0.015000 0.485000 0.367500
0.136250 0.488750 0.371250
0.257500 0.492500 0.375000
0.378750 0.496250 0.378750
0.496250 0.496250 0.378750
0.617500 0.500000 0.382500
0.738750 0.503750 0.386250
0.860000 0.507500 0.390000
0.981250 0.511250 0.393750
0.018750 0.606250 0.371250
0.140000 0.610000 0.375000
0.261250 0.613750 0.378750
0.382500 0.617500 0.382500
0.500000 0.617500 0.382500
0.617500 0.617500 0.382500
0.738750 0.621250 0.386250
0.860000 0.625000 0.390000
0.981250 0.628750 0.393750
0.022500 0.727500 0.375000
0.143750 0.731250 0.378750
0.265000 0.735000 0.382500
0.386250 0.738750 0.386250
0.503750 0.738750 0.386250
0.621250 0.738750 0.386250
0.738750 0.738750 0.386250
0.860000 0.742500 0.390000
0.981250 0.746250 0.393750
0.026250 0.848750 0.378750
0.147500 0.852500 0.382500
0.268750 0.856250 0.386250
0.390000 0.860000 0.390000
0.507500 0.860000 0.390000
0.625000 0.860000 0.390000
0.742500 0.860000 0.390000
0.860000 0.860000 0.390000
0.981250 0.863750 0.393750
0.030000 0.970000 0.382500
0.151250 0.973750 0.386250
0.272500 0.977500 0.390000
0.393750 0.981250 0.393750
0.511250 0.981250 0.393750
0.628750 0.981250 0.393750
0.746250 0.981250 0.393750
0.863750 0.981250 0.393750
0.981250 0.981250 0.393750
0.015000 0.015000 0.485000
0.132500 0.015000 0.485000
0.250000 0.015000 0.485000
0.367500 0.015000 0.485000
0.485000 0.015000 0.485000
0.606250 0.018750 0.488750
0.727500 0.022500 0.492500
0.848750 0.026250 0.496250
0.970000 0.030000 0.500000
0.015000 0.132500 0.485000
0.136250 0.136250 0.488750
0.253750 0.136250 0.488750
0.371250 0.136250 0.488750
0.488750 0.136250 0.488750
0.610000 0.140000 0.492500
0.731250 0.143750 0.496250
0.852500 0.147500 0.500000
0.973750 0.151250 0.503750
0.015000 0.250000 0.485000
0.136250 0.253750 0.488750
0.257500 0.257500 0.492500
0.375000 0.257500 0.492500
0.492500 0.257500 0.492500
0.613750 0.261250 0.496250
0.735000 0.265000 0.500000
0.856250 0.268750 0.503750
0.977500 0.272500 0.507500
0.015000 0.367500 0.485000
0.136250 0.371250 0.488750
0.257500 0.375000 0.492500
0.378750 0.378750 0.496250
0.496250 0.378750 0.496250
0.617500 0.382500 0.500000
0.738750 0.386250 0.503750
0.860000 0.390000 0.507500
0.981250 0.393750 0.511250
0.015000 0.485000 0.485000
0.136250 0.488750 0.488750
0.257500 0.492500 0.492500
0.378750 0.496250 0.496250
0.500000 0.500000 0.500000
0.621250 0.503750 0.503750
0.742500 0.507500 0.507500
0.863750 0.511250 0.511250
0.985000 0.515000 0.515000
0.018750 0.606250 0.488750
0.140000 0.610000 0.492500
0.261250 0.613750 0.496250
0.382500 0.617500 0.500000
0.503750 0.621250 0.503750
0.621250 0.621250 0.503750
0.742500 0.625000 0.507500
0.863750 0.628750 0.511250
0.985000 0.632500 0.515000
0.022500 0.727500 0.492500
0.143750 0.731250 0.496250
0.265000 0.735000 0.500000
0.386250 0.738750 0.503750
0.507500 0.742500 0.507500
0.625000 0.742500 0.507500
0.742500 0.742500 0.507500
0.863750 0.746250 0.511250
0.985000 0.750000 0.515000
0.026250 0.848750 0.496250
0.147500 0.852500 0.500000
0.268750 0.856250 0.503750
0.390000 0.860000 0.507500
0.511250 0.863750 0.511250
0.628750 0.863750 0.511250
0.746250 0.863750 0.511250
0.863750 0.863750 0.511250
0.985000 0.867500 0.515000
0.030000 0.970000 0.500000
0.151250 0.973750 0.503750
0.272500 0.977500 0.507500
0.393750 0.981250 0.511250
0.515000 0.985000 0.515000
0.632500 0.985000 0.515000
0.750000 0.985000 0.515000
0.867500 0.985000 0.515000
0.985000 0.985000 0.515000
0.018750 0.018750 0.606250
0.136250 0.018750 0.606250
0.253750 0.018750 0.606250
0.371250 0.018750 0.606250
0.488750 0.018750 0.606250
0.606250 0.018750 0.606250
0.727500 0.022500 0.610000
0.848750 0.026250 0.613750
0.970000 0.030000 0.617500
0.018750 0.136250 0.606250
0.140000 0.140000 0.610000
0.257500 0.140000 0.610000
0.375000 0.140000 0.610000
0.492500 0.140000 0.610000
0.610000 0.140000 0.610000
0.731250 0.143750 0.613750
0.852500 0.147500 0.617500
0.973750 0.151250 0.621250
0.018750 0.253750 0.606250
0.140000 0.257500 0.610000
0.261250 0.261250 0.613750
0.378750 0.261250 0.613750
0.496250 0.261250 0.613750
0.613750 0.261250 0.613750
0.735000 0.265000 0.617500
0.856250 0.268750 0.621250
0.977500 0.272500 0.625000
0.018750 0.371250 0.606250
0.140000 0.375000 0.610000
0.261250 0.378750 0.613750
0.382500 0.382500 0.617500
0.500000 0.382500 0.617500
0.617500 0.382500 0.617500
0.738750 0.386250 0.621250
0.860000 0.390000 0.625000
0.981250 0.393750 0.628750
0.018750 0.488750 0.606250
0.140000 0.492500 0.610000
0.261250 0.496250 0.613750
0.382500 0.500000 0.617500
0.503750 0.503750 0.621250
0.621250 0.503750 0.621250
0.742500 0.507500 0.625000
0.863750 0.511250 0.628750
0.985000 0.515000 0.632500
0.018750 0.606250 0.606250
0.140000 0.610000 0.610000
0.261250 0.613750 0.613750
0.382500 0.617500 0.617500
0.503750 0.621250 0.621250
0.625000 0.625000 0.625000
0.746250 0.628750 0.628750
0.867500 0.632500 0.632500
0.988750 0.636250 0.636250
0.022500 0.727500 0.610000
0.143750 0.731250 0.613750
0.265000 0.735000 0.617500
0.386250 0.738750 0.621250
0.507500 0.742500 0.625000
0.628750 0.746250 0.628750
0.746250 0.746250 0.628750
0.867500 0.750000 0.632500
0.988750 0.753750 0.636250
0.026250 0.848750 0.613750
0.147500 0.852500 0.617500
0.268750 0.856250 0.621250
0.390000 0.860000 0.625000
0.511250 0.863750 0.628750
0.632500 0.867500 0.632500
0.750000 0.867500 0.632500
0.867500 0.867500 0.632500
0.988750 0.871250 0.636250
0.030000 0.970000 0.617500
0.151250 0.973750 0.621250
0.272500 0.977500 0.625000
0.393750 0.981250 0.628750
0.515000 0.985000 0.632500
0.636250 0.988750 0.636250
0.753750 0.988750 0.636250
0.871250 0.988750 0.636250
0.988750 0.988750 0.636250
0.022500 0.022500 0.727500
0.140000 0.022500 0.727500
0.257500 0.022500 0.727500
0.375000 0.022500 0.727500
0.492500 0.022500 0.727500
0.610000 0.022500 0.727500
0.727500 0.022500 0.727500
0.848750 0.026250 0.731250
0.970000 0.030000 0.735000
0.022500 0.140000 0.727500
0.143750 0.143750 0.731250
0.261250 0.143750 0.731250
0.378750 0.143750 0.731250
0.496250 0.143750 0.731250
0.613750 0.143750 0.731250
0.731250 0.143750 0.731250
0.852500 0.147500 0.735000
0.973750 0.151250 0.738750
0.022500 0.257500 0.727500
0.143750 0.261250 0.731250
0.265000 0.265000 0.735000
0.382500 0.265000 0.735000
0.500000 0.265000 0.735000
0.617500 0.265000 0.735000
0.735000 0.265000 0.735000
0.856250 0.268750 0.738750
0.977500 0.272500 0.742500
0.022500 0.375000 0.727500
0.143750 0.378750 0.731250
0.265000 0.382500 0.735000
0.386250 0.386250 0.738750
0.503750 0.386250 0.738750
0.621250 0.386250 0.738750
0.738750 0.386250 0.738750
0.860000 0.390000 0.742500
0.981250 0.393750 0.746250
0.022500 0.492500 0.727500
0.143750 0.496250 0.731250
0.265000 0.500000 0.735000
0.386250 0.503750 0.738750
0.507500 0.507500 0.742500
0.625000 0.507500 0.742500
0.742500 0.507500 0.742500
0.863750 0.511250 0.746250
0.985000 0.515000 0.750000
0.022500 0.610000 0.727500
0.143750 0.613750 0.731250
0.265000 0.617500 0.735000
0.386250 0.621250 0.738750
0.507500 0.625000 0.742500
0.628750 0.628750 0.746250
0.746250 0.628750 0.746250
0.867500 0.632500 0.750000
0.988750 0.636250 0.753750
0.022500 0.727500 0.727500
0.143750 0.731250 0.731250
0.265000 0.735000 0.735000
0.386250 0.738750 0.738750
0.507500 0.742500 0.742500
0.628750 0.746250 0.746250
0.750000 0.750000 0.750000
0.871250 0.753750 0.753750
0.992500 0.757500 0.757500
0.026250 0.848750 0.731250
0.147500 0.852500 0.735000
0.268750 0.856250 0.738750
0.390000 0.860000 0.742500
0.511250 0.863750 0.746250
0.632500 0.867500 0.750000
0.753750 0.871250 0.753750
0.871250 0.871250 0.753750
0.992500 0.875000 0.757500
0.030000 0.970000 0.735000
0.151250 0.973750 0.738750
0.272500 0.977500 0.742500
0.393750 0.981250 0.746250
0.515000 0.985000 0.750000
0.636250 0.988750 0.753750
0.757500 0.992500 0.757500
0.875000 0.992500 0.757500
0.992500 0.992500 0.757500
0.026250 0.026250 0.848750
0.143750 0.026250 0.848750
0.261250 0.026250 0.848750
0.378750 0.026250 0.848750
0.496250 0.026250 0.848750
0.613750 0.026250 0.848750
0.731250 0.026250 0.848750
0.848750 0.026250 0.848750
0.970000 0.030000 0.852500
0.026250 0.143750 0.848750
0.147500 0.147500 0.852500
0.265000 0.147500 0.852500
0.382500 0.147500 0.852500
0.500000 0.147500 0.852500
0.617500 0.147500 0.852500
0.735000 0.147500 0.852500
0.852500 0.147500 0.852500
0.973750 0.151250 0.856250
0.026250 0.261250 0.848750
0.147500 0.265000 0.852500
0.268750 0.268750 0.856250
0.386250 0.268750 0.856250
0.503750 0.268750 0.856250
0.621250 0.268750 0.856250
0.738750 0.268750 0.856250
0.856250 0.268750 0.856250
0.977500 0.272500 0.860000
0.026250 0.378750 0.848750
0.147500 0.382500 0.852500
0.268750 0.386250 0.856250
0.390000 0.390000 0.860000
0.507500 0.390000 0.860000
0.625000 0.390000 0.860000
0.742500 0.390000 0.860000
0.860000 0.390000 0.860000
0.981250 0.393750 0.863750
0.026250 0.496250 0.848750
0.147500 0.500000 0.852500
0.268750 0.503750 0.856250
0.390000 0.507500 0.860000
0.511250 0.511250 0.863750
0.628750 0.511250 0.863750
0.746250 0.511250 0.863750
0.863750 0.511250 0.863750
0.985000 0.515000 0.867500
0.026250 0.613750 0.848750
0.147500 0.617500 0.852500
0.268750 0.621250 0.856250
0.390000 0.625000 0.860000
0.511250 0.628750 0.863750
0.632500 0.632500 0.867500
0.750000 0.632500 0.867500
0.867500 0.632500 0.867500
0.988750 0.636250 0.871250
0.026250 0.731250 0.848750
0.147500 0.735000 0.852500
0.268750 0.738750 0.856250
0.390000 0.742500 0.860000
0.511250 0.746250 0.863750
0.632500 0.750000 0.867500
0.753750 0.753750 0.871250
0.871250 0.753750 0.871250
0.992500 0.757500 0.875000
0.026250 0.848750 0.848750
0.147500 0.852500 0.852500
0.268750 0.856250 0.856250
0.390000 0.860000 0.860000
0.511250 0.863750 0.863750
0.632500 0.867500 0.867500
0.753750 0.871250 0.871250
0.875000 0.875000 0.875000
0.996250 0.878750 0.878750
0.030000 0.970000 0.852500
0.151250 0.973750 0.856250
0.272500 0.977500 0.860000
0.393750 0.981250 0.863750
0.515000 0.985000 0.867500
0.636250 0.988750 0.871250
0.757500 0.992500 0.875000
0.878750 0.996250 0.878750
0.996250 0.996250 0.878750
0.030000 0.030000 0.970000
0.147500 0.030000 0.970000
0.265000 0.030000 0.970000
0.382500 0.030000 0.970000
0.500000 0.030000 0.970000
0.617500 0.030000 0.970000
0.735000 0.030000 0.970000
0.852500 0.030000 0.970000
0.970000 0.030000 0.970000
0.030000 0.147500 0.970000
0.151250 0.151250 0.973750
0.268750 0.151250 0.973750
0.386250 0.151250 0.973750
0.503750 0.151250 0.973750
0.621250 0.151250 0.973750
0.738750 0.151250 0.973750
0.856250 0.151250 0.973750
0.973750 0.151250 0.973750
0.030000 0.265000 0.970000
0.151250 0.268750 0.973750
0.272500 0.272500 0.977500
0.390000 0.272500 0.977500
0.507500 0.272500 0.977500
0.625000 0.272500 0.977500
0.742500 0.272500 0.977500
0.860000 0.272500 0.977500
0.977500 0.272500 0.977500
0.030000 0.382500 0.970000
0.151250 0.386250 0.973750
0.272500 0.390000 0.977500
0.393750 0.393750 0.981250
0.511250 0.393750 0.981250
0.628750 0.393750 0.981250
0.746250 0.393750 0.981250
0.863750 0.393750 0.981250
0.981250 0.393750 0.981250
0.030000 0.500000 0.970000
0.151250 0.503750 0.973750
0.272500 0.507500 0.977500
0.393750 0.511250 0.981250
0.515000 0.515000 0.985000
0.632500 0.515000 0.985000
0.750000 0.515000 0.985000
0.867500 0.515000 0.985000
0.985000 0.515000 0.985000
0.030000 0.617500 0.970000
0.151250 0.621250 0.973750
0.272500 0.625000 0.977500
0.393750 0.628750 0.981250
0.515000 0.632500 0.985000
0.636250 0.636250 0.988750
0.753750 0.636250 0.988750
0.871250 0.636250 0.988750
0.988750 0.636250 0.988750
0.030000 0.735000 0.970000
0.151250 0.738750 0.973750
0.272500 0.742500 0.977500
0.393750 0.746250 0.981250
0.515000 0.750000 0.985000
0.636250 0.753750 0.988750
0.757500 0.757500 0.992500
0.875000 0.757500 0.992500
0.992500 0.757500 0.992500
0.030000 0.852500 0.970000
0.151250 0.856250 0.973750
0.272500 0.860000 0.977500
0.393750 0.863750 0.981250
0.515000 0.867500 0.985000
0.636250 0.871250 0.988750
0.757500 0.875000 0.992500
0.878750 0.878750 0.996250
0.996250 0.878750 0.996250
0.030000 0.970000 0.970000
0.151250 0.973750 0.973750
0.272500 0.977500 0.977500
0.393750 0.981250 0.981250
0.515000 0.985000 0.985000
0.636250 0.988750 0.988750
0.757500 0.992500 0.992500
0.878750 0.996250 0.996250
1.000000 1.000000 1.000000
