correction_luts/sat_boost.cube
# Global saturation increase for more vibrancy
# Strength: 1.0
TITLE "Saturation Boost - +15%"
LUT_3D_SIZE 9
0.000000 0.000000 0.000000
0.125000 0.000000 0.000000
0.250000 0.000000 0.000000
0.375000 0.000000 0.000000
0.500000 0.000000 0.000000
0.625000 0.000000 0.000000
0.750000 0.000000 0.000000
0.875000 0.000000 0.000000
1.000000 0.000000 0.000000
0.000000 0.125000 0.000000
0.125000 0.125000 0.000000
0.250000 0.125000 0.000000
0.375000 0.125000 0.000000
0.500000 0.125000 0.000000
0.625000 0.125000 0.000000
0.750000 0.125000 0.000000
0.875000 0.125000 0.000000
1.000000 0.125000 0.000000
0.000000 0.250000 0.000000
0.125000 0.250000 0.000000
0.250000 0.250000 0.000000
0.375000 0.250000 0.000000
0.500000 0.250000 0.000000
0.625000 0.250000 0.000000
0.750000 0.250000 0.000000
0.875000 0.250000 0.000000
1.000000 0.250000 0.000000
0.000000 0.375000 0.000000
0.125000 0.375000 0.000000
0.250000 0.375000 0.000000
0.375000 0.375000 0.000000
0.500000 0.375000 0.000000
0.625000 0.375000 0.000000
0.750000 0.375000 0.000000
0.875000 0.375000 0.000000
1.000000 0.375000 0.000000
0.000000 0.500000 0.000000
0.125000 0.500000 0.000000
0.250000 0.500000 0.000000
0.375000 0.500000 0.000000
0.500000 0.500000 0.000000
0.625000 0.500000 0.000000
0.750000 0.500000 0.000000
0.875000 0.500000 0.000000
1.000000 0.500000 0.000000
0.000000 0.625000 0.000000
0.125000 0.625000 0.000000
0.250000 0.625000 0.000000
0.375000 0.625000 0.000000
0.500000 0.625000 0.000000
0.625000 0.625000 0.000000
0.750000 0.625000 0.000000
0.875000 0.625000 0.000000
1.000000 0.625000 0.000000
0.000000 0.750000 0.000000
0.125000 0.750000 0.000000
0.250000 0.750000 0.000000
0.375000 0.750000 0.000000
0.500000 0.750000 0.000000
0.625000 0.750000 0.000000
0.750000 0.750000 0.000000
0.875000 0.750000 0.000000
1.000000 0.750000 0.000000
0.000000 0.875000 0.000000
0.125000 0.875000 0.000000
0.250000 0.875000 0.000000
0.375000 0.875000 0.000000
0.500000 0.875000 0.000000
0.625000 0.875000 0.000000
0.750000 0.875000 0.000000
0.875000 0.875000 0.000000
1.000000 0.875000 0.000000
0.000000 1.000000 0.000000
0.125000 1.000000 0.000000
0.250000 1.000000 0.000000
0.375000 1.000000 0.000000
0.500000 1.000000 0.000000
0.625000 1.000000 0.000000
0.750000 1.000000 0.000000
0.875000 1.000000 0.000000
1.000000 1.000000 0.000000
0.000000 0.000000 0.125000
0.125000 0.000000 0.125000
0.250000 0.000000 0.125000
0.375000 0.000000 0.125000
0.500000 0.000000 0.125000
0.625000 0.000000 0.125000
0.750000 0.000000 0.125000
0.875000 0.000000 0.125000
1.000000 0.000000 0.125000
0.000000 0.125000 0.125000
0.125000 0.125000 0.125000
0.259375 0.115625 0.115625
0.393750 0.106250 0.106250
0.528125 0.096875 0.096875
0.662500 0.087500 0.087500
0.796875 0.078125 0.078125
0.931250 0.068750 0.068750
1.000000 0.125000 0.125000
0.000000 0.250000 0.125000
0.115625 0.259375 0.115625
0.259375 0.259375 0.115625
0.393750 0.250000 0.106250
0.528125 0.240625 0.096875
0.662500 0.231250 0.087500
0.796875 0.221875 0.078125
0.931250 0.212500 0.068750
1.000000 0.250000 0.125000
0.000000 0.375000 0.125000
0.106250 0.393750 0.106250
0.250000 0.393750 0.106250
0.393750 0.393750 0.106250
0.528125 0.384375 0.096875
0.662500 0.375000 0.087500
0.796875 0.365625 0.078125
0.931250 0.356250 0.068750
1.000000 0.375000 0.125000
0.000000 0.500000 0.125000
0.096875 0.528125 0.096875
0.240625 0.528125 0.096875
0.384375 0.528125 0.096875
0.528125 0.528125 0.096875
0.662500 0.518750 0.087500
0.796875 0.509375 0.078125
0.931250 0.500000 0.068750
1.000000 0.500000 0.125000
0.000000 0.625000 0.125000
0.087500 0.662500 0.087500
0.231250 0.662500 0.087500
0.375000 0.662500 0.087500
0.518750 0.662500 0.087500
0.662500 0.662500 0.087500
0.796875 0.653125 0.078125
0.931250 0.643750 0.068750
1.000000 0.625000 0.125000
0.000000 0.750000 0.125000
0.078125 0.796875 0.078125
0.221875 0.796875 0.078125
0.365625 0.796875 0.078125
0.509375 0.796875 0.078125
0.653125 0.796875 0.078125
0.796875 0.796875 0.078125
0.931250 0.787500 0.068750
1.000000 0.750000 0.125000
0.000000 0.875000 0.125000
0.068750 0.931250 0.068750
0.212500 0.931250 0.068750
0.356250 0.931250 0.068750
0.500000 0.931250 0.068750
0.643750 0.931250 0.068750
0.787500 0.931250 0.068750
0.931250 0.931250 0.068750
1.000000 0.875000 0.125000
0.000000 1.000000 0.125000
0.125000 1.000000 0.125000
0.250000 1.000000 0.125000
0.375000 1.000000 0.125000
0.500000 1.000000 0.125000
0.625000 1.000000 0.125000
0.750000 1.000000 0.125000
0.875000 1.000000 0.125000
1.000000 1.000000 0.125000
0.000000 0.000000 0.250000
0.125000 0.000000 0.250000
0.250000 0.000000 0.250000
0.375000 0.000000 0.250000
0.500000 0.000000 0.250000
0.625000 0.000000 0.250000
0.750000 0.000000 0.250000
0.875000 0.000000 0.250000
1.000000 0.000000 0.250000
0.000000 0.125000 0.250000
0.115625 0.115625 0.259375
0.259375 0.115625 0.259375
0.393750 0.106250 0.250000
0.528125 0.096875 0.240625
0.662500 0.087500 0.231250
0.796875 0.078125 0.221875
0.931250 0.068750 0.212500
1.000000 0.125000 0.250000
0.000000 0.250000 0.250000
0.115625 0.259375 0.259375
0.250000 0.250000 0.250000
0.384375 0.240625 0.240625
0.518750 0.231250 0.231250
0.653125 0.221875 0.221875
0.787500 0.212500 0.212500
0.921875 0.203125 0.203125
1.000000 0.250000 0.250000
0.000000 0.375000 0.250000
0.106250 0.393750 0.250000
0.240625 0.384375 0.240625
0.384375 0.384375 0.240625
0.518750 0.375000 0.231250
0.653125 0.365625 0.221875
0.787500 0.356250 0.212500
0.921875 0.346875 0.203125
1.000000 0.375000 0.250000
0.000000 0.500000 0.250000
0.096875 0.528125 0.240625
0.231250 0.518750 0.231250
0.375000 0.518750 0.231250
0.518750 0.518750 0.231250
0.653125 0.509375 0.221875
0.787500 0.500000 0.212500
0.921875 0.490625 0.203125
1.000000 0.500000 0.250000
0.000000 0.625000 0.250000
0.087500 0.662500 0.231250
0.221875 0.653125 0.221875
0.365625 0.653125 0.221875
0.509375 0.653125 0.221875
0.653125 0.653125 0.221875
0.787500 0.643750 0.212500
0.921875 0.634375 0.203125
1.000000 0.625000 0.250000
0.000000 0.750000 0.250000
0.078125 0.796875 0.221875
0.212500 0.787500 0.212500
0.356250 0.787500 0.212500
0.500000 0.787500 0.212500
0.643750 0.787500 0.212500
0.787500 0.787500 0.212500
0.921875 0.778125 0.203125
1.000000 0.750000 0.250000
0.000000 0.875000 0.250000
0.068750 0.931250 0.212500
0.203125 0.921875 0.203125
0.346875 0.921875 0.203125
0.490625 0.921875 0.203125
0.634375 0.921875 0.203125
0.778125 0.921875 0.203125
0.921875 0.921875 0.203125
1.000000 0.875000 0.250000
0.000000 1.000000 0.250000
0.125000 1.000000 0.250000
0.250000 1.000000 0.250000
0.375000 1.000000 0.250000
0.500000 1.000000 0.250000
0.625000 1.000000 0.250000
0.750000 1.000000 0.250000
0.875000 1.000000 0.250000
1.000000 1.000000 0.250000
0.000000 0.000000 0.375000
0.125000 0.000000 0.375000
0.250000 0.000000 0.375000
0.375000 0.000000 0.375000
0.500000 0.000000 0.375000
0.625000 0.000000 0.375000
0.750000 0.000000 0.375000
0.875000 0.000000 0.375000
1.000000 0.000000 0.375000
0.000000 0.125000 0.375000
0.106250 0.106250 0.393750
0.250000 0.106250 0.393750
0.393750 0.106250 0.393750
0.528125 0.096875 0.384375
0.662500 0.087500 0.375000
0.796875 0.078125 0.365625
0.931250 0.068750 0.356250
1.000000 0.125000 0.375000
0.000000 0.250000 0.375000
0.106250 0.250000 0.393750
0.240625 0.240625 0.384375
0.384375 0.240625 0.384375
0.518750 0.231250 0.375000
0.653125 0.221875 0.365625
0.787500 0.212500 0.356250
0.921875 0.203125 0.346875
1.000000 0.250000 0.375000
0.000000 0.375000 0.375000
0.106250 0.393750 0.393750
0.240625 0.384375 0.384375
0.375000 0.375000 0.375000
0.509375 0.365625 0.365625
0.643750 0.356250 0.356250
0.778125 0.346875 0.346875
0.912500 0.337500 0.337500
1.000000 0.375000 0.375000
0.000000 0.500000 0.375000
0.096875 0.528125 0.384375
0.231250 0.518750 0.375000
0.365625 0.509375 0.365625
0.509375 0.509375 0.365625
0.643750 0.500000 0.356250
0.778125 0.490625 0.346875
0.912500 0.481250 0.337500
1.000000 0.500000 0.375000
0.000000 0.625000 0.375000
0.087500 0.662500 0.375000
0.221875 0.653125 0.365625
0.356250 0.643750 0.356250
0.500000 0.643750 0.356250
0.643750 0.643750 0.356250
0.778125 0.634375 0.346875
0.912500 0.625000 0.337500
1.000000 0.625000 0.375000
0.000000 0.750000 0.375000
0.078125 0.796875 0.365625
0.212500 0.787500 0.356250
0.346875 0.778125 0.346875
0.490625 0.778125 0.346875
0.634375 0.778125 0.346875
0.778125 0.778125 0.346875
0.912500 0.768750 0.337500
1.000000 0.750000 0.375000
0.000000 0.875000 0.375000
0.068750 0.931250 0.356250
0.203125 0.921875 0.346875
0.337500 0.912500 0.337500
0.481250 0.912500 0.337500
0.625000 0.912500 0.337500
0.768750 0.912500 0.337500
0.912500 0.912500 0.337500
1.000000 0.875000 0.375000
0.000000 1.000000 0.375000
0.125000 1.000000 0.375000
0.250000 1.000000 0.375000
0.375000 1.000000 0.375000
0.500000 1.000000 0.375000
0.625000 1.000000 0.375000
0.750000 1.000000 0.375000
0.875000 1.000000 0.375000
1.000000 1.000000 0.375000
0.000000 0.000000 0.500000
0.125000 0.000000 0.500000
0.250000 0.000000 0.500000
0.375000 0.000000 0.500000
0.500000 0.000000 0.500000
0.625000 0.000000 0.500000
0.750000 0.000000 0.500000
0.875000 0.000000 0.500000
1.000000 0.000000 0.500000
0.000000 0.125000 0.500000
0.096875 0.096875 0.528125
0.240625 0.096875 0.528125
0.384375 0.096875 0.528125
0.528125 0.096875 0.528125
0.662500 0.087500 0.518750
0.796875 0.078125 0.509375
0.931250 0.068750 0.500000
1.000000 0.125000 0.500000
0.000000 0.250000 0.500000
0.096875 0.240625 0.528125
0.231250 0.231250 0.518750
0.375000 0.231250 0.518750
0.518750 0.231250 0.518750
0.653125 0.221875 0.509375
0.787500 0.212500 0.500000
0.921875 0.203125 0.490625
1.000000 0.250000 0.500000
0.000000 0.375000 0.500000
0.096875 0.384375 0.528125
0.231250 0.375000 0.518750
0.365625 0.365625 0.509375
0.509375 0.365625 0.509375
0.643750 0.356250 0.500000
0.778125 0.346875 0.490625
0.912500 0.337500 0.481250
1.000000 0.375000 0.500000
0.000000 0.500000 0.500000
0.096875 0.528125 0.528125
0.231250 0.518750 0.518750
0.365625 0.509375 0.509375
0.500000 0.500000 0.500000
0.634375 0.490625 0.490625
0.768750 0.481250 0.481250
0.903125 0.471875 0.471875
1.000000 0.500000 0.500000
0.000000 0.625000 0.500000
0.087500 0.662500 0.518750
0.221875 0.653125 0.509375
0.356250 0.643750 0.500000
0.490625 0.634375 0.490625
0.634375 0.634375 0.490625
0.768750 0.625000 0.481250
0.903125 0.615625 0.471875
1.000000 0.625000 0.500000
0.000000 0.750000 0.500000
0.078125 0.796875 0.509375
0.212500 0.787500 0.500000
0.346875 0.778125 0.490625
0.481250 0.768750 0.481250
0.625000 0.768750 0.481250
0.768750 0.768750 0.481250
0.903125 0.759375 0.471875
1.000000 0.750000 0.500000
0.000000 0.875000 0.500000
0.068750 0.931250 0.500000
0.203125 0.921875 0.490625
0.337500 0.912500 0.481250
0.471875 0.903125 0.471875
0.615625 0.903125 0.471875
0.759375 0.903125 0.471875
0.903125 0.903125 0.471875
1.000000 0.875000 0.500000
0.000000 1.000000 0.500000
0.125000 1.000000 0.500000
0.250000 1.000000 0.500000
0.375000 1.000000 0.500000
0.500000 1.000000 0.500000
0.625000 1.000000 0.500000
0.750000 1.000000 0.500000
0.875000 1.000000 0.500000
1.000000 1.000000 0.500000
0.000000 0.000000 0.625000
0.125000 0.000000 0.625000
0.250000 0.000000 0.625000
0.375000 0.000000 0.625000
0.500000 0.000000 0.625000
0.625000 0.000000 0.625000
0.750000 0.000000 0.625000
0.875000 0.000000 0.625000
1.000000 0.000000 0.625000
0.000000 0.125000 0.625000
0.087500 0.087500 0.662500
0.231250 0.087500 0.662500
0.375000 0.087500 0.662500
0.518750 0.087500 0.662500
0.662500 0.087500 0.662500
0.796875 0.078125 0.653125
0.931250 0.068750 0.643750
1.000000 0.125000 0.625000
0.000000 0.250000 0.625000
0.087500 0.231250 0.662500
0.221875 0.221875 0.653125
0.365625 0.221875 0.653125
0.509375 0.221875 0.653125
0.653125 0.221875 0.653125
0.787500 0.212500 0.643750
0.921875 0.203125 0.634375
1.000000 0.250000 0.625000
0.000000 0.375000 0.625000
0.087500 0.375000 0.662500
0.221875 0.365625 0.653125
0.356250 0.356250 0.643750
0.500000 0.356250 0.643750
0.643750 0.356250 0.643750
0.778125 0.346875 0.634375
0.912500 0.337500 0.625000
1.000000 0.375000 0.625000
0.000000 0.500000 0.625000
0.087500 0.518750 0.662500
0.221875 0.509375 0.653125
0.356250 0.500000 0.643750
0.490625 0.490625 0.634375
0.634375 0.490625 0.634375
0.768750 0.481250 0.625000
0.903125 0.471875 0.615625
1.000000 0.500000 0.625000
0.000000 0.625000 0.625000
0.087500 0.662500 0.662500
0.221875 0.653125 0.653125
0.356250 0.643750 0.643750
0.490625 0.634375 0.634375
0.625000 0.625000 0.625000
0.759375 0.615625 0.615625
0.893750 0.606250 0.606250
1.000000 0.625000 0.625000
0.000000 0.750000 0.625000
0.078125 0.796875 0.653125
0.212500 0.787500 0.643750
0.346875 0.778125 0.634375
0.481250 0.768750 0.625000
0.615625 0.759375 0.615625
0.759375 0.759375 0.615625
0.893750 0.750000 0.606250
1.000000 0.750000 0.625000
0.000000 0.875000 0.625000
0.068750 0.931250 0.643750
0.203125 0.921875 0.634375
0.337500 0.912500 0.625000
0.471875 0.903125 0.615625
0.606250 0.893750 0.606250
0.750000 0.893750 0.606250
0.893750 0.893750 0.606250
1.000000 0.875000 0.625000
0.000000 1.000000 0.625000
0.125000 1.000000 0.625000
0.250000 1.000000 0.625000
0.375000 1.000000 0.625000
0.500000 1.000000 0.625000
0.625000 1.000000 0.625000
0.750000 1.000000 0.625000
0.875000 1.000000 0.625000
1.000000 1.000000 0.625000
0.000000 0.000000 0.750000
0.125000 0.000000 0.750000
0.250000 0.000000 0.750000
0.375000 0.000000 0.750000
0.500000 0.000000 0.750000
0.625000 0.000000 0.750000
0.750000 0.000000 0.750000
0.875000 0.000000 0.750000
1.000000 0.000000 0.750000
0.000000 0.125000 0.750000
0.078125 0.078125 0.796875
0.221875 0.078125 0.796875
0.365625 0.078125 0.796875
0.509375 0.078125 0.796875
0.653125 0.078125 0.796875
0.796875 0.078125 0.796875
0.931250 0.068750 0.787500
1.000000 0.125000 0.750000
0.000000 0.250000 0.750000
0.078125 0.221875 0.796875
0.212500 0.212500 0.787500
0.356250 0.212500 0.787500
0.500000 0.212500 0.787500
0.643750 0.212500 0.787500
0.787500 0.212500 0.787500
0.921875 0.203125 0.778125
1.000000 0.250000 0.750000
0.000000 0.375000 0.750000
0.078125 0.365625 0.796875
0.212500 0.356250 0.787500
0.346875 0.346875 0.778125
0.490625 0.346875 0.778125
0.634375 0.346875 0.778125
0.778125 0.346875 0.778125
0.912500 0.337500 0.768750
1.000000 0.375000 0.750000
0.000000 0.500000 0.750000
0.078125 0.509375 0.796875
0.212500 0.500000 0.787500
0.346875 0.490625 0.778125
0.481250 0.481250 0.768750
0.625000 0.481250 0.768750
0.768750 0.481250 0.768750
0.903125 0.471875 0.759375
1.000000 0.500000 0.750000
0.000000 0.625000 0.750000
0.078125 0.653125 0.796875
0.212500 0.643750 0.787500
0.346875 0.634375 0.778125
0.481250 0.625000 0.768750
0.615625 0.615625 0.759375
0.759375 0.615625 0.759375
0.893750 0.606250 0.750000
1.000000 0.625000 0.750000
0.000000 0.750000 0.750000
0.078125 0.796875 0.796875
0.212500 0.787500 0.787500
0.346875 0.778125 0.778125
0.481250 0.768750 0.768750
0.615625 0.759375 0.759375
0.750000 0.750000 0.750000
0.884375 0.740625 0.740625
1.000000 0.750000 0.750000
0.000000 0.875000 0.750000
0.068750 0.931250 0.787500
0.203125 0.921875 0.778125
0.337500 0.912500 0.768750
0.471875 0.903125 0.759375
0.606250 0.893750 0.750000
0.740625 0.884375 0.740625
0.884375 0.884375 0.740625
1.000000 0.875000 0.750000
0.000000 1.000000 0.750000
0.125000 1.000000 0.750000
0.250000 1.000000 0.750000
0.375000 1.000000 0.750000
0.500000 1.000000 0.750000
0.625000 1.000000 0.750000
0.750000 1.000000 0.750000
0.875000 1.000000 0.750000
1.000000 1.000000 0.750000
0.000000 0.000000 0.875000
0.125000 0.000000 0.875000
0.250000 0.000000 0.875000
0.375000 0.000000 0.875000
0.500000 0.000000 0.875000
0.625000 0.000000 0.875000
0.750000 0.000000 0.875000
0.875000 0.000000 0.875000
1.000000 0.000000 0.875000
0.000000 0.125000 0.875000
0.068750 0.068750 0.931250
0.212500 0.068750 0.931250
0.356250 0.068750 0.931250
0.500000 0.068750 0.931250
0.643750 0.068750 0.931250
0.787500 0.068750 0.931250
0.931250 0.068750 0.931250
1.000000 0.125000 0.875000
0.000000 0.250000 0.875000
0.068750 0.212500 0.931250
0.203125 0.203125 0.921875
0.346875 0.203125 0.921875
0.490625 0.203125 0.921875
0.634375 0.203125 0.921875
0.778125 0.203125 0.921875
0.921875 0.203125 0.921875
1.000000 0.250000 0.875000
0.000000 0.375000 0.875000
0.068750 0.356250 0.931250
0.203125 0.346875 0.921875
0.337500 0.337500 0.912500
0.481250 0.337500 0.912500
0.625000 0.337500 0.912500
0.768750 0.337500 0.912500
0.912500 0.337500 0.912500
1.000000 0.375000 0.875000
0.000000 0.500000 0.875000
0.068750 0.500000 0.931250
0.203125 0.490625 0.921875
0.337500 0.481250 0.912500
0.471875 0.471875 0.903125
0.615625 0.471875 0.903125
0.759375 0.471875 0.903125
0.903125 0.471875 0.903125
1.000000 0.500000 0.875000
0.000000 0.625000 0.875000
0.068750 0.643750 0.931250
0.203125 0.634375 0.921875
0.337500 0.625000 0.912500
0.471875 0.615625 0.903125
0.606250 0.606250 0.893750
0.750000 0.606250 0.893750
0.893750 0.606250 0.893750
1.000000 0.625000 0.875000
0.000000 0.750000 0.875000
0.068750 0.787500 0.931250
0.203125 0.778125 0.921875
0.337500 0.768750 0.912500
0.471875 0.759375 0.903125
0.606250 0.750000 0.893750
0.740625 0.740625 0.884375
0.884375 0.740625 0.884375
1.000000 0.750000 0.875000
0.000000 0.875000 0.875000
0.068750 0.931250 0.931250
0.203125 0.921875 0.921875
0.337500 0.912500 0.912500
0.471875 0.903125 0.903125
0.606250 0.893750 0.893750
0.740625 0.884375 0.884375
0.875000 0.875000 0.875000
1.000000 0.875000 0.875000
0.000000 1.000000 0.875000
0.125000 1.000000 0.875000
0.250000 1.000000 0.875000
0.375000 1.000000 0.875000
0.500000 1.000000 0.875000
0.625000 1.000000 0.875000
0.750000 1.000000 0.875000
0.875000 1.000000 0.875000
1.000000 1.000000 0.875000
0.000000 0.000000 1.000000
0.125000 0.000000 1.000000
0.250000 0.000000 1.000000
0.375000 0.000000 1.000000
0.500000 0.000000 1.000000
0.625000 0.000000 1.000000
0.750000 0.000000 1.000000
0.875000 0.000000 1.000000
1.000000 0.000000 1.000000
0.000000 0.125000 1.000000
0.125000 0.125000 1.000000
0.250000 0.125000 1.000000
0.375000 0.125000 1.000000
0.500000 0.125000 1.000000
0.625000 0.125000 1.000000
0.750000 0.125000 1.000000
0.875000 0.125000 1.000000
1.000000 0.125000 1.000000
0.000000 0.250000 1.000000
0.125000 0.250000 1.000000
0.250000 0.250000 1.000000
0.375000 0.250000 1.000000
0.500000 0.250000 1.000000
0.625000 0.250000 1.000000
0.750000 0.250000 1.000000
0.875000 0.250000 1.000000
1.000000 0.250000 1.000000
0.000000 0.375000 1.000000
0.125000 0.375000 1.000000
0.250000 0.375000 1.000000
0.375000 0.375000 1.000000
0.500000 0.375000 1.000000
0.625000 0.375000 1.000000
0.750000 0.375000 1.000000
0.875000 0.375000 1.000000
1.000000 0.375000 1.000000
0.000000 0.500000 1.000000
0.125000 0.500000 1.000000
0.250000 0.500000 1.000000
0.375000 0.500000 1.000000
0.500000 0.500000 1.000000
0.625000 0.500000 1.000000
0.750000 0.500000 1.000000
0.875000 0.500000 1.000000
1.000000 0.500000 1.000000
0.000000 0.625000 1.000000
0.125000 0.625000 1.000000
0.250000 0.625000 1.000000
0.375000 0.625000 1.000000
0.500000 0.625000 1.000000
0.625000 0.625000 1.000000
0.750000 0.625000 1.000000
0.875000 0.625000 1.000000
1.000000 0.625000 1.000000
0.000000 0.750000 1.000000
0.125000 0.750000 1.000000
0.250000 0.750000 1.000000
0.375000 0.750000 1.000000
0.500000 0.750000 1.000000
0.625000 0.750000 1.000000
0.750000 0.750000 1.000000
0.875000 0.750000 1.000000
1.000000 0.750000 1.000000
0.000000 0.875000 1.000000
0.125000 0.875000 1.000000
0.250000 0.875000 1.000000
0.375000 0.875000 1.000000
0.500000 0.875000 1.000000
0.625000 0.875000 1.000000
0.750000 0.875000 1.000000
0.875000 0.875000 1.000000
1.000000 0.875000 1.000000
0.000000 1.000000 1.000000
0.125000 1.000000 1.000000
0.250000 1.000000 1.000000
0.375000 1.000000 1.000000
0.500000 1.000000 1.000000
0.625000 1.000000 1.000000
0.750000 1.000000 1.000000
0.875000 1.000000 1.000000
1.000000 1.000000 1.000000
