correction_luts/sat_boost_50.cube
# Global saturation increase for more vibrancy
# Strength: 0.5
# Color model: linear-light tone (v2)
TITLE "Saturation Boost - +15%"
LUT_3D_SIZE 5
0.000000 0.000000 0.000000
0.250000 0.000000 0.000000
0.500000 0.000000 0.000000
0.750000 0.000000 0.000000
1.000000 0.000000 0.000000
0.000000 0.250000 0.000000
0.250000 0.250000 0.000000
0.500000 0.250000 0.000000
0.750000 0.250000 0.000000
1.000000 0.250000 0.000000
0.000000 0.500000 0.000000
0.250000 0.500000 0.000000
0.500000 0.500000 0.000000
0.750000 0.500000 0.000000
1.000000 0.500000 0.000000
0.000000 0.750000 0.000000
0.250000 0.750000 0.000000
0.500000 0.750000 0.000000
0.750000 0.750000 0.000000
1.000000 0.750000 0.000000
0.000000 1.000000 0.000000
0.250000 1.000000 0.000000
0.500000 1.000000 0.000000
0.750000 1.000000 0.000000
1.000000 1.000000 0.000000
0.000000 0.000000 0.250000
0.250000 0.000000 0.250000
0.500000 0.000000 0.250000
0.750000 0.000000 0.250000
1.000000 0.000000 0.250000
0.000000 0.250000 0.250000
0.250000 0.250000 0.250000
0.509375 0.240625 0.240625
0.768750 0.231250 0.231250
1.000000 0.250000 0.250000
0.000000 0.500000 0.250000
0.240625 0.509375 0.240625
0.509375 0.509375 0.240625
0.768750 0.500000 0.231250
1.000000 0.500000 0.250000
0.000000 0.750000 0.250000
0.231250 0.768750 0.231250
0.500000 0.768750 0.231250
0.768750 0.768750 0.231250
1.000000 0.750000 0.250000
0.000000 1.000000 0.250000
0.250000 1.000000 0.250000
0.500000 1.000000 0.250000
0.750000 1.000000 0.250000
1.000000 1.000000 0.250000
0.000000 0.000000 0.500000
0.250000 0.000000 0.500000
0.500000 0.000000 0.500000
0.750000 0.000000 0.500000
1.000000 0.000000 0.500000
0.000000 0.250000 0.500000
0.240625 0.240625 0.509375
0.509375 0.240625 0.509375
0.768750 0.231250 0.500000
1.000000 0.250000 0.500000
0.000000 0.500000 0.500000
0.240625 0.509375 0.509375
0.500000 0.500000 0.500000
0.759375 0.490625 0.490625
1.000000 0.500000 0.500000
0.000000 0.750000 0.500000
0.231250 0.768750 0.500000
0.490625 0.759375 0.490625
0.759375 0.759375 0.490625
1.000000 0.750000 0.500000
0.000000 1.000000 0.500000
0.250000 1.000000 0.500000
0.500000 1.000000 0.500000
0.750000 1.000000 0.500000
1.000000 1.000000 0.500000
0.000000 0.000000 0.750000
0.250000 0.000000 0.750000
0.500000 0.000000 0.750000
0.750000 0.000000 0.750000
1.000000 0.000000 0.750000
0.000000 0.250000 0.750000
0.231250 0.231250 0.768750
0.500000 0.231250 0.768750
0.768750 0.231250 0.768750
1.000000 0.250000 0.750000
0.000000 0.500000 0.750000
0.231250 0.500000 0.768750
0.490625 0.490625 0.759375
0.759375 0.490625 0.759375
1.000000 0.500000 0.750000
0.000000 0.750000 0.750000
0.231250 0.768750 0.768750
0.490625 0.759375 0.759375
0.750000 0.750000 0.750000
1.000000 0.750000 0.750000
0.000000 1.000000 0.750000
0.250000 1.000000 0.750000
0.500000 1.000000 0.750000
0.750000 1.000000 0.750000
1.000000 1.000000 0.750000
0.000000 0.000000 1.000000
0.250000 0.000000 1.000000
0.500000 0.000000 1.000000
0.750000 0.000000 1.000000
1.000000 0.000000 1.000000
0.000000 0.250000 1.000000
0.250000 0.250000 1.000000
0.500000 0.250000 1.000000
0.750000 0.250000 1.000000
1.000000 0.250000 1.000000
0.000000 0.500000 1.000000
0.250000 0.500000 1.000000
0.500000 0.500000 1.000000
0.750000 0.500000 1.000000
1.000000 0.500000 1.000000
0.000000 0.750000 1.000000
0.250000 0.750000 1.000000
0.500000 0.750000 1.000000
0.750000 0.750000 1.000000
1.000000 0.750000 1.000000
0.000000 1.000000 1.000000
0.250000 1.000000 1.000000
0.500000 1.000000 1.000000
0.750000 1.000000 1.000000
1.000000 1.000000 1.000000
