correction_luts/sat_reduce.cube
# Global saturation decrease for a more muted look
# Strength: 1.0
# Color model: linear-light tone (v2)
TITLE "Saturation Reduce - -15%"
LUT_3D_SIZE 5
0.000000 0.000000 0.000000
0.231250 0.018750 0.018750
0.462500 0.037500 0.037500
0.693750 0.056250 0.056250
0.925000 0.075000 0.075000
0.018750 0.231250 0.018750
0.231250 0.231250 0.018750
0.462500 0.250000 0.037500
0.693750 0.268750 0.056250
0.925000 0.287500 0.075000
0.037500 0.462500 0.037500
0.250000 0.462500 0.037500
0.462500 0.462500 0.037500
0.693750 0.481250 0.056250
0.925000 0.500000 0.075000
0.056250 0.693750 0.056250
0.268750 0.693750 0.056250
0.481250 0.693750 0.056250
0.693750 0.693750 0.056250
0.925000 0.712500 0.075000
0.075000 0.925000 0.075000
0.287500 0.925000 0.075000
0.500000 0.925000 0.075000
0.712500 0.925000 0.075000
0.925000 0.925000 0.075000
0.018750 0.018750 0.231250
0.231250 0.018750 0.231250
0.462500 0.037500 0.250000
0.693750 0.056250 0.268750
0.925000 0.075000 0.287500
0.018750 0.231250 0.231250
0.250000 0.250000 0.250000
0.481250 0.268750 0.268750
0.712500 0.287500 0.287500
0.943750 0.306250 0.306250
0.037500 0.462500 0.250000
0.268750 0.481250 0.268750
0.481250 0.481250 0.268750
0.712500 0.500000 0.287500
0.943750 0.518750 0.306250
0.056250 0.693750 0.268750
0.287500 0.712500 0.287500
0.500000 0.712500 0.287500
0.712500 0.712500 0.287500
0.943750 0.731250 0.306250
0.075000 0.925000 0.287500
0.306250 0.943750 0.306250
0.518750 0.943750 0.306250
0.731250 0.943750 0.306250
0.943750 0.943750 0.306250
0.037500 0.037500 0.462500
0.250000 0.037500 0.462500
0.462500 0.037500 0.462500
0.693750 0.056250 0.481250
0.925000 0.075000 0.500000
0.037500 0.250000 0.462500
0.268750 0.268750 0.481250
0.481250 0.268750 0.481250
0.712500 0.287500 0.500000
0.943750 0.306250 0.518750
0.037500 0.462500 0.462500
0.268750 0.481250 0.481250
0.500000 0.500000 0.500000
0.731250 0.518750 0.518750
0.962500 0.537500 0.537500
0.056250 0.693750 0.481250
0.287500 0.712500 0.500000
0.518750 0.731250 0.518750
0.731250 0.731250 0.518750
0.962500 0.750000 0.537500
0.075000 0.925000 0.500000
0.306250 0.943750 0.518750
0.537500 0.962500 0.537500
0.750000 0.962500 0.537500
0.962500 0.962500 0.537500
0.056250 0.056250 0.693750
0.268750 0.056250 0.693750
0.481250 0.056250 0.693750
0.693750 0.056250 0.693750
0.925000 0.075000 0.712500
0.056250 0.268750 0.693750
0.287500 0.287500 0.712500
0.500000 0.287500 0.712500
0.712500 0.287500 0.712500
0.943750 0.306250 0.731250
0.056250 0.481250 0.693750
0.287500 0.500000 0.712500
0.518750 0.518750 0.731250
0.731250 0.518750 0.731250
0.962500 0.537500 0.750000
0.056250 0.693750 0.693750
0.287500 0.712500 0.712500
0.518750 0.731250 0.731250
0.750000 0.750000 0.750000
0.981250 0.768750 0.768750
0.075000 0.925000 0.712500
0.306250 0.943750 0.731250
0.537500 0.962500 0.750000
0.768750 0.981250 0.768750
0.981250 0.981250 0.768750
0.075000 0.075000 0.925000
0.287500 0.075000 0.925000
0.500000 0.075000 0.925000
0.712500 0.075000 0.925000
0.925000 0.075000 0.925000
0.075000 0.287500 0.925000
0.306250 0.306250 0.943750
0.518750 0.306250 0.943750
0.731250 0.306250 0.943750
0.943750 0.306250 0.943750
0.075000 0.500000 0.925000
0.306250 0.518750 0.943750
0.537500 0.537500 0.962500
0.750000 0.537500 0.962500
0.962500 0.537500 0.962500
0.075000 0.712500 0.925000
0.306250 0.731250 0.943750
0.537500 0.750000 0.962500
0.768750 0.768750 0.981250
0.981250 0.768750 0.981250
0.075000 0.925000 0.925000
0.306250 0.943750 0.943750
0.537500 0.962500 0.962500
0.768750 0.981250 0.981250
1.000000 1.000000 1.000000
