correction_luts/sat_reduce.cube
# Global saturation decrease for a more muted look
# Strength: 1.0
# Color model: linear-light tone (v2)
TITLE "Saturation Reduce - -15%"
LUT_3D_SIZE 33
0.000000 0.000000 0.000000
0.028906 0.002344 0.002344
0.057812 0.004688 0.004688
0.086719 0.007031 0.007031
0.115625 0.009375 0.009375
0.144531 0.011719 0.011719
0.173438 0.014062 0.014062
0.202344 0.016406 0.016406
0.231250 0.018750 0.018750
0.260156 0.021094 0.021094
0.289062 0.023438 0.023438
0.317969 0.025781 0.025781
0.346875 0.028125 0.028125
0.375781 0.030469 0.030469
0.404688 0.032812 0.032812
0.433594 0.035156 0.035156
0.462500 0.037500 0.037500
0.491406 0.039844 0.039844
0.520312 0.042187 0.042187
0.549219 0.044531 0.044531
0.578125 0.046875 0.046875
0.607031 0.049219 0.049219
0.635938 0.051562 0.051562
0.664844 0.053906 0.053906
0.693750 0.056250 0.056250
0.722656 0.058594 0.058594
0.751562 0.060938 0.060938
0.780469 0.063281 0.063281
0.809375 0.065625 0.065625
0.838281 0.067969 0.067969
0.867188 0.070312 0.070312
0.896094 0.072656 0.072656
0.925000 0.075000 0.075000
0.002344 0.028906 0.002344
0.028906 0.028906 0.002344
0.057812 0.031250 0.004688
0.086719 0.033594 0.007031
0.115625 0.035938 0.009375
0.144531 0.038281 0.011719
0.173438 0.040625 0.014062
0.202344 0.042969 0.016406
0.231250 0.045312 0.018750
0.260156 0.047656 0.021094
0.289062 0.050000 0.023438
0.317969 0.052344 0.025781
0.346875 0.054687 0.028125
0.375781 0.057031 0.030469
0.404688 0.059375 0.032812
0.433594 0.061719 0.035156
0.462500 0.064062 0.037500
0.491406 0.066406 0.039844
0.520312 0.068750 0.042187
0.549219 0.071094 0.044531
0.578125 0.073438 0.046875
0.607031 0.075781 0.049219
0.635938 0.078125 0.051562
0.664844 0.080469 0.053906
0.693750 0.082812 0.056250
0.722656 0.085156 0.058594
0.751562 0.087500 0.060938
0.780469 0.089844 0.063281
0.809375 0.092187 0.065625
0.838281 0.094531 0.067969
0.867188 0.096875 0.070312
0.896094 0.099219 0.072656
0.925000 0.101562 0.075000
0.004688 0.057812 0.004688
0.031250 0.057812 0.004688
0.057812 0.057812 0.004688
0.086719 0.060156 0.007031
0.115625 0.062500 0.009375
0.144531 0.064844 0.011719
0.173438 0.067188 0.014062
0.202344 0.069531 0.016406
0.231250 0.071875 0.018750
0.260156 0.074219 0.021094
0.289062 0.076562 0.023438
0.317969 0.078906 0.025781
0.346875 0.081250 0.028125
0.375781 0.083594 0.030469
0.404688 0.085938 0.032812
0.433594 0.088281 0.035156
0.462500 0.090625 0.037500
0.491406 0.092969 0.039844
0.520312 0.095312 0.042187
0.549219 0.097656 0.044531
0.578125 0.100000 0.046875
0.607031 0.102344 0.049219
0.635938 0.104688 0.051562
0.664844 0.107031 0.053906
0.693750 0.109375 0.056250
0.722656 0.111719 0.058594
0.751562 0.114062 0.060938
0.780469 0.116406 0.063281
0.809375 0.118750 0.065625
0.838281 0.121094 0.067969
0.867188 0.123438 0.070312
0.896094 0.125781 0.072656
0.925000 0.128125 0.075000
0.007031 0.086719 0.007031
0.033594 0.086719 0.007031
0.060156 0.086719 0.007031
0.086719 0.086719 0.007031
0.115625 0.089062 0.009375
0.144531 0.091406 0.011719
0.173438 0.093750 0.014062
0.202344 0.096094 0.016406
0.231250 0.098438 0.018750
0.260156 0.100781 0.021094
0.289062 0.103125 0.023438
0.317969 0.105469 0.025781
0.346875 0.107812 0.028125
0.375781 0.110156 0.030469
0.404688 0.112500 0.032812
0.433594 0.114844 0.035156
0.462500 0.117188 0.037500
0.491406 0.119531 0.039844
0.520312 0.121875 0.042187
0.549219 0.124219 0.044531
0.578125 0.126562 0.046875
0.607031 0.128906 0.049219
0.635938 0.131250 0.051562
0.664844 0.133594 0.053906
0.693750 0.135938 0.056250
0.722656 0.138281 0.058594
0.751562 0.140625 0.060938
0.780469 0.142969 0.063281
0.809375 0.145312 0.065625
0.838281 0.147656 0.067969
0.867188 0.150000 0.070312
0.896094 0.152344 0.072656
0.925000 0.154688 0.075000
0.009375 0.115625 0.009375
0.035938 0.115625 0.009375
0.062500 0.115625 0.009375
0.089062 0.115625 0.009375
0.115625 0.115625 0.009375
0.144531 0.117969 0.011719
0.173438 0.120312 0.014062
0.202344 0.122656 0.016406
0.231250 0.125000 0.018750
0.260156 0.127344 0.021094
0.289062 0.129688 0.023438
0.317969 0.132031 0.025781
0.346875 0.134375 0.028125
0.375781 0.136719 0.030469
0.404688 0.139062 0.032812
0.433594 0.141406 0.035156
0.462500 0.143750 0.037500
0.491406 0.146094 0.039844
0.520312 0.148438 0.042187
0.549219 0.150781 0.044531
0.578125 0.153125 0.046875
0.607031 0.155469 0.049219
0.635938 0.157812 0.051562
0.664844 0.160156 0.053906
0.693750 0.162500 0.056250
0.722656 0.164844 0.058594
0.751562 0.167188 0.060938
0.780469 0.169531 0.063281
0.809375 0.171875 0.065625
0.838281 0.174219 0.067969
0.867188 0.176562 0.070312
0.896094 0.178906 0.072656
0.925000 0.181250 0.075000
0.011719 0.144531 0.011719
0.038281 0.144531 0.011719
0.064844 0.144531 0.011719
0.091406 0.144531 0.011719
0.117969 0.144531 0.011719
0.144531 0.144531 0.011719
0.173438 0.146875 0.014062
0.202344 0.149219 0.016406
0.231250 0.151562 0.018750
0.260156 0.153906 0.021094
0.289062 0.156250 0.023438
0.317969 0.158594 0.025781
0.346875 0.160938 0.028125
0.375781 0.163281 0.030469
0.404688 0.165625 0.032812
0.433594 0.167969 0.035156
0.462500 0.170312 0.037500
0.491406 0.172656 0.039844
0.520312 0.175000 0.042187
0.549219 0.177344 0.044531
0.578125 0.179688 0.046875
0.607031 0.182031 0.049219
0.635938 0.184375 0.051562
0.664844 0.186719 0.053906
0.693750 0.189062 0.056250
0.722656 0.191406 0.058594
0.751562 0.193750 0.060938
0.780469 0.196094 0.063281
0.809375 0.198438 0.065625
0.838281 0.200781 0.067969
0.867188 0.203125 0.070312
0.896094 0.205469 0.072656
0.925000 0.207812 0.075000
0.014062 0.173438 0.014062
0.040625 0.173438 0.014062
0.067187 0.173438 0.014062
0.093750 0.173438 0.014062
0.120312 0.173438 0.014062
0.146875 0.173438 0.014062
0.173438 0.173438 0.014062
0.202344 0.175781 0.016406
0.231250 0.178125 0.018750
0.260156 0.180469 0.021094
0.289062 0.182812 0.023438
0.317969 0.185156 0.025781
0.346875 0.187500 0.028125
0.375781 0.189844 0.030469
0.404688 0.192188 0.032812
0.433594 0.194531 0.035156
0.462500 0.196875 0.037500
0.491406 0.199219 0.039844
0.520312 0.201562 0.042187
0.549219 0.203906 0.044531
0.578125 0.206250 0.046875
0.607031 0.208594 0.049219
0.635938 0.210938 0.051562
0.664844 0.213281 0.053906
0.693750 0.215625 0.056250
0.722656 0.217969 0.058594
0.751562 0.220312 0.060938
0.780469 0.222656 0.063281
0.809375 0.225000 0.065625
0.838281 0.227344 0.067969
0.867188 0.229688 0.070312
0.896094 0.232031 0.072656
0.925000 0.234375 0.075000
0.016406 0.202344 0.016406
0.042969 0.202344 0.016406
0.069531 0.202344 0.016406
0.096094 0.202344 0.016406
0.122656 0.202344 0.016406
0.149219 0.202344 0.016406
0.175781 0.202344 0.016406
0.202344 0.202344 0.016406
0.231250 0.204688 0.018750
0.260156 0.207031 0.021094
0.289062 0.209375 0.023438
0.317969 0.211719 0.025781
0.346875 0.214062 0.028125
0.375781 0.216406 0.030469
0.404688 0.218750 0.032812
0.433594 0.221094 0.035156
0.462500 0.223438 0.037500
0.491406 0.225781 0.039844
0.520312 0.228125 0.042187
0.549219 0.230469 0.044531
0.578125 0.232812 0.046875
0.607031 0.235156 0.049219
0.635938 0.237500 0.051562
0.664844 0.239844 0.053906
0.693750 0.242188 0.056250
0.722656 0.244531 0.058594
0.751562 0.246875 0.060938
0.780469 0.249219 0.063281
0.809375 0.251562 0.065625
0.838281 0.253906 0.067969
0.867188 0.256250 0.070312
0.896094 0.258594 0.072656
0.925000 0.260938 0.075000
0.018750 0.231250 0.018750
0.045313 0.231250 0.018750
0.071875 0.231250 0.018750
0.098438 0.231250 0.018750
0.125000 0.231250 0.018750
0.151562 0.231250 0.018750
0.178125 0.231250 0.018750
0.204688 0.231250 0.018750
0.231250 0.231250 0.018750
0.260156 0.233594 0.021094
0.289062 0.235938 0.023438
0.317969 0.238281 0.025781
0.346875 0.240625 0.028125
0.375781 0.242969 0.030469
0.404688 0.245312 0.032812
0.433594 0.247656 0.035156
0.462500 0.250000 0.037500
0.491406 0.252344 0.039844
0.520312 0.254688 0.042187
0.549219 0.257031 0.044531
0.578125 0.259375 0.046875
0.607031 0.261719 0.049219
0.635938 0.264062 0.051562
0.664844 0.266406 0.053906
0.693750 0.268750 0.056250
0.722656 0.271094 0.058594
0.751562 0.273438 0.060938
0.780469 0.275781 0.063281
0.809375 0.278125 0.065625
0.838281 0.280469 0.067969
0.867188 0.282812 0.070312
0.896094 0.285156 0.072656
0.925000 0.287500 0.075000
0.021094 0.260156 0.021094
0.047656 0.260156 0.021094
0.074219 0.260156 0.021094
0.100781 0.260156 0.021094
0.127344 0.260156 0.021094
0.153906 0.260156 0.021094
0.180469 0.260156 0.021094
0.207031 0.260156 0.021094
0.233594 0.260156 0.021094
0.260156 0.260156 0.021094
0.289062 0.262500 0.023438
0.317969 0.264844 0.025781
0.346875 0.267188 0.028125
0.375781 0.269531 0.030469
0.404688 0.271875 0.032812
0.433594 0.274219 0.035156
0.462500 0.276562 0.037500
0.491406 0.278906 0.039844
0.520312 0.281250 0.042187
0.549219 0.283594 0.044531
0.578125 0.285938 0.046875
0.607031 0.288281 0.049219
0.635938 0.290625 0.051562
0.664844 0.292969 0.053906
0.693750 0.295312 0.056250
0.722656 0.297656 0.058594
0.751562 0.300000 0.060938
0.780469 0.302344 0.063281
0.809375 0.304688 0.065625
0.838281 0.307031 0.067969
0.867188 0.309375 0.070312
0.896094 0.311719 0.072656
0.925000 0.314062 0.075000
0.023438 0.289062 0.023438
0.050000 0.289062 0.023438
0.076562 0.289062 0.023438
0.103125 0.289062 0.023438
0.129688 0.289062 0.023438
0.156250 0.289062 0.023438
0.182812 0.289062 0.023438
0.209375 0.289062 0.023438
0.235938 0.289062 0.023438
0.262500 0.289062 0.023438
0.289062 0.289062 0.023438
0.317969 0.291406 0.025781
0.346875 0.293750 0.028125
0.375781 0.296094 0.030469
0.404688 0.298438 0.032812
0.433594 0.300781 0.035156
0.462500 0.303125 0.037500
0.491406 0.305469 0.039844
0.520312 0.307812 0.042187
0.549219 0.310156 0.044531
0.578125 0.312500 0.046875
0.607031 0.314844 0.049219
0.635938 0.317188 0.051562
0.664844 0.319531 0.053906
0.693750 0.321875 0.056250
0.722656 0.324219 0.058594
0.751562 0.326562 0.060938
0.780469 0.328906 0.063281
0.809375 0.331250 0.065625
0.838281 0.333594 0.067969
0.867188 0.335938 0.070312
0.896094 0.338281 0.072656
0.925000 0.340625 0.075000
0.025781 0.317969 0.025781
0.052344 0.317969 0.025781
0.078906 0.317969 0.025781
0.105469 0.317969 0.025781
0.132031 0.317969 0.025781
0.158594 0.317969 0.025781
0.185156 0.317969 0.025781
0.211719 0.317969 0.025781
0.238281 0.317969 0.025781
0.264844 0.317969 0.025781
0.291406 0.317969 0.025781
0.317969 0.317969 0.025781
0.346875 0.320312 0.028125
0.375781 0.322656 0.030469
0.404688 0.325000 0.032812
0.433594 0.327344 0.035156
0.462500 0.329688 0.037500
0.491406 0.332031 0.039844
0.520312 0.334375 0.042187
0.549219 0.336719 0.044531
0.578125 0.339062 0.046875
0.607031 0.341406 0.049219
0.635938 0.343750 0.051562
0.664844 0.346094 0.053906
0.693750 0.348438 0.056250
0.722656 0.350781 0.058594
0.751562 0.353125 0.060938
0.780469 0.355469 0.063281
0.809375 0.357812 0.065625
0.838281 0.360156 0.067969
0.867188 0.362500 0.070312
0.896094 0.364844 0.072656
0.925000 0.367188 0.075000
0.028125 0.346875 0.028125
0.054688 0.346875 0.028125
0.081250 0.346875 0.028125
0.107812 0.346875 0.028125
0.134375 0.346875 0.028125
0.160938 0.346875 0.028125
0.187500 0.346875 0.028125
0.214062 0.346875 0.028125
0.240625 0.346875 0.028125
0.267188 0.346875 0.028125
0.293750 0.346875 0.028125
0.320312 0.346875 0.028125
0.346875 0.346875 0.028125
0.375781 0.349219 0.030469
0.404688 0.351562 0.032812
0.433594 0.353906 0.035156
0.462500 0.356250 0.037500
0.491406 0.358594 0.039844
0.520312 0.360938 0.042187
0.549219 0.363281 0.044531
0.578125 0.365625 0.046875
0.607031 0.367969 0.049219
0.635938 0.370312 0.051562
0.664844 0.372656 0.053906
0.693750 0.375000 0.056250
0.722656 0.377344 0.058594
0.751562 0.379688 0.060938
0.780469 0.382031 0.063281
0.809375 0.384375 0.065625
0.838281 0.386719 0.067969
0.867188 0.389062 0.070312
0.896094 0.391406 0.072656
0.925000 0.393750 0.075000
0.030469 0.375781 0.030469
0.057031 0.375781 0.030469
0.083594 0.375781 0.030469
0.110156 0.375781 0.030469
0.136719 0.375781 0.030469
0.163281 0.375781 0.030469
0.189844 0.375781 0.030469
0.216406 0.375781 0.030469
0.242969 0.375781 0.030469
0.269531 0.375781 0.030469
0.296094 0.375781 0.030469
0.322656 0.375781 0.030469
0.349219 0.375781 0.030469
0.375781 0.375781 0.030469
0.404688 0.378125 0.032812
0.433594 0.380469 0.035156
0.462500 0.382812 0.037500
0.491406 0.385156 0.039844
0.520312 0.387500 0.042187
0.549219 0.389844 0.044531
0.578125 0.392188 0.046875
0.607031 0.394531 0.049219
0.635938 0.396875 0.051562
0.664844 0.399219 0.053906
0.693750 0.401562 0.056250
0.722656 0.403906 0.058594
0.751562 0.406250 0.060938
0.780469 0.408594 0.063281
0.809375 0.410938 0.065625
0.838281 0.413281 0.067969
0.867188 0.415625 0.070312
0.896094 0.417969 0.072656
0.925000 0.420312 0.075000
0.032812 0.404688 0.032812
0.059375 0.404688 0.032812
0.085938 0.404688 0.032812
0.112500 0.404688 0.032812
0.139062 0.404688 0.032812
0.165625 0.404688 0.032812
0.192188 0.404688 0.032812
0.218750 0.404688 0.032812
0.245312 0.404688 0.032812
0.271875 0.404688 0.032812
0.298438 0.404688 0.032812
0.325000 0.404688 0.032812
0.351562 0.404688 0.032812
0.378125 0.404688 0.032812
0.404688 0.404688 0.032812
0.433594 0.407031 0.035156
0.462500 0.409375 0.037500
0.491406 0.411719 0.039844
0.520312 0.414062 0.042187
0.549219 0.416406 0.044531
0.578125 0.418750 0.046875
0.607031 0.421094 0.049219
0.635938 0.423438 0.051562
0.664844 0.425781 0.053906
0.693750 0.428125 0.056250
0.722656 0.430469 0.058594
0.751562 0.432812 0.060938
0.780469 0.435156 0.063281
0.809375 0.437500 0.065625
0.838281 0.439844 0.067969
0.867188 0.442188 0.070312
0.896094 0.444531 0.072656
0.925000 0.446875 0.075000
0.035156 0.433594 0.035156
0.061719 0.433594 0.035156
0.088281 0.433594 0.035156
0.114844 0.433594 0.035156
0.141406 0.433594 0.035156
0.167969 0.433594 0.035156
0.194531 0.433594 0.035156
0.221094 0.433594 0.035156
0.247656 0.433594 0.035156
0.274219 0.433594 0.035156
0.300781 0.433594 0.035156
0.327344 0.433594 0.035156
0.353906 0.433594 0.035156
0.380469 0.433594 0.035156
0.407031 0.433594 0.035156
0.433594 0.433594 0.035156
0.462500 0.435938 0.037500
0.491406 0.438281 0.039844
0.520312 0.440625 0.042187
0.549219 0.442969 0.044531
0.578125 0.445312 0.046875
0.607031 0.447656 0.049219
0.635938 0.450000 0.051562
0.664844 0.452344 0.053906
0.693750 0.454688 0.056250
0.722656 0.457031 0.058594
0.751562 0.459375 0.060938
0.780469 0.461719 0.063281
0.809375 0.464062 0.065625
0.838281 0.466406 0.067969
0.867188 0.468750 0.070312
0.896094 0.471094 0.072656
0.925000 0.473438 0.075000
0.037500 0.462500 0.037500
0.064062 0.462500 0.037500
0.090625 0.462500 0.037500
0.117188 0.462500 0.037500
0.143750 0.462500 0.037500
0.170312 0.462500 0.037500
0.196875 0.462500 0.037500
0.223438 0.462500 0.037500
0.250000 0.462500 0.037500
0.276562 0.462500 0.037500
0.303125 0.462500 0.037500
0.329688 0.462500 0.037500
0.356250 0.462500 0.037500
0.382812 0.462500 0.037500
0.409375 0.462500 0.037500
0.435938 0.462500 0.037500
0.462500 0.462500 0.037500
0.491406 0.464844 0.039844
0.520312 0.467188 0.042187
0.549219 0.469531 0.044531
0.578125 0.471875 0.046875
0.607031 0.474219 0.049219
0.635938 0.476562 0.051562
0.664844 0.478906 0.053906
0.693750 0.481250 0.056250
0.722656 0.483594 0.058594
0.751562 0.485938 0.060938
0.780469 0.488281 0.063281
0.809375 0.490625 0.065625
0.838281 0.492969 0.067969
0.867188 0.495312 0.070312
0.896094 0.497656 0.072656
0.925000 0.500000 0.075000
0.039844 0.491406 0.039844
0.066406 0.491406 0.039844
0.092969 0.491406 0.039844
0.119531 0.491406 0.039844
0.146094 0.491406 0.039844
0.172656 0.491406 0.039844
0.199219 0.491406 0.039844
0.225781 0.491406 0.039844
0.252344 0.491406 0.039844
0.278906 0.491406 0.039844
0.305469 0.491406 0.039844
0.332031 0.491406 0.039844
0.358594 0.491406 0.039844
0.385156 0.491406 0.039844
0.411719 0.491406 0.039844
0.438281 0.491406 0.039844
0.464844 0.491406 0.039844
0.491406 0.491406 0.039844
0.520312 0.493750 0.042187
0.549219 0.496094 0.044531
0.578125 0.498438 0.046875
0.607031 0.500781 0.049219
0.635938 0.503125 0.051562
0.664844 0.505469 0.053906
0.693750 0.507812 0.056250
0.722656 0.510156 0.058594
0.751562 0.512500 0.060938
0.780469 0.514844 0.063281
0.809375 0.517188 0.065625
0.838281 0.519531 0.067969
0.867188 0.521875 0.070312
0.896094 0.524219 0.072656
0.925000 0.526562 0.075000
0.042187 0.520312 0.042187
0.068750 0.520312 0.042187
0.095312 0.520312 0.042187
0.121875 0.520312 0.042187
0.148438 0.520312 0.042187
0.175000 0.520312 0.042187
0.201562 0.520312 0.042187
0.228125 0.520312 0.042187
0.254688 0.520312 0.042187
0.281250 0.520312 0.042187
0.307812 0.520312 0.042187
0.334375 0.520312 0.042187
0.360938 0.520312 0.042187
0.387500 0.520312 0.042187
0.414062 0.520312 0.042187
0.440625 0.520312 0.042187
0.467188 0.520312 0.042187
0.493750 0.520312 0.042187
0.520312 0.520312 0.042187
0.549219 0.522656 0.044531
0.578125 0.525000 0.046875
0.607031 0.527344 0.049219
0.635938 0.529688 0.051562
0.664844 0.532031 0.053906
0.693750 0.534375 0.056250
0.722656 0.536719 0.058594
0.751562 0.539062 0.060938
0.780469 0.541406 0.063281
0.809375 0.543750 0.065625
0.838281 0.546094 0.067969
0.867188 0.548438 0.070312
0.896094 0.550781 0.072656
0.925000 0.553125 0.075000
0.044531 0.549219 0.044531
0.071094 0.549219 0.044531
0.097656 0.549219 0.044531
0.124219 0.549219 0.044531
0.150781 0.549219 0.044531
0.177344 0.549219 0.044531
0.203906 0.549219 0.044531
0.230469 0.549219 0.044531
0.257031 0.549219 0.044531
0.283594 0.549219 0.044531
0.310156 0.549219 0.044531
0.336719 0.549219 0.044531
0.363281 0.549219 0.044531
0.389844 0.549219 0.044531
0.416406 0.549219 0.044531
0.442969 0.549219 0.044531
0.469531 0.549219 0.044531
0.496094 0.549219 0.044531
0.522656 0.549219 0.044531
0.549219 0.549219 0.044531
0.578125 0.551562 0.046875
0.607031 0.553906 0.049219
0.635938 0.556250 0.051562
0.664844 0.558594 0.053906
0.693750 0.560938 0.056250
0.722656 0.563281 0.058594
0.751562 0.565625 0.060938
0.780469 0.567969 0.063281
0.809375 0.570312 0.065625
0.838281 0.572656 0.067969
0.867188 0.575000 0.070312
0.896094 0.577344 0.072656
0.925000 0.579688 0.075000
0.046875 0.578125 0.046875
0.073437 0.578125 0.046875
0.100000 0.578125 0.046875
0.126562 0.578125 0.046875
0.153125 0.578125 0.046875
0.179688 0.578125 0.046875
0.206250 0.578125 0.046875
0.232812 0.578125 0.046875
0.259375 0.578125 0.046875
0.285938 0.578125 0.046875
0.312500 0.578125 0.046875
0.339062 0.578125 0.046875
0.365625 0.578125 0.046875
0.392188 0.578125 0.046875
0.418750 0.578125 0.046875
0.445312 0.578125 0.046875
0.471875 0.578125 0.046875
0.498438 0.578125 0.046875
0.525000 0.578125 0.046875
0.551562 0.578125 0.046875
0.578125 0.578125 0.046875
0.607031 0.580469 0.049219
0.635938 0.582812 0.051562
0.664844 0.585156 0.053906
0.693750 0.587500 0.056250
0.722656 0.589844 0.058594
0.751562 0.592188 0.060938
0.780469 0.594531 0.063281
0.809375 0.596875 0.065625
0.838281 0.599219 0.067969
0.867188 0.601562 0.070312
0.896094 0.603906 0.072656
0.925000 0.606250 0.075000
0.049219 0.607031 0.049219
0.075781 0.607031 0.049219
0.102344 0.607031 0.049219
0.128906 0.607031 0.049219
0.155469 0.607031 0.049219
0.182031 0.607031 0.049219
0.208594 0.607031 0.049219
0.235156 0.607031 0.049219
0.261719 0.607031 0.049219
0.288281 0.607031 0.049219
0.314844 0.607031 0.049219
0.341406 0.607031 0.049219
0.367969 0.607031 0.049219
0.394531 0.607031 0.049219
0.421094 0.607031 0.049219
0.447656 0.607031 0.049219
0.474219 0.607031 0.049219
0.500781 0.607031 0.049219
0.527344 0.607031 0.049219
0.553906 0.607031 0.049219
0.580469 0.607031 0.049219
0.607031 0.607031 0.049219
0.635938 0.609375 0.051562
0.664844 0.611719 0.053906
0.693750 0.614062 0.056250
0.722656 0.616406 0.058594
0.751562 0.618750 0.060938
0.780469 0.621094 0.063281
0.809375 0.623438 0.065625
0.838281 0.625781 0.067969
0.867188 0.628125 0.070312
0.896094 0.630469 0.072656
0.925000 0.632812 0.075000
0.051562 0.635938 0.051562
0.078125 0.635938 0.051562
0.104688 0.635938 0.051562
0.131250 0.635938 0.051562
0.157812 0.635938 0.051562
0.184375 0.635938 0.051562
0.210938 0.635938 0.051562
0.237500 0.635938 0.051562
0.264062 0.635938 0.051562
0.290625 0.635938 0.051562
0.317188 0.635938 0.051562
0.343750 0.635938 0.051562
0.370312 0.635938 0.051562
0.396875 0.635938 0.051562
0.423438 0.635938 0.051562
0.450000 0.635938 0.051562
0.476562 0.635938 0.051562
0.503125 0.635938 0.051562
0.529688 0.635938 0.051562
0.556250 0.635938 0.051562
0.582812 0.635938 0.051562
0.609375 0.635938 0.051562
0.635938 0.635938 0.051562
0.664844 0.638281 0.053906
0.693750 0.640625 0.056250
0.722656 0.642969 0.058594
0.751562 0.645312 0.060938
0.780469 0.647656 0.063281
0.809375 0.650000 0.065625
0.838281 0.652344 0.067969
0.867188 0.654688 0.070312
0.896094 0.657031 0.072656
0.925000 0.659375 0.075000
0.053906 0.664844 0.053906
0.080469 0.664844 0.053906
0.107031 0.664844 0.053906
0.133594 0.664844 0.053906
0.160156 0.664844 0.053906
0.186719 0.664844 0.053906
0.213281 0.664844 0.053906
0.239844 0.664844 0.053906
0.266406 0.664844 0.053906
0.292969 0.664844 0.053906
0.319531 0.664844 0.053906
0.346094 0.664844 0.053906
0.372656 0.664844 0.053906
0.399219 0.664844 0.053906
0.425781 0.664844 0.053906
0.452344 0.664844 0.053906
0.478906 0.664844 0.053906
0.505469 0.664844 0.053906
0.532031 0.664844 0.053906
0.558594 0.664844 0.053906
0.585156 0.664844 0.053906
0.611719 0.664844 0.053906
0.638281 0.664844 0.053906
0.664844 0.664844 0.053906
0.693750 0.667188 0.056250
0.722656 0.669531 0.058594
0.751562 0.671875 0.060938
0.780469 0.674219 0.063281
0.809375 0.676562 0.065625
0.838281 0.678906 0.067969
0.867188 0.681250 0.070312
0.896094 0.683594 0.072656
0.925000 0.685938 0.075000
0.056250 0.693750 0.056250
0.082812 0.693750 0.056250
0.109375 0.693750 0.056250
0.135938 0.693750 0.056250
0.162500 0.693750 0.056250
0.189062 0.693750 0.056250
0.215625 0.693750 0.056250
0.242187 0.693750 0.056250
0.268750 0.693750 0.056250
0.295312 0.693750 0.056250
0.321875 0.693750 0.056250
0.348438 0.693750 0.056250
0.375000 0.693750 0.056250
0.401562 0.693750 0.056250
0.428125 0.693750 0.056250
0.454688 0.693750 0.056250
0.481250 0.693750 0.056250
0.507812 0.693750 0.056250
0.534375 0.693750 0.056250
0.560938 0.693750 0.056250
0.587500 0.693750 0.056250
0.614062 0.693750 0.056250
0.640625 0.693750 0.056250
0.667188 0.693750 0.056250
0.693750 0.693750 0.056250
0.722656 0.696094 0.058594
0.751562 0.698438 0.060938
0.780469 0.700781 0.063281
0.809375 0.703125 0.065625
0.838281 0.705469 0.067969
0.867188 0.707812 0.070312
0.896094 0.710156 0.072656
0.925000 0.712500 0.075000
0.058594 0.722656 0.058594
0.085156 0.722656 0.058594
0.111719 0.722656 0.058594
0.138281 0.722656 0.058594
0.164844 0.722656 0.058594
0.191406 0.722656 0.058594
0.217969 0.722656 0.058594
0.244531 0.722656 0.058594
0.271094 0.722656 0.058594
0.297656 0.722656 0.058594
0.324219 0.722656 0.058594
0.350781 0.722656 0.058594
0.377344 0.722656 0.058594
0.403906 0.722656 0.058594
0.430469 0.722656 0.058594
0.457031 0.722656 0.058594
0.483594 0.722656 0.058594
0.510156 0.722656 0.058594
0.536719 0.722656 0.058594
0.563281 0.722656 0.058594
0.589844 0.722656 0.058594
0.616406 0.722656 0.058594
0.642969 0.722656 0.058594
0.669531 0.722656 0.058594
0.696094 0.722656 0.058594
0.722656 0.722656 0.058594
0.751562 0.725000 0.060938
0.780469 0.727344 0.063281
0.809375 0.729688 0.065625
0.838281 0.732031 0.067969
0.867188 0.734375 0.070312
0.896094 0.736719 0.072656
0.925000 0.739062 0.075000
0.060938 0.751562 0.060938
0.087500 0.751562 0.060938
0.114062 0.751562 0.060938
0.140625 0.751562 0.060938
0.167188 0.751562 0.060938
0.193750 0.751562 0.060938
0.220312 0.751562 0.060938
0.246875 0.751562 0.060938
0.273437 0.751562 0.060938
0.300000 0.751562 0.060938
0.326562 0.751562 0.060938
0.353125 0.751562 0.060938
0.379688 0.751562 0.060938
0.406250 0.751562 0.060938
0.432812 0.751562 0.060938
0.459375 0.751562 0.060938
0.485938 0.751562 0.060938
0.512500 0.751562 0.060938
0.539062 0.751562 0.060938
0.565625 0.751562 0.060938
0.592188 0.751562 0.060938
0.618750 0.751562 0.060938
0.645312 0.751562 0.060938
0.671875 0.751562 0.060938
0.698438 0.751562 0.060938
