correction_luts/sat_boost_50.cube
# Global saturation increase for more vibrancy
# Strength: 0.5
# Color model: linear-light tone (v2)
TITLE "Saturation Boost - +15%"
LUT_3D_SIZE 9
0.000000 0.000000 0.000000
0.125000 0.000000 0.000000
0.250000 0.000000 0.000000
0.375000 0.000000 0.000000
0.500000 0.000000 0.000000
0.625000 0.000000 0.000000
0.750000 0.000000 0.000000
0.875000 0.000000 0.000000
1.000000 0.000000 0.000000
0.000000 0.125000 0.000000
0.125000 0.125000 0.000000
0.250000 0.125000 0.000000
0.375000 0.125000 0.000000
0.500000 0.125000 0.000000
0.625000 0.125000 0.000000
0.750000 0.125000 0.000000
0.875000 0.125000 0.000000
1.000000 0.125000 0.000000
0.000000 0.250000 0.000000
0.125000 0.250000 0.000000
0.250000 0.250000 0.000000
0.375000 0.250000 0.000000
0.500000 0.250000 0.000000
0.625000 0.250000 0.000000
0.750000 0.250000 0.000000
0.875000 0.250000 0.000000
1.000000 0.250000 0.000000
0.000000 0.375000 0.000000
0.125000 0.375000 0.000000
0.250000 0.375000 0.000000
0.375000 0.375000 0.000000
0.500000 0.375000 0.000000
0.625000 0.375000 0.000000
0.750000 0.375000 0.000000
0.875000 0.375000 0.000000
1.000000 0.375000 0.000000
0.000000 0.500000 0.000000
0.125000 0.500000 0.000000
0.250000 0.500000 0.000000
0.375000 0.500000 0.000000
0.500000 0.500000 0.000000
0.625000 0.500000 0.000000
0.750000 0.500000 0.000000
0.875000 0.500000 0.000000
1.000000 0.500000 0.000000
0.000000 0.625000 0.000000
0.125000 0.625000 0.000000
0.250000 0.625000 0.000000
0.375000 0.625000 0.000000
0.500000 0.625000 0.000000
0.625000 0.625000 0.000000
0.750000 0.625000 0.000000
0.875000 0.625000 0.000000
1.000000 0.625000 0.000000
0.000000 0.750000 0.000000
0.125000 0.750000 0.000000
0.250000 0.750000 0.000000
0.375000 0.750000 0.000000
0.500000 0.750000 0.000000
0.625000 0.750000 0.000000
0.750000 0.750000 0.000000
0.875000 0.750000 0.000000
1.000000 0.750000 0.000000
0.000000 0.875000 0.000000
0.125000 0.875000 0.000000
0.250000 0.875000 0.000000
0.375000 0.875000 0.000000
0.500000 0.875000 0.000000
0.625000 0.875000 0.000000
0.750000 0.875000 0.000000
0.875000 0.875000 0.000000
1.000000 0.875000 0.000000
0.000000 1.000000 0.000000
0.125000 1.000000 0.000000
0.250000 1.000000 0.000000
0.375000 1.000000 0.000000
0.500000 1.000000 0.000000
0.625000 1.000000 0.000000
0.750000 1.000000 0.000000
0.875000 1.000000 0.000000
1.000000 1.000000 0.000000
0.000000 0.000000 0.125000
0.125000 0.000000 0.125000
0.250000 0.000000 0.125000
0.375000 0.000000 0.125000
0.500000 0.000000 0.125000
0.625000 0.000000 0.125000
0.750000 0.000000 0.125000
0.875000 0.000000 0.125000
1.000000 0.000000 0.125000
0.000000 0.125000 0.125000
0.125000 0.125000 0.125000
0.254688 0.120312 0.120312
0.384375 0.115625 0.115625
0.514062 0.110938 0.110938
0.643750 0.106250 0.106250
0.773438 0.101562 0.101562
0.903125 0.096875 0.096875
1.000000 0.125000 0.125000
0.000000 0.250000 0.125000
0.120312 0.254688 0.120312
0.254688 0.254688 0.120312
0.384375 0.250000 0.115625
0.514062 0.245312 0.110938
0.643750 0.240625 0.106250
0.773438 0.235938 0.101562
0.903125 0.231250 0.096875
1.000000 0.250000 0.125000
0.000000 0.375000 0.125000
0.115625 0.384375 0.115625
0.250000 0.384375 0.115625
0.384375 0.384375 0.115625
0.514062 0.379688 0.110938
0.643750 0.375000 0.106250
0.773438 0.370312 0.101562
0.903125 0.365625 0.096875
1.000000 0.375000 0.125000
0.000000 0.500000 0.125000
0.110938 0.514062 0.110938
0.245312 0.514062 0.110938
0.379688 0.514062 0.110938
0.514062 0.514062 0.110938
0.643750 0.509375 0.106250
0.773438 0.504688 0.101562
0.903125 0.500000 0.096875
1.000000 0.500000 0.125000
0.000000 0.625000 0.125000
0.106250 0.643750 0.106250
0.240625 0.643750 0.106250
0.375000 0.643750 0.106250
0.509375 0.643750 0.106250
0.643750 0.643750 0.106250
0.773438 0.639062 0.101562
0.903125 0.634375 0.096875
1.000000 0.625000 0.125000
0.000000 0.750000 0.125000
0.101562 0.773438 0.101562
0.235938 0.773438 0.101562
0.370312 0.773438 0.101562
0.504688 0.773438 0.101562
0.639062 0.773438 0.101562
0.773438 0.773438 0.101562
0.903125 0.768750 0.096875
1.000000 0.750000 0.125000
0.000000 0.875000 0.125000
0.096875 0.903125 0.096875
0.231250 0.903125 0.096875
0.365625 0.903125 0.096875
0.500000 0.903125 0.096875
0.634375 0.903125 0.096875
0.768750 0.903125 0.096875
0.903125 0.903125 0.096875
1.000000 0.875000 0.125000
0.000000 1.000000 0.125000
0.125000 1.000000 0.125000
0.250000 1.000000 0.125000
0.375000 1.000000 0.125000
0.500000 1.000000 0.125000
0.625000 1.000000 0.125000
0.750000 1.000000 0.125000
0.875000 1.000000 0.125000
1.000000 1.000000 0.125000
0.000000 0.000000 0.250000
0.125000 0.000000 0.250000
0.250000 0.000000 0.250000
0.375000 0.000000 0.250000
0.500000 0.000000 0.250000
0.625000 0.000000 0.250000
0.750000 0.000000 0.250000
0.875000 0.000000 0.250000
1.000000 0.000000 0.250000
0.000000 0.125000 0.250000
0.120312 0.120312 0.254688
0.254688 0.120312 0.254688
0.384375 0.115625 0.250000
0.514062 0.110938 0.245312
0.643750 0.106250 0.240625
0.773438 0.101562 0.235938
0.903125 0.096875 0.231250
1.000000 0.125000 0.250000
0.000000 0.250000 0.250000
0.120312 0.254688 0.254688
0.250000 0.250000 0.250000
0.379688 0.245312 0.245312
0.509375 0.240625 0.240625
0.639062 0.235938 0.235938
0.768750 0.231250 0.231250
0.898438 0.226562 0.226562
1.000000 0.250000 0.250000
0.000000 0.375000 0.250000
0.115625 0.384375 0.250000
0.245312 0.379688 0.245312
0.379688 0.379688 0.245312
0.509375 0.375000 0.240625
0.639062 0.370312 0.235938
0.768750 0.365625 0.231250
0.898438 0.360938 0.226562
1.000000 0.375000 0.250000
0.000000 0.500000 0.250000
0.110938 0.514062 0.245312
0.240625 0.509375 0.240625
0.375000 0.509375 0.240625
0.509375 0.509375 0.240625
0.639062 0.504688 0.235938
0.768750 0.500000 0.231250
0.898438 0.495312 0.226562
1.000000 0.500000 0.250000
0.000000 0.625000 0.250000
0.106250 0.643750 0.240625
0.235938 0.639062 0.235938
0.370312 0.639062 0.235938
0.504688 0.639062 0.235938
0.639062 0.639062 0.235938
0.768750 0.634375 0.231250
0.898438 0.629688 0.226562
1.000000 0.625000 0.250000
0.000000 0.750000 0.250000
0.101562 0.773438 0.235938
0.231250 0.768750 0.231250
0.365625 0.768750 0.231250
0.500000 0.768750 0.231250
0.634375 0.768750 0.231250
0.768750 0.768750 0.231250
0.898438 0.764062 0.226562
1.000000 0.750000 0.250000
0.000000 0.875000 0.250000
0.096875 0.903125 0.231250
0.226562 0.898438 0.226562
0.360938 0.898438 0.226562
0.495312 0.898438 0.226562
0.629688 0.898438 0.226562
0.764062 0.898438 0.226562
0.898438 0.898438 0.226562
1.000000 0.875000 0.250000
0.000000 1.000000 0.250000
0.125000 1.000000 0.250000
0.250000 1.000000 0.250000
0.375000 1.000000 0.250000
0.500000 1.000000 0.250000
0.625000 1.000000 0.250000
0.750000 1.000000 0.250000
0.875000 1.000000 0.250000
1.000000 1.000000 0.250000
0.000000 0.000000 0.375000
0.125000 0.000000 0.375000
0.250000 0.000000 0.375000
0.375000 0.000000 0.375000
0.500000 0.000000 0.375000
0.625000 0.000000 0.375000
0.750000 0.000000 0.375000
0.875000 0.000000 0.375000
1.000000 0.000000 0.375000
0.000000 0.125000 0.375000
0.115625 0.115625 0.384375
0.250000 0.115625 0.384375
0.384375 0.115625 0.384375
0.514062 0.110938 0.379688
0.643750 0.106250 0.375000
0.773438 0.101562 0.370312
0.903125 0.096875 0.365625
1.000000 0.125000 0.375000
0.000000 0.250000 0.375000
0.115625 0.250000 0.384375
0.245312 0.245312 0.379688
0.379688 0.245312 0.379688
0.509375 0.240625 0.375000
0.639062 0.235938 0.370312
0.768750 0.231250 0.365625
0.898438 0.226562 0.360938
1.000000 0.250000 0.375000
0.000000 0.375000 0.375000
0.115625 0.384375 0.384375
0.245312 0.379688 0.379688
0.375000 0.375000 0.375000
0.504688 0.370312 0.370312
0.634375 0.365625 0.365625
0.764062 0.360938 0.360938
0.893750 0.356250 0.356250
1.000000 0.375000 0.375000
0.000000 0.500000 0.375000
0.110938 0.514062 0.379688
0.240625 0.509375 0.375000
0.370312 0.504688 0.370312
0.504688 0.504688 0.370312
0.634375 0.500000 0.365625
0.764062 0.495312 0.360938
0.893750 0.490625 0.356250
1.000000 0.500000 0.375000
0.000000 0.625000 0.375000
0.106250 0.643750 0.375000
0.235938 0.639062 0.370312
0.365625 0.634375 0.365625
0.500000 0.634375 0.365625
0.634375 0.634375 0.365625
0.764062 0.629688 0.360938
0.893750 0.625000 0.356250
1.000000 0.625000 0.375000
0.000000 0.750000 0.375000
0.101562 0.773438 0.370312
0.231250 0.768750 0.365625
0.360938 0.764062 0.360938
0.495312 0.764062 0.360938
0.629688 0.764062 0.360938
0.764062 0.764062 0.360938
0.893750 0.759375 0.356250
1.000000 0.750000 0.375000
0.000000 0.875000 0.375000
0.096875 0.903125 0.365625
0.226562 0.898438 0.360938
0.356250 0.893750 0.356250
0.490625 0.893750 0.356250
0.625000 0.893750 0.356250
0.759375 0.893750 0.356250
0.893750 0.893750 0.356250
1.000000 0.875000 0.375000
0.000000 1.000000 0.375000
0.125000 1.000000 0.375000
0.250000 1.000000 0.375000
0.375000 1.000000 0.375000
0.500000 1.000000 0.375000
0.625000 1.000000 0.375000
0.750000 1.000000 0.375000
0.875000 1.000000 0.375000
1.000000 1.000000 0.375000
0.000000 0.000000 0.500000
0.125000 0.000000 0.500000
0.250000 0.000000 0.500000
0.375000 0.000000 0.500000
0.500000 0.000000 0.500000
0.625000 0.000000 0.500000
0.750000 0.000000 0.500000
0.875000 0.000000 0.500000
1.000000 0.000000 0.500000
0.000000 0.125000 0.500000
0.110938 0.110938 0.514062
0.245312 0.110938 0.514062
0.379688 0.110938 0.514062
0.514062 0.110938 0.514062
0.643750 0.106250 0.509375
0.773438 0.101562 0.504688
0.903125 0.096875 0.500000
1.000000 0.125000 0.500000
0.000000 0.250000 0.500000
0.110938 0.245312 0.514062
0.240625 0.240625 0.509375
0.375000 0.240625 0.509375
0.509375 0.240625 0.509375
0.639062 0.235938 0.504688
0.768750 0.231250 0.500000
0.898438 0.226562 0.495312
1.000000 0.250000 0.500000
0.000000 0.375000 0.500000
0.110938 0.379688 0.514062
0.240625 0.375000 0.509375
0.370312 0.370312 0.504688
0.504688 0.370312 0.504688
0.634375 0.365625 0.500000
0.764062 0.360938 0.495312
0.893750 0.356250 0.490625
1.000000 0.375000 0.500000
0.000000 0.500000 0.500000
0.110938 0.514062 0.514062
0.240625 0.509375 0.509375
0.370312 0.504688 0.504688
0.500000 0.500000 0.500000
0.629688 0.495312 0.495312
0.759375 0.490625 0.490625
0.889062 0.485938 0.485938
1.000000 0.500000 0.500000
0.000000 0.625000 0.500000
0.106250 0.643750 0.509375
0.235938 0.639062 0.504688
0.365625 0.634375 0.500000
0.495312 0.629688 0.495312
0.629688 0.629688 0.495312
0.759375 0.625000 0.490625
0.889062 0.620312 0.485938
1.000000 0.625000 0.500000
0.000000 0.750000 0.500000
0.101562 0.773438 0.504688
0.231250 0.768750 0.500000
0.360938 0.764062 0.495312
0.490625 0.759375 0.490625
0.625000 0.759375 0.490625
0.759375 0.759375 0.490625
0.889062 0.754688 0.485938
1.000000 0.750000 0.500000
0.000000 0.875000 0.500000
0.096875 0.903125 0.500000
0.226562 0.898438 0.495312
0.356250 0.893750 0.490625
0.485938 0.889062 0.485938
0.620312 0.889062 0.485938
0.754688 0.889062 0.485938
0.889062 0.889062 0.485938
1.000000 0.875000 0.500000
0.000000 1.000000 0.500000
0.125000 1.000000 0.500000
0.250000 1.000000 0.500000
0.375000 1.000000 0.500000
0.500000 1.000000 0.500000
0.625000 1.000000 0.500000
0.750000 1.000000 0.500000
0.875000 1.000000 0.500000
1.000000 1.000000 0.500000
0.000000 0.000000 0.625000
0.125000 0.000000 0.625000
0.250000 0.000000 0.625000
0.375000 0.000000 0.625000
0.500000 0.000000 0.625000
0.625000 0.000000 0.625000
0.750000 0.000000 0.625000
0.875000 0.000000 0.625000
1.000000 0.000000 0.625000
0.000000 0.125000 0.625000
0.106250 0.106250 0.643750
0.240625 0.106250 0.643750
0.375000 0.106250 0.643750
0.509375 0.106250 0.643750
0.643750 0.106250 0.643750
0.773438 0.101562 0.639062
0.903125 0.096875 0.634375
1.000000 0.125000 0.625000
0.000000 0.250000 0.625000
0.106250 0.240625 0.643750
0.235938 0.235938 0.639062
0.370312 0.235938 0.639062
0.504688 0.235938 0.639062
0.639062 0.235938 0.639062
0.768750 0.231250 0.634375
0.898438 0.226562 0.629688
1.000000 0.250000 0.625000
0.000000 0.375000 0.625000
0.106250 0.375000 0.643750
0.235938 0.370312 0.639062
0.365625 0.365625 0.634375
0.500000 0.365625 0.634375
0.634375 0.365625 0.634375
0.764062 0.360938 0.629688
0.893750 0.356250 0.625000
1.000000 0.375000 0.625000
0.000000 0.500000 0.625000
0.106250 0.509375 0.643750
0.235938 0.504688 0.639062
0.365625 0.500000 0.634375
0.495312 0.495312 0.629688
0.629688 0.495312 0.629688
0.759375 0.490625 0.625000
0.889062 0.485938 0.620312
1.000000 0.500000 0.625000
0.000000 0.625000 0.625000
0.106250 0.643750 0.643750
0.235938 0.639062 0.639062
0.365625 0.634375 0.634375
0.495312 0.629688 0.629688
0.625000 0.625000 0.625000
0.754688 0.620312 0.620312
0.884375 0.615625 0.615625
1.000000 0.625000 0.625000
0.000000 0.750000 0.625000
0.101562 0.773438 0.639062
0.231250 0.768750 0.634375
0.360938 0.764062 0.629688
0.490625 0.759375 0.625000
0.620312 0.754688 0.620312
0.754688 0.754688 0.620312
0.884375 0.750000 0.615625
1.000000 0.750000 0.625000
0.000000 0.875000 0.625000
0.096875 0.903125 0.634375
0.226562 0.898438 0.629688
0.356250 0.893750 0.625000
0.485938 0.889062 0.620312
0.615625 0.884375 0.615625
0.750000 0.884375 0.615625
0.884375 0.884375 0.615625
1.000000 0.875000 0.625000
0.000000 1.000000 0.625000
0.125000 1.000000 0.625000
0.250000 1.000000 0.625000
0.375000 1.000000 0.625000
0.500000 1.000000 0.625000
0.625000 1.000000 0.625000
0.750000 1.000000 0.625000
0.875000 1.000000 0.625000
1.000000 1.000000 0.625000
0.000000 0.000000 0.750000
0.125000 0.000000 0.750000
0.250000 0.000000 0.750000
0.375000 0.000000 0.750000
0.500000 0.000000 0.750000
0.625000 0.000000 0.750000
0.750000 0.000000 0.750000
0.875000 0.000000 0.750000
1.000000 0.000000 0.750000
0.000000 0.125000 0.750000
0.101562 0.101562 0.773438
0.235937 0.101562 0.773438
0.370312 0.101562 0.773438
0.504688 0.101562 0.773438
0.639062 0.101562 0.773438
0.773438 0.101562 0.773438
0.903125 0.096875 0.768750
1.000000 0.125000 0.750000
0.000000 0.250000 0.750000
0.101562 0.235938 0.773438
0.231250 0.231250 0.768750
0.365625 0.231250 0.768750
0.500000 0.231250 0.768750
0.634375 0.231250 0.768750
0.768750 0.231250 0.768750
0.898438 0.226562 0.764062
1.000000 0.250000 0.750000
0.000000 0.375000 0.750000
0.101562 0.370312 0.773438
0.231250 0.365625 0.768750
0.360938 0.360938 0.764062
0.495312 0.360938 0.764062
0.629688 0.360938 0.764062
0.764062 0.360938 0.764062
0.893750 0.356250 0.759375
1.000000 0.375000 0.750000
0.000000 0.500000 0.750000
0.101562 0.504688 0.773438
0.231250 0.500000 0.768750
0.360938 0.495312 0.764062
0.490625 0.490625 0.759375
0.625000 0.490625 0.759375
0.759375 0.490625 0.759375
0.889062 0.485938 0.754688
1.000000 0.500000 0.750000
0.000000 0.625000 0.750000
0.101562 0.639062 0.773438
0.231250 0.634375 0.768750
0.360938 0.629688 0.764062
0.490625 0.625000 0.759375
0.620312 0.620312 0.754688
0.754688 0.620312 0.754688
0.884375 0.615625 0.750000
1.000000 0.625000 0.750000
0.000000 0.750000 0.750000
0.101562 0.773438 0.773438
0.231250 0.768750 0.768750
0.360938 0.764062 0.764062
0.490625 0.759375 0.759375
0.620312 0.754688 0.754688
0.750000 0.750000 0.750000
0.879688 0.745312 0.745312
1.000000 0.750000 0.750000
0.000000 0.875000 0.750000
0.096875 0.903125 0.768750
0.226562 0.898438 0.764062
0.356250 0.893750 0.759375
0.485938 0.889062 0.754688
0.615625 0.884375 0.750000
0.745312 0.879688 0.745312
0.879688 0.879688 0.745312
1.000000 0.875000 0.750000
0.000000 1.000000 0.750000
0.125000 1.000000 0.750000
0.250000 1.000000 0.750000
0.375000 1.000000 0.750000
0.500000 1.000000 0.750000
0.625000 1.000000 0.750000
0.750000 1.000000 0.750000
0.875000 1.000000 0.750000
1.000000 1.000000 0.750000
0.000000 0.000000 0.875000
0.125000 0.000000 0.875000
0.250000 0.000000 0.875000
0.375000 0.000000 0.875000
0.500000 0.000000 0.875000
0.625000 0.000000 0.875000
0.750000 0.000000 0.875000
0.875000 0.000000 0.875000
1.000000 0.000000 0.875000
0.000000 0.125000 0.875000
0.096875 0.096875 0.903125
0.231250 0.096875 0.903125
0.365625 0.096875 0.903125
0.500000 0.096875 0.903125
0.634375 0.096875 0.903125
0.768750 0.096875 0.903125
0.903125 0.096875 0.903125
1.000000 0.125000 0.875000
0.000000 0.250000 0.875000
0.096875 0.231250 0.903125
0.226562 0.226562 0.898438
0.360937 0.226562 0.898438
0.495312 0.226562 0.898438
0.629688 0.226562 0.898438
0.764062 0.226562 0.898438
0.898438 0.226562 0.898438
1.000000 0.250000 0.875000
0.000000 0.375000 0.875000
0.096875 0.365625 0.903125
0.226562 0.360938 0.898438
0.356250 0.356250 0.893750
0.490625 0.356250 0.893750
0.625000 0.356250 0.893750
0.759375 0.356250 0.893750
0.893750 0.356250 0.893750
1.000000 0.375000 0.875000
0.000000 0.500000 0.875000
0.096875 0.500000 0.903125
0.226562 0.495312 0.898438
0.356250 0.490625 0.893750
0.485938 0.485938 0.889062
0.620312 0.485938 0.889062
0.754688 0.485938 0.889062
0.889062 0.485938 0.889062
1.000000 0.500000 0.875000
0.000000 0.625000 0.875000
0.096875 0.634375 0.903125
0.226562 0.629688 0.898438
0.356250 0.625000 0.893750
0.485938 0.620312 0.889062
0.615625 0.615625 0.884375
0.750000 0.615625 0.884375
0.884375 0.615625 0.884375
1.000000 0.625000 0.875000
0.000000 0.750000 0.875000
0.096875 0.768750 0.903125
0.226562 0.764062 0.898438
0.356250 0.759375 0.893750
0.485938 0.754688 0.889062
0.615625 0.750000 0.884375
0.745312 0.745312 0.879688
0.879688 0.745312 0.879688
1.000000 0.750000 0.875000
0.000000 0.875000 0.875000
0.096875 0.903125 0.903125
0.226562 0.898438 0.898438
0.356250 0.893750 0.893750
0.485938 0.889062 0.889062
0.615625 0.884375 0.884375
0.745312 0.879688 0.879688
0.875000 0.875000 0.875000
1.000000 0.875000 0.875000
0.000000 1.000000 0.875000
0.125000 1.000000 0.875000
0.250000 1.000000 0.875000
0.375000 1.000000 0.875000
0.500000 1.000000 0.875000
0.625000 1.000000 0.875000
0.750000 1.000000 0.875000
0.875000 1.000000 0.875000
1.000000 1.000000 0.875000
0.000000 0.000000 1.000000
0.125000 0.000000 1.000000
0.250000 0.000000 1.000000
0.375000 0.000000 1.000000
0.500000 0.000000 1.000000
0.625000 0.000000 1.000000
0.750000 0.000000 1.000000
0.875000 0.000000 1.000000
1.000000 0.000000 1.000000
0.000000 0.125000 1.000000
0.125000 0.125000 1.000000
0.250000 0.125000 1.000000
0.375000 0.125000 1.000000
0.500000 0.125000 1.000000
0.625000 0.125000 1.000000
0.750000 0.125000 1.000000
0.875000 0.125000 1.000000
1.000000 0.125000 1.000000
0.000000 0.250000 1.000000
0.125000 0.250000 1.000000
0.250000 0.250000 1.000000
0.375000 0.250000 1.000000
0.500000 0.250000 1.000000
0.625000 0.250000 1.000000
0.750000 0.250000 1.000000
0.875000 0.250000 1.000000
1.000000 0.250000 1.000000
0.000000 0.375000 1.000000
0.125000 0.375000 1.000000
0.250000 0.375000 1.000000
0.375000 0.375000 1.000000
0.500000 0.375000 1.000000
0.625000 0.375000 1.000000
0.750000 0.375000 1.000000
0.875000 0.375000 1.000000
1.000000 0.375000 1.000000
0.000000 0.500000 1.000000
0.125000 0.500000 1.000000
0.250000 0.500000 1.000000
0.375000 0.500000 1.000000
0.500000 0.500000 1.000000
0.625000 0.500000 1.000000
0.750000 0.500000 1.000000
0.875000 0.500000 1.000000
1.000000 0.500000 1.000000
0.000000 0.625000 1.000000
0.125000 0.625000 1.000000
0.250000 0.625000 1.000000
0.375000 0.625000 1.000000
0.500000 0.625000 1.000000
0.625000 0.625000 1.000000
0.750000 0.625000 1.000000
0.875000 0.625000 1.000000
1.000000 0.625000 1.000000
0.000000 0.750000 1.000000
0.125000 0.750000 1.000000
0.250000 0.750000 1.000000
0.375000 0.750000 1.000000
0.500000 0.750000 1.000000
0.625000 0.750000 1.000000
0.750000 0.750000 1.000000
0.875000 0.750000 1.000000
1.000000 0.750000 1.000000
0.000000 0.875000 1.000000
0.125000 0.875000 1.000000
0.250000 0.875000 1.000000
0.375000 0.875000 1.000000
0.500000 0.875000 1.000000
0.625000 0.875000 1.000000
0.750000 0.875000 1.000000
0.875000 0.875000 1.000000
1.000000 0.875000 1.000000
0.000000 1.000000 1.000000
0.125000 1.000000 1.000000
0.250000 1.000000 1.000000
0.375000 1.000000 1.000000
0.500000 1.000000 1.000000
0.625000 1.000000 1.000000
0.750000 1.000000 1.000000
0.875000 1.000000 1.000000
1.000000 1.000000 1.000000
