correction_luts/sgamut3_to_cine.cube
# Compensates for using S-Gamut3.Cine-calibrated LUTs on S-Gamut3 footage
# Pulls back saturation ~12% and subtle hue correction
# Apply BEFORE or AFTER conversion LUT depending on workflow
# Strength: 1.0
# Color model: linear-light tone (v2)
TITLE "S-Gamut3 to S-Gamut3.Cine Compensation"
LUT_3D_SIZE 5
0.000000 0.000000 0.000000
0.235000 0.015000 0.015000
0.470000 0.030000 0.030000
0.705000 0.045000 0.045000
0.940000 0.060000 0.060000
0.015000 0.235000 0.015000
0.235000 0.235000 0.015000
0.470000 0.250000 0.030000
0.705000 0.265000 0.045000
0.940000 0.280000 0.060000
0.030000 0.470000 0.030000
0.250000 0.470000 0.030000
0.470000 0.470000 0.030000
0.705000 0.485000 0.045000
0.940000 0.500000 0.060000
0.045000 0.705000 0.045000
0.265000 0.705000 0.045000
0.485000 0.705000 0.045000
0.705000 0.705000 0.045000
0.940000 0.720000 0.060000
0.060000 0.940000 0.060000
0.280000 0.940000 0.060000
0.500000 0.940000 0.060000
0.720000 0.940000 0.060000
0.940000 0.940000 0.060000
0.015000 0.015000 0.235000
0.235000 0.015000 0.235000
0.470000 0.030000 0.250000
0.705000 0.045000 0.265000
0.940000 0.060000 0.280000
0.015000 0.235000 0.235000
0.250000 0.250000 0.250000
0.485000 0.265000 0.265000
0.720000 0.280000 0.280000
0.955000 0.295000 0.295000
0.030000 0.470000 0.250000
0.265000 0.485000 0.265000
0.485000 0.485000 0.265000
0.720000 0.500000 0.280000
0.955000 0.515000 0.295000
0.045000 0.705000 0.265000
0.280000 0.720000 0.280000
0.500000 0.720000 0.280000
0.720000 0.720000 0.280000
0.955000 0.735000 0.295000
0.060000 0.940000 0.280000
0.295000 0.955000 0.295000
0.515000 0.955000 0.295000
0.735000 0.955000 0.295000
0.955000 0.955000 0.295000
0.030000 0.030000 0.470000
0.250000 0.030000 0.470000
0.470000 0.030000 0.470000
0.705000 0.045000 0.485000
0.940000 0.060000 0.500000
0.030000 0.250000 0.470000
0.265000 0.265000 0.485000
0.485000 0.265000 0.485000
0.720000 0.280000 0.500000
0.955000 0.295000 0.515000
0.030000 0.470000 0.470000
0.265000 0.485000 0.485000
0.500000 0.500000 0.500000
0.735000 0.515000 0.515000
0.970000 0.530000 0.530000
0.045000 0.705000 0.485000
0.280000 0.720000 0.500000
0.515000 0.735000 0.515000
0.735000 0.735000 0.515000
0.970000 0.750000 0.530000
0.060000 0.940000 0.500000
0.295000 0.955000 0.515000
0.530000 0.970000 0.530000
0.750000 0.970000 0.530000
0.970000 0.970000 0.530000
0.045000 0.045000 0.705000
0.265000 0.045000 0.705000
0.485000 0.045000 0.705000
0.705000 0.045000 0.705000
0.940000 0.060000 0.720000
0.045000 0.265000 0.705000
0.280000 0.280000 0.720000
0.500000 0.280000 0.720000
0.720000 0.280000 0.720000
0.955000 0.295000 0.735000
0.045000 0.485000 0.705000
0.280000 0.500000 0.720000
0.515000 0.515000 0.735000
0.735000 0.515000 0.735000
0.970000 0.530000 0.750000
0.045000 0.705000 0.705000
0.280000 0.720000 0.720000
0.515000 0.735000 0.735000
0.750000 0.750000 0.750000
0.985000 0.765000 0.765000
0.060000 0.940000 0.720000
0.295000 0.955000 0.735000
0.530000 0.970000 0.750000
0.765000 0.985000 0.765000
0.985000 0.985000 0.765000
0.060000 0.060000 0.940000
0.280000 0.060000 0.940000
0.500000 0.060000 0.940000
0.720000 0.060000 0.940000
0.940000 0.060000 0.940000
0.060000 0.280000 0.940000
0.295000 0.295000 0.955000
0.515000 0.295000 0.955000
0.735000 0.295000 0.955000
0.955000 0.295000 0.955000
0.060000 0.500000 0.940000
0.295000 0.515000 0.955000
0.530000 0.530000 0.970000
0.750000 0.530000 0.970000
0.970000 0.530000 0.970000
0.060000 0.720000 0.940000
0.295000 0.735000 0.955000
0.530000 0.750000 0.970000
0.765000 0.765000 0.985000
0.985000 0.765000 0.985000
0.060000 0.940000 0.940000
0.295000 0.955000 0.955000
0.530000 0.970000 0.970000
0.765000 0.985000 0.985000
1.000000 1.000000 1.000000
