correction_luts/sgamut3_to_cine.cube
# Compensates for using S-Gamut3.Cine-calibrated LUTs on S-Gamut3 footage
# Pulls back saturation ~12% and subtle hue correction
# Apply BEFORE or AFTER conversion LUT depending on workflow
# Strength: 1.0
# Color model: linear-light tone (v2)
TITLE "S-Gamut3 to S-Gamut3.Cine Compensation"
LUT_3D_SIZE 9
0.000000 0.000000 0.000000
0.117500 0.007500 0.007500
0.235000 0.015000 0.015000
0.352500 0.022500 0.022500
0.470000 0.030000 0.030000
0.587500 0.037500 0.037500
0.705000 0.045000 0.045000
0.822500 0.052500 0.052500
0.940000 0.060000 0.060000
0.007500 0.117500 0.007500
0.117500 0.117500 0.007500
0.235000 0.125000 0.015000
0.352500 0.132500 0.022500
0.470000 0.140000 0.030000
0.587500 0.147500 0.037500
0.705000 0.155000 0.045000
0.822500 0.162500 0.052500
0.940000 0.170000 0.060000
0.015000 0.235000 0.015000
0.125000 0.235000 0.015000
0.235000 0.235000 0.015000
0.352500 0.242500 0.022500
0.470000 0.250000 0.030000
0.587500 0.257500 0.037500
0.705000 0.265000 0.045000
0.822500 0.272500 0.052500
0.940000 0.280000 0.060000
0.022500 0.352500 0.022500
0.132500 0.352500 0.022500
0.242500 0.352500 0.022500
0.352500 0.352500 0.022500
0.470000 0.360000 0.030000
0.587500 0.367500 0.037500
0.705000 0.375000 0.045000
0.822500 0.382500 0.052500
0.940000 0.390000 0.060000
0.030000 0.470000 0.030000
0.140000 0.470000 0.030000
0.250000 0.470000 0.030000
0.360000 0.470000 0.030000
0.470000 0.470000 0.030000
0.587500 0.477500 0.037500
0.705000 0.485000 0.045000
0.822500 0.492500 0.052500
0.940000 0.500000 0.060000
0.037500 0.587500 0.037500
0.147500 0.587500 0.037500
0.257500 0.587500 0.037500
0.367500 0.587500 0.037500
0.477500 0.587500 0.037500
0.587500 0.587500 0.037500
0.705000 0.595000 0.045000
0.822500 0.602500 0.052500
0.940000 0.610000 0.060000
0.045000 0.705000 0.045000
0.155000 0.705000 0.045000
0.265000 0.705000 0.045000
0.375000 0.705000 0.045000
0.485000 0.705000 0.045000
0.595000 0.705000 0.045000
0.705000 0.705000 0.045000
0.822500 0.712500 0.052500
0.940000 0.720000 0.060000
0.052500 0.822500 0.052500
0.162500 0.822500 0.052500
0.272500 0.822500 0.052500
0.382500 0.822500 0.052500
0.492500 0.822500 0.052500
0.602500 0.822500 0.052500
0.712500 0.822500 0.052500
0.822500 0.822500 0.052500
0.940000 0.830000 0.060000
0.060000 0.940000 0.060000
0.170000 0.940000 0.060000
0.280000 0.940000 0.060000
0.390000 0.940000 0.060000
0.500000 0.940000 0.060000
0.610000 0.940000 0.060000
0.720000 0.940000 0.060000
0.830000 0.940000 0.060000
0.940000 0.940000 0.060000
0.007500 0.007500 0.117500
0.117500 0.007500 0.117500
0.235000 0.015000 0.125000
0.352500 0.022500 0.132500
0.470000 0.030000 0.140000
0.587500 0.037500 0.147500
0.705000 0.045000 0.155000
0.822500 0.052500 0.162500
0.940000 0.060000 0.170000
0.007500 0.117500 0.117500
0.125000 0.125000 0.125000
0.242500 0.132500 0.132500
0.360000 0.140000 0.140000
0.477500 0.147500 0.147500
0.595000 0.155000 0.155000
0.712500 0.162500 0.162500
0.830000 0.170000 0.170000
0.947500 0.177500 0.177500
0.015000 0.235000 0.125000
0.132500 0.242500 0.132500
0.242500 0.242500 0.132500
0.360000 0.250000 0.140000
0.477500 0.257500 0.147500
0.595000 0.265000 0.155000
0.712500 0.272500 0.162500
0.830000 0.280000 0.170000
0.947500 0.287500 0.177500
0.022500 0.352500 0.132500
0.140000 0.360000 0.140000
0.250000 0.360000 0.140000
0.360000 0.360000 0.140000
0.477500 0.367500 0.147500
0.595000 0.375000 0.155000
0.712500 0.382500 0.162500
0.830000 0.390000 0.170000
0.947500 0.397500 0.177500
0.030000 0.470000 0.140000
0.147500 0.477500 0.147500
0.257500 0.477500 0.147500
0.367500 0.477500 0.147500
0.477500 0.477500 0.147500
0.595000 0.485000 0.155000
0.712500 0.492500 0.162500
0.830000 0.500000 0.170000
0.947500 0.507500 0.177500
0.037500 0.587500 0.147500
0.155000 0.595000 0.155000
0.265000 0.595000 0.155000
0.375000 0.595000 0.155000
0.485000 0.595000 0.155000
0.595000 0.595000 0.155000
0.712500 0.602500 0.162500
0.830000 0.610000 0.170000
0.947500 0.617500 0.177500
0.045000 0.705000 0.155000
0.162500 0.712500 0.162500
0.272500 0.712500 0.162500
0.382500 0.712500 0.162500
0.492500 0.712500 0.162500
0.602500 0.712500 0.162500
0.712500 0.712500 0.162500
0.830000 0.720000 0.170000
0.947500 0.727500 0.177500
0.052500 0.822500 0.162500
0.170000 0.830000 0.170000
0.280000 0.830000 0.170000
0.390000 0.830000 0.170000
0.500000 0.830000 0.170000
0.610000 0.830000 0.170000
0.720000 0.830000 0.170000
0.830000 0.830000 0.170000
0.947500 0.837500 0.177500
0.060000 0.940000 0.170000
0.177500 0.947500 0.177500
0.287500 0.947500 0.177500
0.397500 0.947500 0.177500
0.507500 0.947500 0.177500
0.617500 0.947500 0.177500
0.727500 0.947500 0.177500
0.837500 0.947500 0.177500
0.947500 0.947500 0.177500
0.015000 0.015000 0.235000
0.125000 0.015000 0.235000
0.235000 0.015000 0.235000
0.352500 0.022500 0.242500
0.470000 0.030000 0.250000
0.587500 0.037500 0.257500
0.705000 0.045000 0.265000
0.822500 0.052500 0.272500
0.940000 0.060000 0.280000
0.015000 0.125000 0.235000
0.132500 0.132500 0.242500
0.242500 0.132500 0.242500
0.360000 0.140000 0.250000
0.477500 0.147500 0.257500
0.595000 0.155000 0.265000
0.712500 0.162500 0.272500
0.830000 0.170000 0.280000
0.947500 0.177500 0.287500
0.015000 0.235000 0.235000
0.132500 0.242500 0.242500
0.250000 0.250000 0.250000
0.367500 0.257500 0.257500
0.485000 0.265000 0.265000
0.602500 0.272500 0.272500
0.720000 0.280000 0.280000
0.837500 0.287500 0.287500
0.955000 0.295000 0.295000
0.022500 0.352500 0.242500
0.140000 0.360000 0.250000
0.257500 0.367500 0.257500
0.367500 0.367500 0.257500
0.485000 0.375000 0.265000
0.602500 0.382500 0.272500
0.720000 0.390000 0.280000
0.837500 0.397500 0.287500
0.955000 0.405000 0.295000
0.030000 0.470000 0.250000
0.147500 0.477500 0.257500
0.265000 0.485000 0.265000
0.375000 0.485000 0.265000
0.485000 0.485000 0.265000
0.602500 0.492500 0.272500
0.720000 0.500000 0.280000
0.837500 0.507500 0.287500
0.955000 0.515000 0.295000
0.037500 0.587500 0.257500
0.155000 0.595000 0.265000
0.272500 0.602500 0.272500
0.382500 0.602500 0.272500
0.492500 0.602500 0.272500
0.602500 0.602500 0.272500
0.720000 0.610000 0.280000
0.837500 0.617500 0.287500
0.955000 0.625000 0.295000
0.045000 0.705000 0.265000
0.162500 0.712500 0.272500
0.280000 0.720000 0.280000
0.390000 0.720000 0.280000
0.500000 0.720000 0.280000
0.610000 0.720000 0.280000
0.720000 0.720000 0.280000
0.837500 0.727500 0.287500
0.955000 0.735000 0.295000
0.052500 0.822500 0.272500
0.170000 0.830000 0.280000
0.287500 0.837500 0.287500
0.397500 0.837500 0.287500
0.507500 0.837500 0.287500
0.617500 0.837500 0.287500
0.727500 0.837500 0.287500
0.837500 0.837500 0.287500
0.955000 0.845000 0.295000
0.060000 0.940000 0.280000
0.177500 0.947500 0.287500
0.295000 0.955000 0.295000
0.405000 0.955000 0.295000
0.515000 0.955000 0.295000
0.625000 0.955000 0.295000
0.735000 0.955000 0.295000
0.845000 0.955000 0.295000
0.955000 0.955000 0.295000
0.022500 0.022500 0.352500
0.132500 0.022500 0.352500
0.242500 0.022500 0.352500
0.352500 0.022500 0.352500
0.470000 0.030000 0.360000
0.587500 0.037500 0.367500
0.705000 0.045000 0.375000
0.822500 0.052500 0.382500
0.940000 0.060000 0.390000
0.022500 0.132500 0.352500
0.140000 0.140000 0.360000
0.250000 0.140000 0.360000
0.360000 0.140000 0.360000
0.477500 0.147500 0.367500
0.595000 0.155000 0.375000
0.712500 0.162500 0.382500
0.830000 0.170000 0.390000
0.947500 0.177500 0.397500
0.022500 0.242500 0.352500
0.140000 0.250000 0.360000
0.257500 0.257500 0.367500
0.367500 0.257500 0.367500
0.485000 0.265000 0.375000
0.602500 0.272500 0.382500
0.720000 0.280000 0.390000
0.837500 0.287500 0.397500
0.955000 0.295000 0.405000
0.022500 0.352500 0.352500
0.140000 0.360000 0.360000
0.257500 0.367500 0.367500
0.375000 0.375000 0.375000
0.492500 0.382500 0.382500
0.610000 0.390000 0.390000
0.727500 0.397500 0.397500
0.845000 0.405000 0.405000
0.962500 0.412500 0.412500
0.030000 0.470000 0.360000
0.147500 0.477500 0.367500
0.265000 0.485000 0.375000
0.382500 0.492500 0.382500
0.492500 0.492500 0.382500
0.610000 0.500000 0.390000
0.727500 0.507500 0.397500
0.845000 0.515000 0.405000
0.962500 0.522500 0.412500
0.037500 0.587500 0.367500
0.155000 0.595000 0.375000
0.272500 0.602500 0.382500
0.390000 0.610000 0.390000
0.500000 0.610000 0.390000
0.610000 0.610000 0.390000
0.727500 0.617500 0.397500
0.845000 0.625000 0.405000
0.962500 0.632500 0.412500
0.045000 0.705000 0.375000
0.162500 0.712500 0.382500
0.280000 0.720000 0.390000
0.397500 0.727500 0.397500
0.507500 0.727500 0.397500
0.617500 0.727500 0.397500
0.727500 0.727500 0.397500
0.845000 0.735000 0.405000
0.962500 0.742500 0.412500
0.052500 0.822500 0.382500
0.170000 0.830000 0.390000
0.287500 0.837500 0.397500
0.405000 0.845000 0.405000
0.515000 0.845000 0.405000
0.625000 0.845000 0.405000
0.735000 0.845000 0.405000
0.845000 0.845000 0.405000
0.962500 0.852500 0.412500
0.060000 0.940000 0.390000
0.177500 0.947500 0.397500
0.295000 0.955000 0.405000
0.412500 0.962500 0.412500
0.522500 0.962500 0.412500
0.632500 0.962500 0.412500
0.742500 0.962500 0.412500
0.852500 0.962500 0.412500
0.962500 0.962500 0.412500
0.030000 0.030000 0.470000
0.140000 0.030000 0.470000
0.250000 0.030000 0.470000
0.360000 0.030000 0.470000
0.470000 0.030000 0.470000
0.587500 0.037500 0.477500
0.705000 0.045000 0.485000
0.822500 0.052500 0.492500
0.940000 0.060000 0.500000
0.030000 0.140000 0.470000
0.147500 0.147500 0.477500
0.257500 0.147500 0.477500
0.367500 0.147500 0.477500
0.477500 0.147500 0.477500
0.595000 0.155000 0.485000
0.712500 0.162500 0.492500
0.830000 0.170000 0.500000
0.947500 0.177500 0.507500
0.030000 0.250000 0.470000
0.147500 0.257500 0.477500
0.265000 0.265000 0.485000
0.375000 0.265000 0.485000
0.485000 0.265000 0.485000
0.602500 0.272500 0.492500
0.720000 0.280000 0.500000
0.837500 0.287500 0.507500
0.955000 0.295000 0.515000
0.030000 0.360000 0.470000
0.147500 0.367500 0.477500
0.265000 0.375000 0.485000
0.382500 0.382500 0.492500
0.492500 0.382500 0.492500
0.610000 0.390000 0.500000
0.727500 0.397500 0.507500
0.845000 0.405000 0.515000
0.962500 0.412500 0.522500
0.030000 0.470000 0.470000
0.147500 0.477500 0.477500
0.265000 0.485000 0.485000
0.382500 0.492500 0.492500
0.500000 0.500000 0.500000
0.617500 0.507500 0.507500
0.735000 0.515000 0.515000
0.852500 0.522500 0.522500
0.970000 0.530000 0.530000
0.037500 0.587500 0.477500
0.155000 0.595000 0.485000
0.272500 0.602500 0.492500
0.390000 0.610000 0.500000
0.507500 0.617500 0.507500
0.617500 0.617500 0.507500
0.735000 0.625000 0.515000
0.852500 0.632500 0.522500
0.970000 0.640000 0.530000
0.045000 0.705000 0.485000
0.162500 0.712500 0.492500
0.280000 0.720000 0.500000
0.397500 0.727500 0.507500
0.515000 0.735000 0.515000
0.625000 0.735000 0.515000
0.735000 0.735000 0.515000
0.852500 0.742500 0.522500
0.970000 0.750000 0.530000
0.052500 0.822500 0.492500
0.170000 0.830000 0.500000
0.287500 0.837500 0.507500
0.405000 0.845000 0.515000
0.522500 0.852500 0.522500
0.632500 0.852500 0.522500
0.742500 0.852500 0.522500
0.852500 0.852500 0.522500
0.970000 0.860000 0.530000
0.060000 0.940000 0.500000
0.177500 0.947500 0.507500
0.295000 0.955000 0.515000
0.412500 0.962500 0.522500
0.530000 0.970000 0.530000
0.640000 0.970000 0.530000
0.750000 0.970000 0.530000
0.860000 0.970000 0.530000
0.970000 0.970000 0.530000
0.037500 0.037500 0.587500
0.147500 0.037500 0.587500
0.257500 0.037500 0.587500
0.367500 0.037500 0.587500
0.477500 0.037500 0.587500
0.587500 0.037500 0.587500
0.705000 0.045000 0.595000
0.822500 0.052500 0.602500
0.940000 0.060000 0.610000
0.037500 0.147500 0.587500
0.155000 0.155000 0.595000
0.265000 0.155000 0.595000
0.375000 0.155000 0.595000
0.485000 0.155000 0.595000
0.595000 0.155000 0.595000
0.712500 0.162500 0.602500
0.830000 0.170000 0.610000
0.947500 0.177500 0.617500
0.037500 0.257500 0.587500
0.155000 0.265000 0.595000
0.272500 0.272500 0.602500
0.382500 0.272500 0.602500
0.492500 0.272500 0.602500
0.602500 0.272500 0.602500
0.720000 0.280000 0.610000
0.837500 0.287500 0.617500
0.955000 0.295000 0.625000
0.037500 0.367500 0.587500
0.155000 0.375000 0.595000
0.272500 0.382500 0.602500
0.390000 0.390000 0.610000
0.500000 0.390000 0.610000
0.610000 0.390000 0.610000
0.727500 0.397500 0.617500
0.845000 0.405000 0.625000
0.962500 0.412500 0.632500
0.037500 0.477500 0.587500
0.155000 0.485000 0.595000
0.272500 0.492500 0.602500
0.390000 0.500000 0.610000
0.507500 0.507500 0.617500
0.617500 0.507500 0.617500
0.735000 0.515000 0.625000
0.852500 0.522500 0.632500
0.970000 0.530000 0.640000
0.037500 0.587500 0.587500
0.155000 0.595000 0.595000
0.272500 0.602500 0.602500
0.390000 0.610000 0.610000
0.507500 0.617500 0.617500
0.625000 0.625000 0.625000
0.742500 0.632500 0.632500
0.860000 0.640000 0.640000
0.977500 0.647500 0.647500
0.045000 0.705000 0.595000
0.162500 0.712500 0.602500
0.280000 0.720000 0.610000
0.397500 0.727500 0.617500
0.515000 0.735000 0.625000
0.632500 0.742500 0.632500
0.742500 0.742500 0.632500
0.860000 0.750000 0.640000
0.977500 0.757500 0.647500
0.052500 0.822500 0.602500
0.170000 0.830000 0.610000
0.287500 0.837500 0.617500
0.405000 0.845000 0.625000
0.522500 0.852500 0.632500
0.640000 0.860000 0.640000
0.750000 0.860000 0.640000
0.860000 0.860000 0.640000
0.977500 0.867500 0.647500
0.060000 0.940000 0.610000
0.177500 0.947500 0.617500
0.295000 0.955000 0.625000
0.412500 0.962500 0.632500
0.530000 0.970000 0.640000
0.647500 0.977500 0.647500
0.757500 0.977500 0.647500
0.867500 0.977500 0.647500
0.977500 0.977500 0.647500
0.045000 0.045000 0.705000
0.155000 0.045000 0.705000
0.265000 0.045000 0.705000
0.375000 0.045000 0.705000
0.485000 0.045000 0.705000
0.595000 0.045000 0.705000
0.705000 0.045000 0.705000
0.822500 0.052500 0.712500
0.940000 0.060000 0.720000
0.045000 0.155000 0.705000
0.162500 0.162500 0.712500
0.272500 0.162500 0.712500
0.382500 0.162500 0.712500
0.492500 0.162500 0.712500
0.602500 0.162500 0.712500
0.712500 0.162500 0.712500
0.830000 0.170000 0.720000
0.947500 0.177500 0.727500
0.045000 0.265000 0.705000
0.162500 0.272500 0.712500
0.280000 0.280000 0.720000
0.390000 0.280000 0.720000
0.500000 0.280000 0.720000
0.610000 0.280000 0.720000
0.720000 0.280000 0.720000
0.837500 0.287500 0.727500
0.955000 0.295000 0.735000
0.045000 0.375000 0.705000
0.162500 0.382500 0.712500
0.280000 0.390000 0.720000
0.397500 0.397500 0.727500
0.507500 0.397500 0.727500
0.617500 0.397500 0.727500
0.727500 0.397500 0.727500
0.845000 0.405000 0.735000
0.962500 0.412500 0.742500
0.045000 0.485000 0.705000
0.162500 0.492500 0.712500
0.280000 0.500000 0.720000
0.397500 0.507500 0.727500
0.515000 0.515000 0.735000
0.625000 0.515000 0.735000
0.735000 0.515000 0.735000
0.852500 0.522500 0.742500
0.970000 0.530000 0.750000
0.045000 0.595000 0.705000
0.162500 0.602500 0.712500
0.280000 0.610000 0.720000
0.397500 0.617500 0.727500
0.515000 0.625000 0.735000
0.632500 0.632500 0.742500
0.742500 0.632500 0.742500
0.860000 0.640000 0.750000
0.977500 0.647500 0.757500
0.045000 0.705000 0.705000
0.162500 0.712500 0.712500
0.280000 0.720000 0.720000
0.397500 0.727500 0.727500
0.515000 0.735000 0.735000
0.632500 0.742500 0.742500
0.750000 0.750000 0.750000
0.867500 0.757500 0.757500
0.985000 0.765000 0.765000
0.052500 0.822500 0.712500
0.170000 0.830000 0.720000
0.287500 0.837500 0.727500
0.405000 0.845000 0.735000
0.522500 0.852500 0.742500
0.640000 0.860000 0.750000
0.757500 0.867500 0.757500
0.867500 0.867500 0.757500
0.985000 0.875000 0.765000
0.060000 0.940000 0.720000
0.177500 0.947500 0.727500
0.295000 0.955000 0.735000
0.412500 0.962500 0.742500
0.530000 0.970000 0.750000
0.647500 0.977500 0.757500
0.765000 0.985000 0.765000
0.875000 0.985000 0.765000
0.985000 0.985000 0.765000
0.052500 0.052500 0.822500
0.162500 0.052500 0.822500
0.272500 0.052500 0.822500
0.382500 0.052500 0.822500
0.492500 0.052500 0.822500
0.602500 0.052500 0.822500
0.712500 0.052500 0.822500
0.822500 0.052500 0.822500
0.940000 0.060000 0.830000
0.052500 0.162500 0.822500
0.170000 0.170000 0.830000
0.280000 0.170000 0.830000
0.390000 0.170000 0.830000
0.500000 0.170000 0.830000
0.610000 0.170000 0.830000
0.720000 0.170000 0.830000
0.830000 0.170000 0.830000
0.947500 0.177500 0.837500
0.052500 0.272500 0.822500
0.170000 0.280000 0.830000
0.287500 0.287500 0.837500
0.397500 0.287500 0.837500
0.507500 0.287500 0.837500
0.617500 0.287500 0.837500
0.727500 0.287500 0.837500
0.837500 0.287500 0.837500
0.955000 0.295000 0.845000
0.052500 0.382500 0.822500
0.170000 0.390000 0.830000
0.287500 0.397500 0.837500
0.405000 0.405000 0.845000
0.515000 0.405000 0.845000
0.625000 0.405000 0.845000
0.735000 0.405000 0.845000
0.845000 0.405000 0.845000
0.962500 0.412500 0.852500
0.052500 0.492500 0.822500
0.170000 0.500000 0.830000
0.287500 0.507500 0.837500
0.405000 0.515000 0.845000
0.522500 0.522500 0.852500
0.632500 0.522500 0.852500
0.742500 0.522500 0.852500
0.852500 0.522500 0.852500
0.970000 0.530000 0.860000
0.052500 0.602500 0.822500
0.170000 0.610000 0.830000
0.287500 0.617500 0.837500
0.405000 0.625000 0.845000
0.522500 0.632500 0.852500
0.640000 0.640000 0.860000
0.750000 0.640000 0.860000
0.860000 0.640000 0.860000
0.977500 0.647500 0.867500
0.052500 0.712500 0.822500
0.170000 0.720000 0.830000
0.287500 0.727500 0.837500
0.405000 0.735000 0.845000
0.522500 0.742500 0.852500
0.640000 0.750000 0.860000
0.757500 0.757500 0.867500
0.867500 0.757500 0.867500
0.985000 0.765000 0.875000
0.052500 0.822500 0.822500
0.170000 0.830000 0.830000
0.287500 0.837500 0.837500
0.405000 0.845000 0.845000
0.522500 0.852500 0.852500
0.640000 0.860000 0.860000
0.757500 0.867500 0.867500
0.875000 0.875000 0.875000
0.992500 0.882500 0.882500
0.060000 0.940000 0.830000
0.177500 0.947500 0.837500
0.295000 0.955000 0.845000
0.412500 0.962500 0.852500
0.530000 0.970000 0.860000
0.647500 0.977500 0.867500
0.765000 0.985000 0.875000
0.882500 0.992500 0.882500
0.992500 0.992500 0.882500
0.060000 0.060000 0.940000
0.170000 0.060000 0.940000
0.280000 0.060000 0.940000
0.390000 0.060000 0.940000
0.500000 0.060000 0.940000
0.610000 0.060000 0.940000
0.720000 0.060000 0.940000
0.830000 0.060000 0.940000
0.940000 0.060000 0.940000
0.060000 0.170000 0.940000
0.177500 0.177500 0.947500
0.287500 0.177500 0.947500
0.397500 0.177500 0.947500
0.507500 0.177500 0.947500
0.617500 0.177500 0.947500
0.727500 0.177500 0.947500
0.837500 0.177500 0.947500
0.947500 0.177500 0.947500
0.060000 0.280000 0.940000
0.177500 0.287500 0.947500
0.295000 0.295000 0.955000
0.405000 0.295000 0.955000
0.515000 0.295000 0.955000
0.625000 0.295000 0.955000
0.735000 0.295000 0.955000
0.845000 0.295000 0.955000
0.955000 0.295000 0.955000
0.060000 0.390000 0.940000
0.177500 0.397500 0.947500
0.295000 0.405000 0.955000
0.412500 0.412500 0.962500
0.522500 0.412500 0.962500
0.632500 0.412500 0.962500
0.742500 0.412500 0.962500
0.852500 0.412500 0.962500
0.962500 0.412500 0.962500
0.060000 0.500000 0.940000
0.177500 0.507500 0.947500
0.295000 0.515000 0.955000
0.412500 0.522500 0.962500
0.530000 0.530000 0.970000
0.640000 0.530000 0.970000
0.750000 0.530000 0.970000
0.860000 0.530000 0.970000
0.970000 0.530000 0.970000
0.060000 0.610000 0.940000
0.177500 0.617500 0.947500
0.295000 0.625000 0.955000
0.412500 0.632500 0.962500
0.530000 0.640000 0.970000
0.647500 0.647500 0.977500
0.757500 0.647500 0.977500
0.867500 0.647500 0.977500
0.977500 0.647500 0.977500
0.060000 0.720000 0.940000
0.177500 0.727500 0.947500
0.295000 0.735000 0.955000
0.412500 0.742500 0.962500
0.530000 0.750000 0.970000
0.647500 0.757500 0.977500
0.765000 0.765000 0.985000
0.875000 0.765000 0.985000
0.985000 0.765000 0.985000
0.060000 0.830000 0.940000
0.177500 0.837500 0.947500
0.295000 0.845000 0.955000
0.412500 0.852500 0.962500
0.530000 0.860000 0.970000
0.647500 0.867500 0.977500
0.765000 0.875000 0.985000
0.882500 0.882500 0.992500
0.992500 0.882500 0.992500
0.060000 0.940000 0.940000
0.177500 0.947500 0.947500
0.295000 0.955000 0.955000
0.412500 0.962500 0.962500
0.530000 0.970000 0.970000
0.647500 0.977500 0.977500
0.765000 0.985000 0.985000
0.882500 0.992500 0.992500
1.000000 1.000000 1.000000
