correction_luts/sgamut3_to_cine.cube
# Compensates for using S-Gamut3.Cine-calibrated LUTs on S-Gamut3 footage
# Pulls back saturation ~12% and subtle hue correction
# Apply BEFORE or AFTER conversion LUT depending on workflow
# Strength: 1.0
# Color model: linear-light tone (v2)
TITLE "S-Gamut3 to S-Gamut3.Cine Compensation"
LUT_3D_SIZE 33
0.000000 0.000000 0.000000
0.029375 0.001875 0.001875
0.058750 0.003750 0.003750
0.088125 0.005625 0.005625
0.117500 0.007500 0.007500
0.146875 0.009375 0.009375
0.176250 0.011250 0.011250
0.205625 0.013125 0.013125
0.235000 0.015000 0.015000
0.264375 0.016875 0.016875
0.293750 0.018750 0.018750
0.323125 0.020625 0.020625
0.352500 0.022500 0.022500
0.381875 0.024375 0.024375
0.411250 0.026250 0.026250
0.440625 0.028125 0.028125
0.470000 0.030000 0.030000
0.499375 0.031875 0.031875
0.528750 0.033750 0.033750
0.558125 0.035625 0.035625
0.587500 0.037500 0.037500
0.616875 0.039375 0.039375
0.646250 0.041250 0.041250
0.675625 0.043125 0.043125
0.705000 0.045000 0.045000
0.734375 0.046875 0.046875
0.763750 0.048750 0.048750
0.793125 0.050625 0.050625
0.822500 0.052500 0.052500
0.851875 0.054375 0.054375
0.881250 0.056250 0.056250
0.910625 0.058125 0.058125
0.940000 0.060000 0.060000
0.001875 0.029375 0.001875
0.029375 0.029375 0.001875
0.058750 0.031250 0.003750
0.088125 0.033125 0.005625
0.117500 0.035000 0.007500
0.146875 0.036875 0.009375
0.176250 0.038750 0.011250
0.205625 0.040625 0.013125
0.235000 0.042500 0.015000
0.264375 0.044375 0.016875
0.293750 0.046250 0.018750
0.323125 0.048125 0.020625
0.352500 0.050000 0.022500
0.381875 0.051875 0.024375
0.411250 0.053750 0.026250
0.440625 0.055625 0.028125
0.470000 0.057500 0.030000
0.499375 0.059375 0.031875
0.528750 0.061250 0.033750
0.558125 0.063125 0.035625
0.587500 0.065000 0.037500
0.616875 0.066875 0.039375
0.646250 0.068750 0.041250
0.675625 0.070625 0.043125
0.705000 0.072500 0.045000
0.734375 0.074375 0.046875
0.763750 0.076250 0.048750
0.793125 0.078125 0.050625
0.822500 0.080000 0.052500
0.851875 0.081875 0.054375
0.881250 0.083750 0.056250
0.910625 0.085625 0.058125
0.940000 0.087500 0.060000
0.003750 0.058750 0.003750
0.031250 0.058750 0.003750
0.058750 0.058750 0.003750
0.088125 0.060625 0.005625
0.117500 0.062500 0.007500
0.146875 0.064375 0.009375
0.176250 0.066250 0.011250
0.205625 0.068125 0.013125
0.235000 0.070000 0.015000
0.264375 0.071875 0.016875
0.293750 0.073750 0.018750
0.323125 0.075625 0.020625
0.352500 0.077500 0.022500
0.381875 0.079375 0.024375
0.411250 0.081250 0.026250
0.440625 0.083125 0.028125
0.470000 0.085000 0.030000
0.499375 0.086875 0.031875
0.528750 0.088750 0.033750
0.558125 0.090625 0.035625
0.587500 0.092500 0.037500
0.616875 0.094375 0.039375
0.646250 0.096250 0.041250
0.675625 0.098125 0.043125
0.705000 0.100000 0.045000
0.734375 0.101875 0.046875
0.763750 0.103750 0.048750
0.793125 0.105625 0.050625
0.822500 0.107500 0.052500
0.851875 0.109375 0.054375
0.881250 0.111250 0.056250
0.910625 0.113125 0.058125
0.940000 0.115000 0.060000
0.005625 0.088125 0.005625
0.033125 0.088125 0.005625
0.060625 0.088125 0.005625
0.088125 0.088125 0.005625
0.117500 0.090000 0.007500
0.146875 0.091875 0.009375
0.176250 0.093750 0.011250
0.205625 0.095625 0.013125
0.235000 0.097500 0.015000
0.264375 0.099375 0.016875
0.293750 0.101250 0.018750
0.323125 0.103125 0.020625
0.352500 0.105000 0.022500
0.381875 0.106875 0.024375
0.411250 0.108750 0.026250
0.440625 0.110625 0.028125
0.470000 0.112500 0.030000
0.499375 0.114375 0.031875
0.528750 0.116250 0.033750
0.558125 0.118125 0.035625
0.587500 0.120000 0.037500
0.616875 0.121875 0.039375
0.646250 0.123750 0.041250
0.675625 0.125625 0.043125
0.705000 0.127500 0.045000
0.734375 0.129375 0.046875
0.763750 0.131250 0.048750
0.793125 0.133125 0.050625
0.822500 0.135000 0.052500
0.851875 0.136875 0.054375
0.881250 0.138750 0.056250
0.910625 0.140625 0.058125
0.940000 0.142500 0.060000
0.007500 0.117500 0.007500
0.035000 0.117500 0.007500
0.062500 0.117500 0.007500
0.090000 0.117500 0.007500
0.117500 0.117500 0.007500
0.146875 0.119375 0.009375
0.176250 0.121250 0.011250
0.205625 0.123125 0.013125
0.235000 0.125000 0.015000
0.264375 0.126875 0.016875
0.293750 0.128750 0.018750
0.323125 0.130625 0.020625
0.352500 0.132500 0.022500
0.381875 0.134375 0.024375
0.411250 0.136250 0.026250
0.440625 0.138125 0.028125
0.470000 0.140000 0.030000
0.499375 0.141875 0.031875
0.528750 0.143750 0.033750
0.558125 0.145625 0.035625
0.587500 0.147500 0.037500
0.616875 0.149375 0.039375
0.646250 0.151250 0.041250
0.675625 0.153125 0.043125
0.705000 0.155000 0.045000
0.734375 0.156875 0.046875
0.763750 0.158750 0.048750
0.793125 0.160625 0.050625
0.822500 0.162500 0.052500
0.851875 0.164375 0.054375
0.881250 0.166250 0.056250
0.910625 0.168125 0.058125
0.940000 0.170000 0.060000
0.009375 0.146875 0.009375
0.036875 0.146875 0.009375
0.064375 0.146875 0.009375
0.091875 0.146875 0.009375
0.119375 0.146875 0.009375
0.146875 0.146875 0.009375
0.176250 0.148750 0.011250
0.205625 0.150625 0.013125
0.235000 0.152500 0.015000
0.264375 0.154375 0.016875
0.293750 0.156250 0.018750
0.323125 0.158125 0.020625
0.352500 0.160000 0.022500
0.381875 0.161875 0.024375
0.411250 0.163750 0.026250
0.440625 0.165625 0.028125
0.470000 0.167500 0.030000
0.499375 0.169375 0.031875
0.528750 0.171250 0.033750
0.558125 0.173125 0.035625
0.587500 0.175000 0.037500
0.616875 0.176875 0.039375
0.646250 0.178750 0.041250
0.675625 0.180625 0.043125
0.705000 0.182500 0.045000
0.734375 0.184375 0.046875
0.763750 0.186250 0.048750
0.793125 0.188125 0.050625
0.822500 0.190000 0.052500
0.851875 0.191875 0.054375
0.881250 0.193750 0.056250
0.910625 0.195625 0.058125
0.940000 0.197500 0.060000
0.011250 0.176250 0.011250
0.038750 0.176250 0.011250
0.066250 0.176250 0.011250
0.093750 0.176250 0.011250
0.121250 0.176250 0.011250
0.148750 0.176250 0.011250
0.176250 0.176250 0.011250
0.205625 0.178125 0.013125
0.235000 0.180000 0.015000
0.264375 0.181875 0.016875
0.293750 0.183750 0.018750
0.323125 0.185625 0.020625
0.352500 0.187500 0.022500
0.381875 0.189375 0.024375
0.411250 0.191250 0.026250
0.440625 0.193125 0.028125
0.470000 0.195000 0.030000
0.499375 0.196875 0.031875
0.528750 0.198750 0.033750
0.558125 0.200625 0.035625
0.587500 0.202500 0.037500
0.616875 0.204375 0.039375
0.646250 0.206250 0.041250
0.675625 0.208125 0.043125
0.705000 0.210000 0.045000
0.734375 0.211875 0.046875
0.763750 0.213750 0.048750
0.793125 0.215625 0.050625
0.822500 0.217500 0.052500
0.851875 0.219375 0.054375
0.881250 0.221250 0.056250
0.910625 0.223125 0.058125
0.940000 0.225000 0.060000
0.013125 0.205625 0.013125
0.040625 0.205625 0.013125
0.068125 0.205625 0.013125
0.095625 0.205625 0.013125
0.123125 0.205625 0.013125
0.150625 0.205625 0.013125
0.178125 0.205625 0.013125
0.205625 0.205625 0.013125
0.235000 0.207500 0.015000
0.264375 0.209375 0.016875
0.293750 0.211250 0.018750
0.323125 0.213125 0.020625
0.352500 0.215000 0.022500
0.381875 0.216875 0.024375
0.411250 0.218750 0.026250
0.440625 0.220625 0.028125
0.470000 0.222500 0.030000
0.499375 0.224375 0.031875
0.528750 0.226250 0.033750
0.558125 0.228125 0.035625
0.587500 0.230000 0.037500
0.616875 0.231875 0.039375
0.646250 0.233750 0.041250
0.675625 0.235625 0.043125
0.705000 0.237500 0.045000
0.734375 0.239375 0.046875
0.763750 0.241250 0.048750
0.793125 0.243125 0.050625
0.822500 0.245000 0.052500
0.851875 0.246875 0.054375
0.881250 0.248750 0.056250
0.910625 0.250625 0.058125
0.940000 0.252500 0.060000
0.015000 0.235000 0.015000
0.042500 0.235000 0.015000
0.070000 0.235000 0.015000
0.097500 0.235000 0.015000
0.125000 0.235000 0.015000
0.152500 0.235000 0.015000
0.180000 0.235000 0.015000
0.207500 0.235000 0.015000
0.235000 0.235000 0.015000
0.264375 0.236875 0.016875
0.293750 0.238750 0.018750
0.323125 0.240625 0.020625
0.352500 0.242500 0.022500
0.381875 0.244375 0.024375
0.411250 0.246250 0.026250
0.440625 0.248125 0.028125
0.470000 0.250000 0.030000
0.499375 0.251875 0.031875
0.528750 0.253750 0.033750
0.558125 0.255625 0.035625
0.587500 0.257500 0.037500
0.616875 0.259375 0.039375
0.646250 0.261250 0.041250
0.675625 0.263125 0.043125
0.705000 0.265000 0.045000
0.734375 0.266875 0.046875
0.763750 0.268750 0.048750
0.793125 0.270625 0.050625
0.822500 0.272500 0.052500
0.851875 0.274375 0.054375
0.881250 0.276250 0.056250
0.910625 0.278125 0.058125
0.940000 0.280000 0.060000
0.016875 0.264375 0.016875
0.044375 0.264375 0.016875
0.071875 0.264375 0.016875
0.099375 0.264375 0.016875
0.126875 0.264375 0.016875
0.154375 0.264375 0.016875
0.181875 0.264375 0.016875
0.209375 0.264375 0.016875
0.236875 0.264375 0.016875
0.264375 0.264375 0.016875
0.293750 0.266250 0.018750
0.323125 0.268125 0.020625
0.352500 0.270000 0.022500
0.381875 0.271875 0.024375
0.411250 0.273750 0.026250
0.440625 0.275625 0.028125
0.470000 0.277500 0.030000
0.499375 0.279375 0.031875
0.528750 0.281250 0.033750
0.558125 0.283125 0.035625
0.587500 0.285000 0.037500
0.616875 0.286875 0.039375
0.646250 0.288750 0.041250
0.675625 0.290625 0.043125
0.705000 0.292500 0.045000
0.734375 0.294375 0.046875
0.763750 0.296250 0.048750
0.793125 0.298125 0.050625
0.822500 0.300000 0.052500
0.851875 0.301875 0.054375
0.881250 0.303750 0.056250
0.910625 0.305625 0.058125
0.940000 0.307500 0.060000
0.018750 0.293750 0.018750
0.046250 0.293750 0.018750
0.073750 0.293750 0.018750
0.101250 0.293750 0.018750
0.128750 0.293750 0.018750
0.156250 0.293750 0.018750
0.183750 0.293750 0.018750
0.211250 0.293750 0.018750
0.238750 0.293750 0.018750
0.266250 0.293750 0.018750
0.293750 0.293750 0.018750
0.323125 0.295625 0.020625
0.352500 0.297500 0.022500
0.381875 0.299375 0.024375
0.411250 0.301250 0.026250
0.440625 0.303125 0.028125
0.470000 0.305000 0.030000
0.499375 0.306875 0.031875
0.528750 0.308750 0.033750
0.558125 0.310625 0.035625
0.587500 0.312500 0.037500
0.616875 0.314375 0.039375
0.646250 0.316250 0.041250
0.675625 0.318125 0.043125
0.705000 0.320000 0.045000
0.734375 0.321875 0.046875
0.763750 0.323750 0.048750
0.793125 0.325625 0.050625
0.822500 0.327500 0.052500
0.851875 0.329375 0.054375
0.881250 0.331250 0.056250
0.910625 0.333125 0.058125
0.940000 0.335000 0.060000
0.020625 0.323125 0.020625
0.048125 0.323125 0.020625
0.075625 0.323125 0.020625
0.103125 0.323125 0.020625
0.130625 0.323125 0.020625
0.158125 0.323125 0.020625
0.185625 0.323125 0.020625
0.213125 0.323125 0.020625
0.240625 0.323125 0.020625
0.268125 0.323125 0.020625
0.295625 0.323125 0.020625
0.323125 0.323125 0.020625
0.352500 0.325000 0.022500
0.381875 0.326875 0.024375
0.411250 0.328750 0.026250
0.440625 0.330625 0.028125
0.470000 0.332500 0.030000
0.499375 0.334375 0.031875
0.528750 0.336250 0.033750
0.558125 0.338125 0.035625
0.587500 0.340000 0.037500
0.616875 0.341875 0.039375
0.646250 0.343750 0.041250
0.675625 0.345625 0.043125
0.705000 0.347500 0.045000
0.734375 0.349375 0.046875
0.763750 0.351250 0.048750
0.793125 0.353125 0.050625
0.822500 0.355000 0.052500
0.851875 0.356875 0.054375
0.881250 0.358750 0.056250
0.910625 0.360625 0.058125
0.940000 0.362500 0.060000
0.022500 0.352500 0.022500
0.050000 0.352500 0.022500
0.077500 0.352500 0.022500
0.105000 0.352500 0.022500
0.132500 0.352500 0.022500
0.160000 0.352500 0.022500
0.187500 0.352500 0.022500
0.215000 0.352500 0.022500
0.242500 0.352500 0.022500
0.270000 0.352500 0.022500
0.297500 0.352500 0.022500
0.325000 0.352500 0.022500
0.352500 0.352500 0.022500
0.381875 0.354375 0.024375
0.411250 0.356250 0.026250
0.440625 0.358125 0.028125
0.470000 0.360000 0.030000
0.499375 0.361875 0.031875
0.528750 0.363750 0.033750
0.558125 0.365625 0.035625
0.587500 0.367500 0.037500
0.616875 0.369375 0.039375
0.646250 0.371250 0.041250
0.675625 0.373125 0.043125
0.705000 0.375000 0.045000
0.734375 0.376875 0.046875
0.763750 0.378750 0.048750
0.793125 0.380625 0.050625
0.822500 0.382500 0.052500
0.851875 0.384375 0.054375
0.881250 0.386250 0.056250
0.910625 0.388125 0.058125
0.940000 0.390000 0.060000
0.024375 0.381875 0.024375
0.051875 0.381875 0.024375
0.079375 0.381875 0.024375
0.106875 0.381875 0.024375
0.134375 0.381875 0.024375
0.161875 0.381875 0.024375
0.189375 0.381875 0.024375
0.216875 0.381875 0.024375
0.244375 0.381875 0.024375
0.271875 0.381875 0.024375
0.299375 0.381875 0.024375
0.326875 0.381875 0.024375
0.354375 0.381875 0.024375
0.381875 0.381875 0.024375
0.411250 0.383750 0.026250
0.440625 0.385625 0.028125
0.470000 0.387500 0.030000
0.499375 0.389375 0.031875
0.528750 0.391250 0.033750
0.558125 0.393125 0.035625
0.587500 0.395000 0.037500
0.616875 0.396875 0.039375
0.646250 0.398750 0.041250
0.675625 0.400625 0.043125
0.705000 0.402500 0.045000
0.734375 0.404375 0.046875
0.763750 0.406250 0.048750
0.793125 0.408125 0.050625
0.822500 0.410000 0.052500
0.851875 0.411875 0.054375
0.881250 0.413750 0.056250
0.910625 0.415625 0.058125
0.940000 0.417500 0.060000
0.026250 0.411250 0.026250
0.053750 0.411250 0.026250
0.081250 0.411250 0.026250
0.108750 0.411250 0.026250
0.136250 0.411250 0.026250
0.163750 0.411250 0.026250
0.191250 0.411250 0.026250
0.218750 0.411250 0.026250
0.246250 0.411250 0.026250
0.273750 0.411250 0.026250
0.301250 0.411250 0.026250
0.328750 0.411250 0.026250
0.356250 0.411250 0.026250
0.383750 0.411250 0.026250
0.411250 0.411250 0.026250
0.440625 0.413125 0.028125
0.470000 0.415000 0.030000
0.499375 0.416875 0.031875
0.528750 0.418750 0.033750
0.558125 0.420625 0.035625
0.587500 0.422500 0.037500
0.616875 0.424375 0.039375
0.646250 0.426250 0.041250
0.675625 0.428125 0.043125
0.705000 0.430000 0.045000
0.734375 0.431875 0.046875
0.763750 0.433750 0.048750
0.793125 0.435625 0.050625
0.822500 0.437500 0.052500
0.851875 0.439375 0.054375
0.881250 0.441250 0.056250
0.910625 0.443125 0.058125
0.940000 0.445000 0.060000
0.028125 0.440625 0.028125
0.055625 0.440625 0.028125
0.083125 0.440625 0.028125
0.110625 0.440625 0.028125
0.138125 0.440625 0.028125
0.165625 0.440625 0.028125
0.193125 0.440625 0.028125
0.220625 0.440625 0.028125
0.248125 0.440625 0.028125
0.275625 0.440625 0.028125
0.303125 0.440625 0.028125
0.330625 0.440625 0.028125
0.358125 0.440625 0.028125
0.385625 0.440625 0.028125
0.413125 0.440625 0.028125
0.440625 0.440625 0.028125
0.470000 0.442500 0.030000
0.499375 0.444375 0.031875
0.528750 0.446250 0.033750
0.558125 0.448125 0.035625
0.587500 0.450000 0.037500
0.616875 0.451875 0.039375
0.646250 0.453750 0.041250
0.675625 0.455625 0.043125
0.705000 0.457500 0.045000
0.734375 0.459375 0.046875
0.763750 0.461250 0.048750
0.793125 0.463125 0.050625
0.822500 0.465000 0.052500
0.851875 0.466875 0.054375
0.881250 0.468750 0.056250
0.910625 0.470625 0.058125
0.940000 0.472500 0.060000
0.030000 0.470000 0.030000
0.057500 0.470000 0.030000
0.085000 0.470000 0.030000
0.112500 0.470000 0.030000
0.140000 0.470000 0.030000
0.167500 0.470000 0.030000
0.195000 0.470000 0.030000
0.222500 0.470000 0.030000
0.250000 0.470000 0.030000
0.277500 0.470000 0.030000
0.305000 0.470000 0.030000
0.332500 0.470000 0.030000
0.360000 0.470000 0.030000
0.387500 0.470000 0.030000
0.415000 0.470000 0.030000
0.442500 0.470000 0.030000
0.470000 0.470000 0.030000
0.499375 0.471875 0.031875
0.528750 0.473750 0.033750
0.558125 0.475625 0.035625
0.587500 0.477500 0.037500
0.616875 0.479375 0.039375
0.646250 0.481250 0.041250
0.675625 0.483125 0.043125
0.705000 0.485000 0.045000
0.734375 0.486875 0.046875
0.763750 0.488750 0.048750
0.793125 0.490625 0.050625
0.822500 0.492500 0.052500
0.851875 0.494375 0.054375
0.881250 0.496250 0.056250
0.910625 0.498125 0.058125
0.940000 0.500000 0.060000
0.031875 0.499375 0.031875
0.059375 0.499375 0.031875
0.086875 0.499375 0.031875
0.114375 0.499375 0.031875
0.141875 0.499375 0.031875
0.169375 0.499375 0.031875
0.196875 0.499375 0.031875
0.224375 0.499375 0.031875
0.251875 0.499375 0.031875
0.279375 0.499375 0.031875
0.306875 0.499375 0.031875
0.334375 0.499375 0.031875
0.361875 0.499375 0.031875
0.389375 0.499375 0.031875
0.416875 0.499375 0.031875
0.444375 0.499375 0.031875
0.471875 0.499375 0.031875
0.499375 0.499375 0.031875
0.528750 0.501250 0.033750
0.558125 0.503125 0.035625
0.587500 0.505000 0.037500
0.616875 0.506875 0.039375
0.646250 0.508750 0.041250
0.675625 0.510625 0.043125
0.705000 0.512500 0.045000
0.734375 0.514375 0.046875
0.763750 0.516250 0.048750
0.793125 0.518125 0.050625
0.822500 0.520000 0.052500
0.851875 0.521875 0.054375
0.881250 0.523750 0.056250
0.910625 0.525625 0.058125
0.940000 0.527500 0.060000
0.033750 0.528750 0.033750
0.061250 0.528750 0.033750
0.088750 0.528750 0.033750
0.116250 0.528750 0.033750
0.143750 0.528750 0.033750
0.171250 0.528750 0.033750
0.198750 0.528750 0.033750
0.226250 0.528750 0.033750
0.253750 0.528750 0.033750
0.281250 0.528750 0.033750
0.308750 0.528750 0.033750
0.336250 0.528750 0.033750
0.363750 0.528750 0.033750
0.391250 0.528750 0.033750
0.418750 0.528750 0.033750
0.446250 0.528750 0.033750
0.473750 0.528750 0.033750
0.501250 0.528750 0.033750
0.528750 0.528750 0.033750
0.558125 0.530625 0.035625
0.587500 0.532500 0.037500
0.616875 0.534375 0.039375
0.646250 0.536250 0.041250
0.675625 0.538125 0.043125
0.705000 0.540000 0.045000
0.734375 0.541875 0.046875
0.763750 0.543750 0.048750
0.793125 0.545625 0.050625
0.822500 0.547500 0.052500
0.851875 0.549375 0.054375
0.881250 0.551250 0.056250
0.910625 0.553125 0.058125
0.940000 0.555000 0.060000
0.035625 0.558125 0.035625
0.063125 0.558125 0.035625
0.090625 0.558125 0.035625
0.118125 0.558125 0.035625
0.145625 0.558125 0.035625
0.173125 0.558125 0.035625
0.200625 0.558125 0.035625
0.228125 0.558125 0.035625
0.255625 0.558125 0.035625
0.283125 0.558125 0.035625
0.310625 0.558125 0.035625
0.338125 0.558125 0.035625
0.365625 0.558125 0.035625
0.393125 0.558125 0.035625
0.420625 0.558125 0.035625
0.448125 0.558125 0.035625
0.475625 0.558125 0.035625
0.503125 0.558125 0.035625
0.530625 0.558125 0.035625
0.558125 0.558125 0.035625
0.587500 0.560000 0.037500
0.616875 0.561875 0.039375
0.646250 0.563750 0.041250
0.675625 0.565625 0.043125
0.705000 0.567500 0.045000
0.734375 0.569375 0.046875
0.763750 0.571250 0.048750
0.793125 0.573125 0.050625
0.822500 0.575000 0.052500
0.851875 0.576875 0.054375
0.881250 0.578750 0.056250
0.910625 0.580625 0.058125
0.940000 0.582500 0.060000
0.037500 0.587500 0.037500
0.065000 0.587500 0.037500
0.092500 0.587500 0.037500
0.120000 0.587500 0.037500
0.147500 0.587500 0.037500
0.175000 0.587500 0.037500
0.202500 0.587500 0.037500
0.230000 0.587500 0.037500
0.257500 0.587500 0.037500
0.285000 0.587500 0.037500
0.312500 0.587500 0.037500
0.340000 0.587500 0.037500
0.367500 0.587500 0.037500
0.395000 0.587500 0.037500
0.422500 0.587500 0.037500
0.450000 0.587500 0.037500
0.477500 0.587500 0.037500
0.505000 0.587500 0.037500
0.532500 0.587500 0.037500
0.560000 0.587500 0.037500
0.587500 0.587500 0.037500
0.616875 0.589375 0.039375
0.646250 0.591250 0.041250
0.675625 0.593125 0.043125
0.705000 0.595000 0.045000
0.734375 0.596875 0.046875
0.763750 0.598750 0.048750
0.793125 0.600625 0.050625
0.822500 0.602500 0.052500
0.851875 0.604375 0.054375
0.881250 0.606250 0.056250
0.910625 0.608125 0.058125
0.940000 0.610000 0.060000
0.039375 0.616875 0.039375
0.066875 0.616875 0.039375
0.094375 0.616875 0.039375
0.121875 0.616875 0.039375
0.149375 0.616875 0.039375
0.176875 0.616875 0.039375
0.204375 0.616875 0.039375
0.231875 0.616875 0.039375
0.259375 0.616875 0.039375
0.286875 0.616875 0.039375
0.314375 0.616875 0.039375
0.341875 0.616875 0.039375
0.369375 0.616875 0.039375
0.396875 0.616875 0.039375
0.424375 0.616875 0.039375
0.451875 0.616875 0.039375
0.479375 0.616875 0.039375
0.506875 0.616875 0.039375
0.534375 0.616875 0.039375
0.561875 0.616875 0.039375
0.589375 0.616875 0.039375
0.616875 0.616875 0.039375
0.646250 0.618750 0.041250
0.675625 0.620625 0.043125
0.705000 0.622500 0.045000
0.734375 0.624375 0.046875
0.763750 0.626250 0.048750
0.793125 0.628125 0.050625
0.822500 0.630000 0.052500
0.851875 0.631875 0.054375
0.881250 0.633750 0.056250
0.910625 0.635625 0.058125
0.940000 0.637500 0.060000
0.041250 0.646250 0.041250
0.068750 0.646250 0.041250
0.096250 0.646250 0.041250
0.123750 0.646250 0.041250
0.151250 0.646250 0.041250
0.178750 0.646250 0.041250
0.206250 0.646250 0.041250
0.233750 0.646250 0.041250
0.261250 0.646250 0.041250
0.288750 0.646250 0.041250
0.316250 0.646250 0.041250
0.343750 0.646250 0.041250
0.371250 0.646250 0.041250
0.398750 0.646250 0.041250
0.426250 0.646250 0.041250
0.453750 0.646250 0.041250
0.481250 0.646250 0.041250
0.508750 0.646250 0.041250
0.536250 0.646250 0.041250
0.563750 0.646250 0.041250
0.591250 0.646250 0.041250
0.618750 0.646250 0.041250
0.646250 0.646250 0.041250
0.675625 0.648125 0.043125
0.705000 0.650000 0.045000
0.734375 0.651875 0.046875
0.763750 0.653750 0.048750
0.793125 0.655625 0.050625
0.822500 0.657500 0.052500
0.851875 0.659375 0.054375
0.881250 0.661250 0.056250
0.910625 0.663125 0.058125
0.940000 0.665000 0.060000
0.043125 0.675625 0.043125
0.070625 0.675625 0.043125
0.098125 0.675625 0.043125
0.125625 0.675625 0.043125
0.153125 0.675625 0.043125
0.180625 0.675625 0.043125
0.208125 0.675625 0.043125
0.235625 0.675625 0.043125
0.263125 0.675625 0.043125
0.290625 0.675625 0.043125
0.318125 0.675625 0.043125
0.345625 0.675625 0.043125
0.373125 0.675625 0.043125
0.400625 0.675625 0.043125
0.428125 0.675625 0.043125
0.455625 0.675625 0.043125
0.483125 0.675625 0.043125
0.510625 0.675625 0.043125
0.538125 0.675625 0.043125
0.565625 0.675625 0.043125
0.593125 0.675625 0.043125
0.620625 0.675625 0.043125
0.648125 0.675625 0.043125
0.675625 0.675625 0.043125
0.705000 0.677500 0.045000
0.734375 0.679375 0.046875
0.763750 0.681250 0.048750
0.793125 0.683125 0.050625
0.822500 0.685000 0.052500
0.851875 0.686875 0.054375
0.881250 0.688750 0.056250
0.910625 0.690625 0.058125
0.940000 0.692500 0.060000
0.045000 0.705000 0.045000
0.072500 0.705000 0.045000
0.100000 0.705000 0.045000
0.127500 0.705000 0.045000
0.155000 0.705000 0.045000
0.182500 0.705000 0.045000
0.210000 0.705000 0.045000
0.237500 0.705000 0.045000
0.265000 0.705000 0.045000
0.292500 0.705000 0.045000
0.320000 0.705000 0.045000
0.347500 0.705000 0.045000
0.375000 0.705000 0.045000
0.402500 0.705000 0.045000
0.430000 0.705000 0.045000
0.457500 0.705000 0.045000
0.485000 0.705000 0.045000
0.512500 0.705000 0.045000
0.540000 0.705000 0.045000
0.567500 0.705000 0.045000
0.595000 0.705000 0.045000
0.622500 0.705000 0.045000
0.650000 0.705000 0.045000
0.677500 0.705000 0.045000
0.705000 0.705000 0.045000
0.734375 0.706875 0.046875
0.763750 0.708750 0.048750
0.793125 0.710625 0.050625
0.822500 0.712500 0.052500
0.851875 0.714375 0.054375
0.881250 0.716250 0.056250
0.910625 0.718125 0.058125
0.940000 0.720000 0.060000
0.046875 0.734375 0.046875
0.074375 0.734375 0.046875
0.101875 0.734375 0.046875
0.129375 0.734375 0.046875
0.156875 0.734375 0.046875
0.184375 0.734375 0.046875
0.211875 0.734375 0.046875
0.239375 0.734375 0.046875
0.266875 0.734375 0.046875
0.294375 0.734375 0.046875
0.321875 0.734375 0.046875
0.349375 0.734375 0.046875
0.376875 0.734375 0.046875
0.404375 0.734375 0.046875
0.431875 0.734375 0.046875
0.459375 0.734375 0.046875
0.486875 0.734375 0.046875
0.514375 0.734375 0.046875
0.541875 0.734375 0.046875
0.569375 0.734375 0.046875
0.596875 0.734375 0.046875
0.624375 0.734375 0.046875
0.651875 0.734375 0.046875
0.679375 0.734375 0.046875
0.706875 0.734375 0.046875
0.734375 0.734375 0.046875
0.763750 0.736250 0.048750
0.793125 0.738125 0.050625
0.822500 0.740000 0.052500
0.851875 0.741875 0.054375
0.881250 0.743750 0.056250
0.910625 0.745625 0.058125
0.940000 0.747500 0.060000
0.048750 0.763750 0.048750
0.076250 0.763750 0.048750
0.103750 0.763750 0.048750
0.131250 0.763750 0.048750
0.158750 0.763750 0.048750
0.186250 0.763750 0.048750
0.213750 0.763750 0.048750
0.241250 0.763750 0.048750
0.268750 0.763750 0.048750
0.296250 0.763750 0.048750
0.323750 0.763750 0.048750
0.351250 0.763750 0.048750
0.378750 0.763750 0.048750
0.406250 0.763750 0.048750
0.433750 0.763750 0.048750
0.461250 0.763750 0.048750
0.488750 0.763750 0.048750
0.516250 0.763750 0.048750
0.543750 0.763750 0.048750
