correction_luts/studio_clean_baked.cube
# Baked chain LUT: studio_punch@0.5 + sat_boost@0.5
# Generated by generate_chain_lut.rb
#   studio_punch (Studio Punch - Subtle Contrast Boost) @ 0.5
#   sat_boost (Saturation Boost - +15%) @ 0.5
TITLE "studio_punch@0.5 + sat_boost@0.5"
LUT_3D_SIZE 5
0.000000 0.000000 0.000000
0.193184 0.000000 0.000000
0.473029 0.000000 0.000000
0.721145 0.000000 0.000000
0.972655 0.000000 0.000000
0.000000 0.193184 0.000000
0.193184 0.193184 0.000000
0.473029 0.236514 0.000000
0.721145 0.240382 0.000000
0.972655 0.243164 0.000000
0.000000 0.473029 0.000000
0.236514 0.473029 0.000000
0.473029 0.473029 0.000000
0.721145 0.480763 0.000000
0.972655 0.486327 0.000000
0.000000 0.721145 0.000000
0.240382 0.721145 0.000000
0.480763 0.721145 0.000000
0.721145 0.721145 0.000000
0.972655 0.729491 0.000000
0.000000 0.972655 0.000000
0.243164 0.972655 0.000000
0.486327 0.972655 0.000000
0.729491 0.972655 0.000000
0.972655 0.972655 0.000000
0.000000 0.000000 0.193184
0.193184 0.000000 0.193184
0.473029 0.000000 0.236514
0.721145 0.000000 0.240382
0.972655 0.000000 0.243164
0.000000 0.193184 0.193184
0.236514 0.236514 0.236514
0.489778 0.231367 0.231367
0.747728 0.224926 0.224926
1.000000 0.226719 0.226719
0.000000 0.473029 0.236514
0.231367 0.489778 0.231367
0.489778 0.489778 0.231367
0.747728 0.486327 0.224926
1.000000 0.484480 0.226719
0.000000 0.721145 0.240382
0.224926 0.747728 0.224926
0.486327 0.747728 0.224926
0.747728 0.747728 0.224926
1.000000 0.742240 0.226719
0.000000 0.972655 0.243164
0.226719 1.000000 0.226719
0.484480 1.000000 0.226719
0.742240 1.000000 0.226719
1.000000 1.000000 0.226719
0.000000 0.000000 0.473029
0.236514 0.000000 0.473029
0.473029 0.000000 0.473029
0.721145 0.000000 0.480763
0.972655 0.000000 0.486327
0.000000 0.236514 0.473029
0.231367 0.231367 0.489778
0.489778 0.231367 0.489778
0.747728 0.224926 0.486327
1.000000 0.226719 0.484480
0.000000 0.473029 0.473029
0.231367 0.489778 0.489778
0.486327 0.486327 0.486327
0.751906 0.474814 0.474814
1.000000 0.482838 0.482838
0.000000 0.721145 0.480763
0.224926 0.747728 0.486327
0.474814 0.751906 0.474814
0.751906 0.751906 0.474814
1.000000 0.741419 0.482838
0.000000 0.972655 0.486327
0.226719 1.000000 0.484480
0.482838 1.000000 0.482838
0.741419 1.000000 0.482838
1.000000 1.000000 0.482838
0.000000 0.000000 0.721145
0.240382 0.000000 0.721145
0.480763 0.000000 0.721145
0.721145 0.000000 0.721145
0.972655 0.000000 0.729491
0.000000 0.240382 0.721145
0.224926 0.224926 0.747728
0.486327 0.224926 0.747728
0.747728 0.224926 0.747728
1.000000 0.226719 0.742240
0.000000 0.480763 0.721145
0.224926 0.486327 0.747728
0.474814 0.474814 0.751906
0.751906 0.474814 0.751906
1.000000 0.482838 0.741419
0.000000 0.721145 0.721145
0.224926 0.747728 0.747728
0.474814 0.751906 0.751906
0.741419 0.741419 0.741419
1.000000 0.755616 0.755616
0.000000 0.972655 0.729491
0.226719 1.000000 0.742240
0.482838 1.000000 0.741419
0.755616 1.000000 0.755616
1.000000 1.000000 0.755616
0.000000 0.000000 0.972655
0.243164 0.000000 0.972655
0.486327 0.000000 0.972655
0.729491 0.000000 0.972655
0.972655 0.000000 0.972655
0.000000 0.243164 0.972655
0.226719 0.226719 1.000000
0.484480 0.226719 1.000000
0.742240 0.226719 1.000000
1.000000 0.226719 1.000000
0.000000 0.486327 0.972655
0.226719 0.484480 1.000000
0.482838 0.482838 1.000000
0.741419 0.482838 1.000000
1.000000 0.482838 1.000000
0.000000 0.729491 0.972655
0.226719 0.742240 1.000000
0.482838 0.741419 1.000000
0.755616 0.755616 1.000000
1.000000 0.755616 1.000000
0.000000 0.972655 0.972655
0.226719 1.000000 1.000000
0.482838 1.000000 1.000000
0.755616 1.000000 1.000000
0.960000 0.960000 0.960000
