correction_luts/studio_punch.cube
# Gentle contrast boost for well-lit interiors
# Slight gamma pull + highlight protection + mild black crush
# Strength: 1.0
# Color model: linear-light tone (v2)
TITLE "Studio Punch - Subtle Contrast Boost"
LUT_3D_SIZE 5
0.000000 0.000000 0.000000
0.151406 0.000000 0.000000
0.449234 0.000000 0.000000
0.696068 0.000000 0.000000
0.949698 0.000000 0.000000
0.000000 0.221270 0.000000
0.223198 0.223198 0.000000
0.456679 0.228340 0.000000
0.701093 0.233698 0.000000
0.953314 0.238328 0.000000
0.000000 0.467773 0.000000
0.234314 0.468628 0.000000
0.471849 0.471849 0.000000
0.715364 0.476910 0.000000
0.965436 0.482718 0.000000
0.000000 0.724793 0.000000
0.241767 0.725302 0.000000
0.484913 0.727369 0.000000
0.731108 0.731108 0.000000
0.981504 0.736128 0.000000
0.000000 0.993688 0.000000
0.248915 0.995661 0.000000
0.511452 1.000000 0.164026
0.763270 1.000000 0.270116
0.984902 0.984902 0.000000
0.000000 0.000000 0.045231
0.190112 0.000000 0.190112
0.450169 0.000000 0.225085
0.696626 0.000000 0.232209
0.950081 0.000000 0.237520
0.000000 0.221981 0.221981
0.223756 0.223756 0.223756
0.457266 0.228633 0.228633
0.701547 0.233849 0.233849
0.953658 0.238414 0.238414
0.000000 0.468069 0.234034
0.234454 0.468909 0.234454
0.472079 0.472079 0.236039
0.715618 0.477079 0.238539
0.965675 0.482838 0.241419
0.000000 0.724967 0.241656
0.241824 0.725472 0.241824
0.485018 0.727526 0.242509
0.731243 0.731243 0.243748
0.981652 0.736239 0.245413
0.000000 0.994383 0.248596
0.249071 0.996282 0.249071
0.513752 1.000000 0.289536
0.762947 1.000000 0.342740
0.984156 0.984156 0.246039
0.000000 0.000000 0.430651
0.219901 0.000000 0.439802
0.453634 0.000000 0.453634
0.698875 0.000000 0.465917
0.951674 0.000000 0.475837
0.000000 0.224443 0.448886
0.225773 0.225773 0.451546
0.459557 0.229779 0.459557
0.703397 0.234466 0.468931
0.955089 0.238772 0.477545
0.000000 0.469275 0.469275
0.235028 0.470056 0.470056
0.473029 0.473029 0.473029
0.716676 0.477784 0.477784
0.966678 0.483339 0.483339
0.000000 0.725698 0.483798
0.242063 0.726189 0.484126
0.485458 0.728187 0.485458
0.731814 0.731814 0.487876
0.982279 0.736709 0.491139
0.000000 0.997072 0.498536
0.249666 0.998666 0.499333
0.522562 1.000000 0.522562
0.760705 1.000000 0.529755
0.980834 0.980834 0.490417
0.000000 0.000000 0.671456
0.225250 0.000000 0.675751
0.458939 0.000000 0.688408
0.702885 0.000000 0.702885
0.954688 0.000000 0.716016
0.000000 0.227854 0.683561
0.228739 0.228739 0.686217
0.463388 0.231694 0.695082
0.706770 0.235590 0.706770
0.957819 0.239455 0.718364
0.000000 0.471479 0.707219
0.236082 0.472163 0.708245
0.474803 0.474803 0.712204
0.718695 0.479130 0.718695
0.968625 0.484313 0.726469
0.000000 0.727120 0.727120
0.242528 0.727584 0.727584
0.486319 0.729479 0.729479
0.732936 0.732936 0.732936
0.983517 0.737638 0.737638
0.138320 1.000000 0.752689
0.291724 1.000000 0.755164
0.534856 1.000000 0.762605
0.750665 1.000000 0.750665
0.973450 0.973450 0.730087
0.000000 0.000000 0.916118
0.229798 0.000000 0.919191
0.464878 0.000000 0.929756
0.708173 0.000000 0.944230
0.958999 0.000000 0.958999
0.000000 0.231364 0.925455
0.231944 0.231944 0.927775
0.468075 0.234037 0.936150
0.711347 0.237116 0.948463
0.961762 0.240440 0.961762
0.000000 0.474480 0.948961
0.237526 0.475051 0.950103
0.477292 0.477292 0.954584
0.721615 0.481077 0.962154
0.971521 0.485760 0.971521
0.000000 0.729238 0.972318
0.243222 0.729665 0.972887
0.487610 0.731414 0.975219
0.734632 0.734632 0.979510
0.985406 0.739055 0.985406
0.258597 1.000000 1.000000
0.343191 1.000000 1.000000
0.534392 1.000000 1.000000
0.745124 0.993499 0.993499
0.960000 0.960000 0.960000
