correction_luts/studio_dance_baked.cube
# Baked chain LUT: studio_punch@1.0 + warm_shift@0.4 + sat_boost@0.6 + black_crush@0.25
# Generated by generate_chain_lut.rb
#   studio_punch (Studio Punch - Subtle Contrast Boost) @ 1.0
#   warm_shift (Warm Shift - Add Warmth) @ 0.4
#   sat_boost (Saturation Boost - +15%) @ 0.6
#   black_crush (Black Crush - Shadow Floor) @ 0.25
TITLE "studio_punch@1.0 + warm_shift@0.4 + sat_boost@0.6 + black_crush@0.25"
LUT_3D_SIZE 5
0.000000 0.000000 0.000000
0.050494 0.000000 0.000000
0.439057 0.000000 0.000000
0.704494 0.000000 0.000000
0.961195 0.000000 0.000000
0.000000 0.049404 0.000000
0.050494 0.049699 0.000000
0.439057 0.216071 0.000000
0.704494 0.231133 0.000000
0.961195 0.236514 0.000000
0.000000 0.427170 0.000000
0.217003 0.427170 0.000000
0.439057 0.432143 0.000000
0.704494 0.462267 0.000000
0.961195 0.473029 0.000000
0.000000 0.693400 0.000000
0.234831 0.693400 0.000000
0.469663 0.693400 0.000000
0.704494 0.693400 0.000000
0.961195 0.709543 0.000000
0.000000 0.946058 0.000000
0.240299 0.946058 0.000000
0.480597 0.946058 0.000000
0.720896 0.946058 0.000000
0.961195 0.946058 0.000000
0.000000 0.000000 0.048051
0.050494 0.000000 0.048705
0.439057 0.000000 0.211750
0.704494 0.000000 0.226511
0.961195 0.000000 0.231784
0.000000 0.049404 0.048416
0.217010 0.213291 0.208642
0.480605 0.220607 0.215569
0.742906 0.214930 0.209774
1.000000 0.203872 0.199795
0.000000 0.427170 0.209313
0.224971 0.472876 0.215902
0.480605 0.472543 0.215569
0.742906 0.472731 0.209774
1.000000 0.469248 0.199795
0.000000 0.693400 0.226511
0.219566 0.731042 0.210285
0.481491 0.731042 0.210285
0.742906 0.730532 0.209774
1.000000 0.734624 0.199795
0.000000 0.946058 0.231784
0.207134 1.000000 0.199795
0.476756 1.000000 0.199795
0.746378 1.000000 0.199795
1.000000 1.000000 0.199795
0.000000 0.000000 0.411706
0.213415 0.000000 0.411706
0.439057 0.000000 0.423500
0.704494 0.000000 0.453021
0.961195 0.000000 0.463568
0.000000 0.210054 0.411706
0.225179 0.221148 0.463006
0.480397 0.220399 0.462257
0.742693 0.214717 0.462206
1.000000 0.203872 0.459863
0.000000 0.427170 0.418627
0.224597 0.472501 0.462424
0.481364 0.473114 0.462802
0.759271 0.457200 0.446970
1.000000 0.465872 0.456555
0.000000 0.693400 0.453021
0.219183 0.730659 0.462547
0.465912 0.746988 0.447499
0.759271 0.746459 0.446970
1.000000 0.732936 0.456555
0.000000 0.946058 0.463568
0.207134 1.000000 0.459863
0.473326 1.000000 0.456555
0.744663 1.000000 0.456555
1.000000 1.000000 0.456555
0.000000 0.000000 0.679532
0.234831 0.000000 0.679532
0.469663 0.000000 0.679532
0.704494 0.000000 0.679532
0.961195 0.000000 0.695352
0.000000 0.231133 0.679532
0.219992 0.215867 0.716000
0.481917 0.215867 0.716000
0.742693 0.214717 0.714851
1.000000 0.203872 0.719932
0.000000 0.462267 0.679532
0.219821 0.473497 0.715830
0.466151 0.457967 0.731212
0.758849 0.456777 0.730022
1.000000 0.465872 0.718277
0.000000 0.693400 0.679532
0.219183 0.730659 0.715191
0.465152 0.746228 0.730213
0.745851 0.733068 0.717090
1.000000 0.743650 0.728777
0.000000 0.946058 0.695352
0.207134 1.000000 0.719932
0.473326 1.000000 0.718277
0.755548 1.000000 0.728777
1.000000 1.000000 0.728777
0.000000 0.000000 0.927136
0.240299 0.000000 0.927136
0.480597 0.000000 0.927136
0.720896 0.000000 0.927136
0.961195 0.000000 0.927136
0.000000 0.236514 0.927136
0.187302 0.183872 1.000000
0.470820 0.183872 1.000000
0.754338 0.183872 1.000000
1.000000 0.203872 0.980000
0.000000 0.473029 0.927136
0.187134 0.462814 1.000000
0.453906 0.445872 1.000000
0.746354 0.445872 1.000000
1.000000 0.465872 0.980000
0.000000 0.709543 0.927136
0.187134 0.741925 1.000000
0.453326 0.733431 1.000000
0.745983 0.733014 0.990636
1.000000 0.743650 0.980000
0.000000 0.946058 0.927136
0.207134 1.000000 0.980000
0.473326 1.000000 0.980000
0.755548 1.000000 0.980000
0.976915 0.960173 0.939245
