correction_luts/studio_balanced_baked.cube
# Baked chain LUT: studio_punch@0.8 + warm_shift@0.3 + sat_boost@0.5 + black_crush@0.15
# Generated by regenerate_luts.rb
# Color model: linear-light tone (v2)
#   studio_punch (Studio Punch - Subtle Contrast Boost) @ 0.8
#   warm_shift (Warm Shift - Add Warmth) @ 0.3
#   sat_boost (Saturation Boost - +15%) @ 0.5
#   black_crush (Black Crush - Shadow Floor) @ 0.15
TITLE "studio_punch@0.8 + warm_shift@0.3 + sat_boost@0.5 + black_crush@0.15"
LUT_3D_SIZE 33
0.000000 0.000000 0.000000
0.000686 0.000000 0.000000
0.002618 0.000000 0.000000
0.005737 0.000000 0.000000
0.010022 0.000000 0.000000
0.017124 0.000000 0.000000
0.033948 0.000000 0.000000
0.062679 0.000000 0.000000
0.101760 0.000000 0.000000
0.145239 0.000000 0.000000
0.193585 0.000000 0.000000
0.234702 0.000000 0.000000
0.280108 0.000000 0.000000
0.328709 0.000000 0.000000
0.377704 0.000000 0.000000
0.423859 0.000000 0.000000
0.463590 0.000000 0.000000
0.495412 0.000000 0.000000
0.526477 0.000000 0.000000
0.557652 0.000000 0.000000
0.588932 0.000000 0.000000
0.620313 0.000000 0.000000
0.651789 0.000000 0.000000
0.683357 0.000000 0.000000
0.715013 0.000000 0.000000
0.746754 0.000000 0.000000
0.778576 0.000000 0.000000
0.810476 0.000000 0.000000
0.842453 0.000000 0.000000
0.874502 0.000000 0.000000
0.906622 0.000000 0.000000
0.938811 0.000000 0.000000
0.971066 0.000000 0.000000
0.000000 0.001097 0.000000
0.001214 0.001213 0.000000
0.003169 0.001581 0.000000
0.006238 0.002071 0.000000
0.010474 0.002602 0.000000
0.018326 0.003628 0.000000
0.035902 0.005913 0.000000
0.065018 0.009178 0.000000
0.104011 0.012847 0.000000
0.147075 0.016148 0.000000
0.194963 0.019265 0.000000
0.235733 0.021176 0.000000
0.281121 0.023149 0.000000
0.329610 0.025054 0.000000
0.378419 0.026709 0.000000
0.424328 0.027953 0.000000
0.463764 0.028642 0.000000
0.495462 0.028799 0.000000
0.526523 0.028904 0.000000
0.557694 0.029004 0.000000
0.588972 0.029099 0.000000
0.620350 0.029190 0.000000
0.651824 0.029277 0.000000
0.683390 0.029360 0.000000
0.715044 0.029440 0.000000
0.746783 0.029517 0.000000
0.778604 0.029591 0.000000
0.810503 0.029663 0.000000
0.842478 0.029732 0.000000
0.874526 0.029798 0.000000
0.906645 0.029863 0.000000
0.938833 0.029926 0.000000
0.971088 0.029987 0.000000
0.000000 0.004177 0.000000
0.002139 0.004267 0.000000
0.004634 0.004620 0.000000
0.007885 0.005232 0.000000
0.013133 0.006517 0.000000
0.024351 0.009625 0.000000
0.044493 0.014655 0.000000
0.074785 0.021114 0.000000
0.113085 0.027936 0.000000
0.155111 0.034060 0.000000
0.199726 0.039472 0.000000
0.240105 0.043138 0.000000
0.285377 0.046999 0.000000
0.333371 0.050680 0.000000
0.381375 0.053836 0.000000
0.426225 0.056156 0.000000
0.464403 0.057362 0.000000
0.495671 0.057623 0.000000
0.526717 0.057830 0.000000
0.557875 0.058027 0.000000
0.589141 0.058216 0.000000
0.620509 0.058395 0.000000
0.651973 0.058567 0.000000
0.683531 0.058733 0.000000
0.715177 0.058891 0.000000
0.746909 0.059044 0.000000
0.778723 0.059192 0.000000
0.810617 0.059334 0.000000
0.842586 0.059471 0.000000
0.874630 0.059604 0.000000
0.906744 0.059733 0.000000
0.938928 0.059858 0.000000
0.971178 0.059979 0.000000
0.000000 0.010032 0.000000
0.003431 0.010234 0.000000
0.007482 0.011154 0.000000
0.013352 0.013259 0.000000
0.023014 0.017066 0.000000
0.038612 0.022893 0.000000
0.061900 0.030583 0.000000
0.092839 0.039316 0.000000
0.128500 0.047616 0.000000
0.170111 0.056031 0.000000
0.207974 0.061652 0.000000
0.248763 0.067040 0.000000
0.293634 0.072538 0.000000
0.340535 0.077653 0.000000
0.386864 0.081916 0.000000
0.429559 0.084893 0.000000
0.465193 0.086189 0.000000
0.496087 0.086507 0.000000
0.527104 0.086809 0.000000
0.558237 0.087097 0.000000
0.589479 0.087373 0.000000
0.620826 0.087638 0.000000
0.652272 0.087892 0.000000
0.683813 0.088135 0.000000
0.715445 0.088370 0.000000
0.747163 0.088596 0.000000
0.778964 0.088815 0.000000
0.810846 0.089026 0.000000
0.842805 0.089230 0.000000
0.874838 0.089427 0.000000
0.906944 0.089619 0.000000
0.939119 0.089805 0.000000
0.971362 0.089985 0.000000
0.000000 0.030139 0.000000
0.007726 0.030538 0.000000
0.016316 0.032244 0.000000
0.027088 0.035689 0.000000
0.041558 0.041065 0.000000
0.061023 0.048240 0.000000
0.085885 0.056578 0.000000
0.115044 0.064960 0.000000
0.150442 0.074329 0.000000
0.184429 0.080996 0.000000
0.220936 0.087327 0.000000
0.261799 0.094071 0.000000
0.305686 0.100687 0.000000
0.350655 0.106614 0.000000
0.394229 0.111301 0.000000
0.433472 0.114222 0.000000
0.465879 0.115089 0.000000
0.496726 0.115491 0.000000
0.527701 0.115876 0.000000
0.558797 0.116246 0.000000
0.590006 0.116602 0.000000
0.621322 0.116944 0.000000
0.652741 0.117273 0.000000
0.684256 0.117590 0.000000
0.715865 0.117896 0.000000
0.747562 0.118192 0.000000
0.779344 0.118477 0.000000
0.811208 0.118754 0.000000
0.843150 0.119022 0.000000
0.875168 0.119281 0.000000
0.907260 0.119534 0.000000
0.939422 0.119778 0.000000
0.971652 0.120016 0.000000
0.000000 0.067910 0.000000
0.013822 0.068292 0.000000
0.028294 0.069896 0.000000
0.044319 0.072989 0.000000
0.062712 0.077460 0.000000
0.084271 0.083271 0.000000
0.110391 0.090902 0.000000
0.138671 0.097876 0.000000
0.167799 0.103631 0.000000
0.200984 0.110334 0.000000
0.238042 0.117610 0.000000
0.278233 0.124970 0.000000
0.320246 0.131854 0.000000
0.362218 0.137663 0.000000
0.401784 0.141793 0.000000
0.436143 0.143657 0.000000
0.466794 0.144143 0.000000
0.497586 0.144613 0.000000
0.528510 0.145067 0.000000
0.559559 0.145506 0.000000
0.590725 0.145930 0.000000
0.622003 0.146340 0.000000
0.653385 0.146736 0.000000
0.684868 0.147119 0.000000
0.716446 0.147490 0.000000
0.748115 0.147849 0.000000
0.779871 0.148197 0.000000
0.811711 0.148535 0.000000
0.843632 0.148862 0.000000
0.875629 0.149180 0.000000
0.907702 0.149490 0.000000
0.939846 0.149791 0.000000
0.972060 0.150083 0.000000
0.000000 0.112937 0.000000
0.019093 0.113201 0.000000
0.038550 0.114278 0.000000
0.058791 0.116187 0.000000
0.080029 0.118620 0.000000
0.102890 0.122004 0.000000
0.127982 0.126464 0.000000
0.155809 0.131967 0.000000
0.186691 0.138358 0.000000
0.220644 0.145352 0.000000
0.257292 0.152545 0.000000
0.295797 0.159430 0.000000
0.334830 0.165430 0.000000
0.372579 0.169921 0.000000
0.406777 0.172266 0.000000
0.437323 0.172855 0.000000
0.467912 0.173386 0.000000
0.498646 0.173906 0.000000
0.529515 0.174412 0.000000
0.560513 0.174905 0.000000
0.591631 0.175385 0.000000
0.622864 0.175851 0.000000
0.654205 0.176304 0.000000
0.685648 0.176744 0.000000
0.717190 0.177172 0.000000
0.748826 0.177587 0.000000
0.780551 0.177991 0.000000
0.812361 0.178384 0.000000
0.844254 0.178766 0.000000
0.876227 0.179139 0.000000
0.908275 0.179501 0.000000
0.940397 0.179854 0.000000
0.972590 0.180198 0.000000
0.000000 0.154254 0.000000
0.022328 0.154444 0.000000
0.044891 0.155255 0.000000
0.068044 0.156886 0.000000
0.092206 0.159446 0.000000
0.117809 0.162977 0.000000
0.145240 0.167438 0.000000
0.174774 0.172701 0.000000
0.206487 0.178534 0.000000
0.240187 0.184597 0.000000
0.275337 0.190450 0.000000
0.311005 0.195565 0.000000
0.345838 0.199347 0.000000
0.378060 0.201157 0.000000
0.408282 0.201720 0.000000
0.438664 0.202282 0.000000
0.469198 0.202840 0.000000
0.499877 0.203391 0.000000
0.530693 0.203934 0.000000
0.561639 0.204466 0.000000
0.592708 0.204988 0.000000
0.623893 0.205498 0.000000
0.655189 0.205997 0.000000
0.686590 0.206484 0.000000
0.718092 0.206960 0.000000
0.749689 0.207424 0.000000
0.781379 0.207877 0.000000
0.813156 0.208318 0.000000
0.845018 0.208749 0.000000
0.876960 0.209170 0.000000
0.908981 0.209581 0.000000
0.941076 0.209981 0.000000
0.973244 0.210373 0.000000
0.000000 0.201686 0.000000
0.025534 0.201848 0.000000
0.051242 0.202539 0.000000
0.077386 0.203915 0.000000
0.104256 0.206039 0.000000
0.132128 0.208898 0.000000
0.161206 0.212393 0.000000
0.191568 0.216339 0.000000
0.223099 0.220454 0.000000
0.255435 0.224361 0.000000
0.287910 0.227597 0.000000
0.319512 0.229617 0.000000
0.349558 0.230275 0.000000
0.379589 0.230823 0.000000
0.409778 0.231382 0.000000
0.440122 0.231948 0.000000
0.470613 0.232516 0.000000
0.501245 0.233083 0.000000
0.532014 0.233647 0.000000
0.562911 0.234205 0.000000
0.593933 0.234756 0.000000
0.625071 0.235299 0.000000
0.656322 0.235833 0.000000
0.687680 0.236357 0.000000
0.719140 0.236871 0.000000
0.750698 0.237375 0.000000
0.782349 0.237868 0.000000
0.814090 0.238352 0.000000
0.845917 0.238825 0.000000
0.877827 0.239288 0.000000
0.909817 0.239741 0.000000
0.941883 0.240184 0.000000
0.974023 0.240618 0.000000
0.000000 0.249094 0.000000
0.028020 0.249193 0.000000
0.056134 0.249608 0.000000
0.084475 0.250421 0.000000
0.113182 0.251640 0.000000
0.142354 0.253199 0.000000
0.172013 0.254960 0.000000
0.202049 0.256696 0.000000
0.232174 0.258099 0.000000
0.261907 0.258801 0.000000
0.291504 0.259242 0.000000
0.321242 0.259718 0.000000
0.351126 0.260222 0.000000
0.381157 0.260749 0.000000
0.411335 0.261294 0.000000
0.441656 0.261851 0.000000
0.472117 0.262417 0.000000
0.502715 0.262988 0.000000
0.533445 0.263560 0.000000
0.564302 0.264131 0.000000
0.595281 0.264700 0.000000
0.626377 0.265264 0.000000
0.657585 0.265822 0.000000
0.688901 0.266373 0.000000
0.720320 0.266917 0.000000
0.751838 0.267452 0.000000
0.783450 0.267979 0.000000
0.815154 0.268496 0.000000
0.846945 0.269004 0.000000
0.878821 0.269503 0.000000
0.910777 0.269993 0.000000
0.942812 0.270474 0.000000
0.974922 0.270945 0.000000
0.000000 0.287500 0.000000
0.029096 0.287509 0.000000
0.058200 0.287548 0.000000
0.087323 0.287626 0.000000
0.116481 0.287749 0.000000
0.145688 0.287921 0.000000
0.174960 0.288142 0.000000
0.204312 0.288414 0.000000
0.233758 0.288733 0.000000
0.263310 0.289097 0.000000
0.292977 0.289503 0.000000
0.322767 0.289945 0.000000
0.352685 0.290419 0.000000
0.382734 0.290920 0.000000
0.412917 0.291443 0.000000
0.443232 0.291984 0.000000
0.473679 0.292539 0.000000
0.504255 0.293103 0.000000
0.534957 0.293674 0.000000
0.565783 0.294249 0.000000
0.596727 0.294826 0.000000
0.627787 0.295401 0.000000
0.658957 0.295974 0.000000
0.690234 0.296543 0.000000
0.721615 0.297108 0.000000
0.753094 0.297666 0.000000
0.784669 0.298217 0.000000
0.816336 0.298762 0.000000
0.848091 0.299298 0.000000
0.879932 0.299827 0.000000
0.911855 0.300347 0.000000
0.943857 0.300860 0.000000
0.975935 0.301363 0.000000
0.000000 0.318185 0.000000
0.029274 0.318193 0.000000
0.058554 0.318228 0.000000
0.087850 0.318296 0.000000
0.117173 0.318405 0.000000
0.146536 0.318558 0.000000
0.175953 0.318755 0.000000
0.205435 0.318999 0.000000
0.234996 0.319287 0.000000
0.264645 0.319619 0.000000
0.294392 0.319992 0.000000
0.324246 0.320401 0.000000
0.354212 0.320845 0.000000
0.384296 0.321318 0.000000
0.414499 0.321816 0.000000
0.444823 0.322336 0.000000
0.475270 0.322873 0.000000
0.505837 0.323425 0.000000
0.536524 0.323988 0.000000
0.567328 0.324558 0.000000
0.598246 0.325134 0.000000
0.629277 0.325713 0.000000
0.660416 0.326293 0.000000
0.691660 0.326872 0.000000
0.723007 0.327449 0.000000
0.754451 0.328022 0.000000
0.785991 0.328592 0.000000
0.817623 0.329156 0.000000
0.849344 0.329714 0.000000
0.881150 0.330266 0.000000
0.913039 0.330811 0.000000
0.945009 0.331349 0.000000
0.977055 0.331880 0.000000
0.000000 0.349050 0.000000
0.029437 0.349057 0.000000
0.058879 0.349087 0.000000
0.088335 0.349149 0.000000
0.117812 0.349246 0.000000
0.147323 0.349382 0.000000
0.176877 0.349560 0.000000
0.206487 0.349780 0.000000
0.236162 0.350042 0.000000
0.265912 0.350345 0.000000
0.295747 0.350688 0.000000
0.325673 0.351067 0.000000
0.355698 0.351481 0.000000
0.385827 0.351925 0.000000
0.416064 0.352397 0.000000
0.446410 0.352893 0.000000
0.476868 0.353410 0.000000
0.507439 0.353945 0.000000
0.538121 0.354493 0.000000
0.568914 0.355054 0.000000
0.599817 0.355623 0.000000
0.630827 0.356198 0.000000
0.661942 0.356778 0.000000
0.693160 0.357360 0.000000
0.724477 0.357943 0.000000
0.755892 0.358526 0.000000
0.787400 0.359106 0.000000
0.819000 0.359684 0.000000
0.850689 0.360258 0.000000
0.882463 0.360827 0.000000
0.914320 0.361391 0.000000
0.946258 0.361950 0.000000
0.978273 0.362502 0.000000
0.000000 0.380079 0.000000
0.029588 0.380086 0.000000
0.059181 0.380113 0.000000
0.088784 0.380168 0.000000
0.118406 0.380256 0.000000
0.148055 0.380379 0.000000
0.177741 0.380540 0.000000
0.207474 0.380740 0.000000
0.237262 0.380979 0.000000
0.267114 0.381257 0.000000
0.297039 0.381572 0.000000
0.327044 0.381924 0.000000
0.357136 0.382309 0.000000
0.387319 0.382726 0.000000
0.417598 0.383172 0.000000
0.447977 0.383643 0.000000
0.478458 0.384138 0.000000
0.509043 0.384652 0.000000
0.539731 0.385183 0.000000
0.570523 0.385729 0.000000
0.601419 0.386287 0.000000
0.632417 0.386854 0.000000
0.663516 0.387429 0.000000
0.694714 0.388008 0.000000
0.726009 0.388592 0.000000
0.757399 0.389177 0.000000
0.788881 0.389763 0.000000
0.820453 0.390349 0.000000
0.852113 0.390933 0.000000
0.883858 0.391514 0.000000
0.915685 0.392092 0.000000
0.947593 0.392666 0.000000
0.979579 0.393235 0.000000
0.000000 0.411262 0.000000
0.029729 0.411268 0.000000
0.059461 0.411293 0.000000
0.089203 0.411343 0.000000
0.118960 0.411422 0.000000
0.148740 0.411534 0.000000
0.178552 0.411681 0.000000
0.208403 0.411863 0.000000
0.238301 0.412083 0.000000
0.268255 0.412338 0.000000
0.298272 0.412630 0.000000
0.328359 0.412956 0.000000
0.358522 0.413315 0.000000
0.388766 0.413706 0.000000
0.419096 0.414126 0.000000
0.449516 0.414573 0.000000
0.480028 0.415044 0.000000
0.510636 0.415537 0.000000
0.541339 0.416049 0.000000
0.572140 0.416578 0.000000
0.603038 0.417121 0.000000
0.634032 0.417676 0.000000
0.665123 0.418241 0.000000
0.696308 0.418814 0.000000
0.727587 0.419393 0.000000
0.758958 0.419977 0.000000
0.790419 0.420564 0.000000
0.821968 0.421152 0.000000
0.853603 0.421741 0.000000
0.885322 0.422329 0.000000
0.917123 0.422916 0.000000
0.949004 0.423500 0.000000
0.980962 0.424082 0.000000
0.000000 0.442588 0.000000
0.029860 0.442593 0.000000
0.059724 0.442616 0.000000
0.089595 0.442661 0.000000
0.119479 0.442734 0.000000
0.149384 0.442837 0.000000
0.179315 0.442971 0.000000
0.209280 0.443139 0.000000
0.239285 0.443340 0.000000
0.269339 0.443576 0.000000
0.299448 0.443846 0.000000
0.329618 0.444150 0.000000
0.359855 0.444485 0.000000
0.390165 0.444852 0.000000
0.420551 0.445247 0.000000
0.451018 0.445670 0.000000
0.481570 0.446118 0.000000
0.512208 0.446589 0.000000
0.542935 0.447081 0.000000
0.573751 0.447591 0.000000
0.604659 0.448117 0.000000
0.635658 0.448657 0.000000
0.666747 0.449210 0.000000
0.697928 0.449773 0.000000
0.729197 0.450344 0.000000
0.760555 0.450922 0.000000
0.792001 0.451505 0.000000
0.823532 0.452093 0.000000
0.855147 0.452682 0.000000
0.886844 0.453273 0.000000
0.918622 0.453865 0.000000
0.950479 0.454456 0.000000
0.982412 0.455045 0.000000
0.000000 0.474048 0.000000
0.029984 0.474053 0.000000
0.059970 0.474073 0.000000
0.089963 0.474115 0.000000
0.119968 0.474182 0.000000
0.149990 0.474276 0.000000
0.180035 0.474400 0.000000
0.210109 0.474555 0.000000
0.240219 0.474741 0.000000
0.270371 0.474960 0.000000
0.300571 0.475211 0.000000
0.330824 0.475493 0.000000
0.361138 0.475807 0.000000
0.391515 0.476151 0.000000
0.421962 0.476524 0.000000
0.452481 0.476924 0.000000
0.483077 0.477349 0.000000
0.513753 0.477798 0.000000
0.544509 0.478269 0.000000
0.575349 0.478759 0.000000
0.606274 0.479268 0.000000
0.637284 0.479792 0.000000
0.668379 0.480330 0.000000
0.699560 0.480880 0.000000
0.730827 0.481441 0.000000
0.762179 0.482010 0.000000
0.793614 0.482587 0.000000
0.825132 0.483169 0.000000
0.856732 0.483756 0.000000
0.888412 0.484346 0.000000
0.920171 0.484939 0.000000
0.952007 0.485532 0.000000
0.983919 0.486126 0.000000
0.000000 0.505634 0.000000
0.030100 0.505638 0.000000
0.060203 0.505657 0.000000
0.090311 0.505696 0.000000
0.120430 0.505758 0.000000
0.150563 0.505845 0.000000
0.180717 0.505959 0.000000
0.210896 0.506102 0.000000
0.241106 0.506275 0.000000
0.271353 0.506479 0.000000
0.301643 0.506712 0.000000
0.331980 0.506977 0.000000
0.362370 0.507271 0.000000
0.392818 0.507594 0.000000
0.423328 0.507945 0.000000
0.453903 0.508324 0.000000
0.484548 0.508727 0.000000
0.515265 0.509155 0.000000
0.546057 0.509605 0.000000
0.576926 0.510076 0.000000
0.607874 0.510566 0.000000
0.638901 0.511072 0.000000
0.670008 0.511595 0.000000
0.701197 0.512130 0.000000
0.732467 0.512678 0.000000
0.763817 0.513237 0.000000
0.795248 0.513804 0.000000
0.826759 0.514379 0.000000
0.858348 0.514960 0.000000
0.890015 0.515547 0.000000
0.921760 0.516137 0.000000
0.953579 0.516730 0.000000
0.985473 0.517325 0.000000
0.000000 0.537339 0.000000
0.030211 0.537343 0.000000
0.060423 0.537361 0.000000
0.090641 0.537397 0.000000
0.120867 0.537454 0.000000
0.151107 0.537535 0.000000
0.181364 0.537641 0.000000
0.211644 0.537774 0.000000
0.241951 0.537935 0.000000
0.272291 0.538125 0.000000
0.302669 0.538343 0.000000
0.333088 0.538591 0.000000
0.363555 0.538867 0.000000
0.394074 0.539171 0.000000
0.424648 0.539503 0.000000
0.455282 0.539861 0.000000
0.485979 0.540244 0.000000
0.516742 0.540651 0.000000
0.547574 0.541081 0.000000
0.578477 0.541532 0.000000
0.609453 0.542003 0.000000
0.640502 0.542492 0.000000
0.671628 0.542998 0.000000
0.702829 0.543518 0.000000
0.734107 0.544052 0.000000
0.765462 0.544597 0.000000
0.796894 0.545154 0.000000
0.828402 0.545719 0.000000
0.859986 0.546292 0.000000
0.891645 0.546872 0.000000
0.923378 0.547458 0.000000
0.955186 0.548047 0.000000
0.987065 0.548640 0.000000
0.000000 0.569157 0.000000
0.030315 0.569161 0.000000
0.060632 0.569178 0.000000
0.090954 0.569211 0.000000
0.121283 0.569264 0.000000
0.151624 0.569339 0.000000
0.181981 0.569438 0.000000
0.212357 0.569563 0.000000
0.242758 0.569713 0.000000
0.273188 0.569891 0.000000
0.303651 0.570095 0.000000
0.334152 0.570328 0.000000
0.364695 0.570587 0.000000
0.395285 0.570874 0.000000
0.425925 0.571187 0.000000
0.456620 0.571526 0.000000
0.487371 0.571890 0.000000
0.518183 0.572278 0.000000
0.549058 0.572689 0.000000
0.579999 0.573121 0.000000
0.611006 0.573573 0.000000
0.642084 0.574044 0.000000
0.673231 0.574533 0.000000
0.704450 0.575037 0.000000
0.735742 0.575556 0.000000
0.767106 0.576087 0.000000
0.798543 0.576631 0.000000
0.830053 0.577185 0.000000
0.861636 0.577749 0.000000
0.893292 0.578320 0.000000
0.925019 0.578899 0.000000
0.956818 0.579483 0.000000
0.988686 0.580072 0.000000
0.000000 0.601083 0.000000
0.030415 0.601087 0.000000
0.060832 0.601102 0.000000
0.091252 0.601133 0.000000
0.121679 0.601183 0.000000
0.152117 0.601253 0.000000
0.182569 0.601346 0.000000
0.213038 0.601462 0.000000
0.243529 0.601603 0.000000
0.274046 0.601769 0.000000
0.304593 0.601962 0.000000
0.335174 0.602180 0.000000
0.365793 0.602425 0.000000
0.396453 0.602696 0.000000
0.427160 0.602992 0.000000
0.457915 0.603314 0.000000
0.488723 0.603660 0.000000
0.519586 0.604029 0.000000
0.550507 0.604421 0.000000
0.581488 0.604835 0.000000
0.612532 0.605269 0.000000
0.643640 0.605722 0.000000
0.674814 0.606193 0.000000
0.706056 0.606681 0.000000
0.737365 0.607184 0.000000
0.768743 0.607702 0.000000
0.800190 0.608232 0.000000
0.831707 0.608774 0.000000
0.863293 0.609326 0.000000
0.894949 0.609887 0.000000
0.926674 0.610457 0.000000
0.958468 0.611034 0.000000
0.990330 0.611617 0.000000
0.000000 0.633111 0.000000
0.030510 0.633114 0.000000
0.061022 0.633129 0.000000
0.091537 0.633158 0.000000
0.122058 0.633204 0.000000
0.152588 0.633270 0.000000
0.183131 0.633357 0.000000
0.213689 0.633467 0.000000
0.244268 0.633599 0.000000
0.274869 0.633756 0.000000
0.305497 0.633937 0.000000
0.336156 0.634143 0.000000
0.366849 0.634374 0.000000
0.397581 0.634630 0.000000
0.428353 0.634911 0.000000
0.459171 0.635216 0.000000
0.490036 0.635545 0.000000
0.520951 0.635897 0.000000
0.551920 0.636272 0.000000
0.582945 0.636668 0.000000
0.614028 0.637084 0.000000
0.645170 0.637520 0.000000
0.676374 0.637974 0.000000
0.707641 0.638446 0.000000
0.738972 0.638933 0.000000
0.770367 0.639435 0.000000
0.801829 0.639951 0.000000
0.833356 0.640480 0.000000
0.864950 0.641020 0.000000
0.896610 0.641570 0.000000
0.928337 0.642130 0.000000
0.960129 0.642698 0.000000
0.991988 0.643273 0.000000
0.000000 0.665237 0.000000
0.030601 0.665240 0.000000
0.061203 0.665253 0.000000
0.091809 0.665281 0.000000
0.122420 0.665325 0.000000
0.153039 0.665387 0.000000
0.183669 0.665469 0.000000
0.214314 0.665571 0.000000
0.244976 0.665696 0.000000
0.275659 0.665844 0.000000
0.306367 0.666015 0.000000
0.337102 0.666209 0.000000
0.367868 0.666428 0.000000
0.398669 0.666671 0.000000
0.429508 0.666937 0.000000
0.460387 0.667227 0.000000
0.491310 0.667541 0.000000
0.522279 0.667876 0.000000
0.553298 0.668234 0.000000
0.584368 0.668613 0.000000
0.615492 0.669013 0.000000
0.646671 0.669432 0.000000
0.677908 0.669870 0.000000
0.709204 0.670325 0.000000
0.740559 0.670796 0.000000
0.771976 0.671284 0.000000
0.803455 0.671785 0.000000
0.834996 0.672300 0.000000
0.866601 0.672827 0.000000
0.898269 0.673365 0.000000
0.930001 0.673914 0.000000
0.961797 0.674472 0.000000
0.993656 0.675038 0.000000
0.000000 0.697456 0.000000
0.030688 0.697459 0.000000
0.061378 0.697472 0.000000
0.092070 0.697498 0.000000
0.122767 0.697539 0.000000
0.153471 0.697598 0.000000
0.184186 0.697675 0.000000
0.214914 0.697772 0.000000
0.245657 0.697890 0.000000
0.276420 0.698029 0.000000
0.307204 0.698191 0.000000
0.338014 0.698375 0.000000
0.368852 0.698582 0.000000
0.399721 0.698813 0.000000
0.430625 0.699066 0.000000
0.461566 0.699342 0.000000
0.492547 0.699641 0.000000
0.523571 0.699961 0.000000
0.554640 0.700303 0.000000
0.585757 0.700666 0.000000
0.616924 0.701050 0.000000
0.648142 0.701453 0.000000
0.679414 0.701874 0.000000
0.710741 0.702313 0.000000
0.742125 0.702769 0.000000
0.773566 0.703241 0.000000
0.805065 0.703728 0.000000
0.836624 0.704229 0.000000
0.868243 0.704743 0.000000
0.899923 0.705269 0.000000
0.931663 0.705805 0.000000
0.963465 0.706352 0.000000
0.995327 0.706909 0.000000
0.000000 0.729765 0.000000
0.030772 0.729768 0.000000
0.061545 0.729780 0.000000
0.092320 0.729805 0.000000
0.123100 0.729844 0.000000
0.153887 0.729899 0.000000
0.184683 0.729972 0.000000
0.215490 0.730064 0.000000
0.246312 0.730175 0.000000
0.277152 0.730307 0.000000
0.308011 0.730461 0.000000
0.338893 0.730636 0.000000
0.369801 0.730832 0.000000
0.400738 0.731051 0.000000
0.431706 0.731292 0.000000
0.462709 0.731555 0.000000
0.493748 0.731840 0.000000
0.524827 0.732146 0.000000
0.555948 0.732474 0.000000
0.587112 0.732822 0.000000
0.618323 0.733190 0.000000
0.649583 0.733577 0.000000
0.680892 0.733983 0.000000
0.712252 0.734407 0.000000
0.743666 0.734848 0.000000
0.775134 0.735305 0.000000
0.806657 0.735777 0.000000
0.838236 0.736264 0.000000
0.869872 0.736764 0.000000
0.901566 0.737277 0.000000
0.933318 0.737801 0.000000
0.965129 0.738337 0.000000
0.996998 0.738882 0.000000
0.000000 0.762161 0.000000
0.030852 0.762164 0.000000
0.061706 0.762175 0.000000
0.092561 0.762198 0.000000
0.123421 0.762235 0.000000
0.154287 0.762287 0.000000
0.185161 0.762357 0.000000
0.216046 0.762444 0.000000
0.246944 0.762549 0.000000
0.277858 0.762675 0.000000
0.308790 0.762820 0.000000
0.339743 0.762987 0.000000
0.370719 0.763174 0.000000
0.401722 0.763382 0.000000
0.432754 0.763612 0.000000
0.463817 0.763863 0.000000
0.494915 0.764135 0.000000
0.526049 0.764428 0.000000
0.557221 0.764741 0.000000
0.588434 0.765075 0.000000
0.619691 0.765428 0.000000
0.650992 0.765801 0.000000
0.682340 0.766192 0.000000
0.713736 0.766601 0.000000
0.745182 0.767026 0.000000
0.776678 0.767469 0.000000
0.808227 0.767927 0.000000
0.839830 0.768399 0.000000
0.871486 0.768886 0.000000
0.903197 0.769385 0.000000
0.934963 0.769897 0.000000
0.966786 0.770421 0.000000
0.998664 0.770955 0.000000
0.000000 0.794639 0.000000
0.030930 0.794642 0.000000
0.061861 0.794653 0.000000
0.092794 0.794675 0.000000
0.123730 0.794710 0.000000
0.154672 0.794760 0.000000
0.185622 0.794825 0.000000
0.216582 0.794908 0.000000
0.247553 0.795009 0.000000
0.278539 0.795128 0.000000
0.309542 0.795266 0.000000
0.340564 0.795424 0.000000
0.371608 0.795603 0.000000
