correction_luts/studio_balanced_baked.cube
# Baked chain LUT: studio_punch@0.8 + warm_shift@0.3 + sat_boost@0.5 + black_crush@0.15
# Generated by regenerate_luts.rb
# Color model: linear-light tone (v2)
#   studio_punch (Studio Punch - Subtle Contrast Boost) @ 0.8
#   warm_shift (Warm Shift - Add Warmth) @ 0.3
#   sat_boost (Saturation Boost - +15%) @ 0.5
#   black_crush (Black Crush - Shadow Floor) @ 0.15
TITLE "studio_punch@0.8 + warm_shift@0.3 + sat_boost@0.5 + black_crush@0.15"
LUT_3D_SIZE 9
0.000000 0.000000 0.000000
0.010022 0.000000 0.000000
0.101760 0.000000 0.000000
0.280108 0.000000 0.000000
0.463590 0.000000 0.000000
0.588932 0.000000 0.000000
0.715013 0.000000 0.000000
0.842453 0.000000 0.000000
0.971066 0.000000 0.000000
0.000000 0.030139 0.000000
0.041558 0.041065 0.000000
0.150442 0.074329 0.000000
0.305686 0.100687 0.000000
0.465879 0.115089 0.000000
0.590006 0.116602 0.000000
0.715865 0.117896 0.000000
0.843150 0.119022 0.000000
0.971652 0.120016 0.000000
0.000000 0.201686 0.000000
0.104256 0.206039 0.000000
0.223099 0.220454 0.000000
0.349558 0.230275 0.000000
0.470613 0.232516 0.000000
0.593933 0.234756 0.000000
0.719140 0.236871 0.000000
0.845917 0.238825 0.000000
0.974023 0.240618 0.000000
0.000000 0.349050 0.000000
0.117812 0.349246 0.000000
0.236162 0.350042 0.000000
0.355698 0.351481 0.000000
0.476868 0.353410 0.000000
0.599817 0.355623 0.000000
0.724477 0.357943 0.000000
0.850689 0.360258 0.000000
0.978273 0.362502 0.000000
0.000000 0.474048 0.000000
0.119968 0.474182 0.000000
0.240219 0.474741 0.000000
0.361138 0.475807 0.000000
0.483077 0.477349 0.000000
0.606274 0.479268 0.000000
0.730827 0.481441 0.000000
0.856732 0.483756 0.000000
0.983919 0.486126 0.000000
0.000000 0.601083 0.000000
0.121679 0.601183 0.000000
0.243529 0.601603 0.000000
0.365793 0.602425 0.000000
0.488723 0.603660 0.000000
0.612532 0.605269 0.000000
0.737365 0.607184 0.000000
0.863293 0.609326 0.000000
0.990330 0.611617 0.000000
0.000000 0.729765 0.000000
0.123100 0.729844 0.000000
0.246312 0.730175 0.000000
0.369801 0.730832 0.000000
0.493748 0.731840 0.000000
0.618323 0.733190 0.000000
0.743666 0.734848 0.000000
0.869872 0.736764 0.000000
0.996998 0.738882 0.000000
0.000000 0.859834 0.000000
0.124317 0.859898 0.000000
0.248712 0.860169 0.000000
0.373302 0.860710 0.000000
0.498222 0.861549 0.000000
0.623604 0.862693 0.000000
0.749568 0.864127 0.000000
0.876212 0.865822 0.000000
1.000000 0.875281 0.074548
0.000000 0.996696 0.000000
0.126127 0.997052 0.000000
0.252618 0.998489 0.000000
0.389297 1.000000 0.121754
0.531217 1.000000 0.225108
0.659879 1.000000 0.285595
0.776065 1.000000 0.294412
0.884499 0.998870 0.000000
0.996883 0.985063 0.000000
0.000000 0.000000 0.006499
0.011321 0.000000 0.011150
0.107946 0.000000 0.052533
0.282851 0.000000 0.091768
0.464045 0.000000 0.112916
0.589044 0.000000 0.114666
0.715101 0.000000 0.116004
0.842524 0.000000 0.117149
0.971126 0.000000 0.118152
0.000000 0.033889 0.033380
0.045148 0.044573 0.043854
0.156470 0.072977 0.071754
0.317140 0.094158 0.092515
0.479237 0.102028 0.100172
0.607932 0.098932 0.097052
0.738441 0.095550 0.093648
0.870443 0.091941 0.090022
1.000000 0.091854 0.089934
0.000000 0.203123 0.100038
0.102333 0.213698 0.099290
0.230204 0.227325 0.105568
0.358515 0.230250 0.104585
0.484062 0.228058 0.101181
0.611954 0.225786 0.097694
0.741806 0.223316 0.094075
0.873292 0.220620 0.090317
1.000000 0.222108 0.092587
0.000000 0.349117 0.114627
0.109272 0.358110 0.105892
0.236478 0.358921 0.106132
0.364764 0.360229 0.106407
0.490459 0.357725 0.102518
0.617990 0.355457 0.098658
0.747294 0.353240 0.094771
0.878205 0.350961 0.090825
1.000000 0.353126 0.097346
0.000000 0.474094 0.116746
0.106815 0.487632 0.103374
0.236070 0.488204 0.103496
0.366017 0.489297 0.103727
0.496822 0.490663 0.103848
0.624623 0.488083 0.099717
0.753828 0.485723 0.095600
0.884432 0.483465 0.091469
1.000000 0.483705 0.103669
0.000000 0.601117 0.118420
0.103826 0.619321 0.100336
0.234802 0.619753 0.100406
0.366205 0.620598 0.100542
0.498304 0.621867 0.100748
0.631058 0.623250 0.100744
0.760560 0.620611 0.096453
0.891195 0.618171 0.092168
1.000000 0.612881 0.110851
0.000000 0.729792 0.119808
0.100474 0.752747 0.096943
0.232918 0.753089 0.096987
0.365644 0.753765 0.097075
0.498846 0.754803 0.097208
0.632709 0.756194 0.097387
0.767051 0.757571 0.097277
0.897980 0.754884 0.092870
1.000000 0.740122 0.118323
0.000000 0.859856 0.120994
0.096859 0.887629 0.093294
0.230575 0.887908 0.093323
0.364490 0.888466 0.093382
0.498746 0.889332 0.093473
0.633485 0.890512 0.093597
0.768837 0.891990 0.093752
0.904519 0.893349 0.093546
1.000000 0.875366 0.141139
0.000000 0.996817 0.122733
0.123335 1.000000 0.119948
0.251658 1.000000 0.121549
0.390165 1.000000 0.166193
0.531626 1.000000 0.246619
0.660015 1.000000 0.300632
0.776000 1.000000 0.307812
0.885321 1.000000 0.121756
1.000000 0.988093 0.118007
0.000000 0.000000 0.027855
0.024122 0.000000 0.046958
0.129765 0.000000 0.126303
0.294013 0.000000 0.190779
0.465238 0.000000 0.226413
0.589513 0.000000 0.229514
0.715471 0.000000 0.232128
0.842827 0.000000 0.234383
0.971380 0.000000 0.236366
0.000000 0.048942 0.096416
0.056028 0.055288 0.115115
0.166968 0.077849 0.162269
0.326050 0.096762 0.206000
0.479747 0.102086 0.222273
0.608319 0.098940 0.220639
0.738741 0.095531 0.218542
0.870680 0.091907 0.216070
1.000000 0.092014 0.216132
0.000000 0.208842 0.205709
0.104715 0.218791 0.215327
0.227253 0.224359 0.220742
0.354680 0.226263 0.222544
0.480165 0.223948 0.220195
0.607972 0.221579 0.217791
0.737740 0.219032 0.215211
0.869149 0.216276 0.212423
1.000000 0.215243 0.211381
0.000000 0.349398 0.229438
0.109240 0.358275 0.229248
0.232336 0.354868 0.225557
0.360661 0.356123 0.226297
0.486355 0.353554 0.223034
0.613860 0.351220 0.219900
0.743123 0.348944 0.216781
0.873988 0.346612 0.213606
1.000000 0.348330 0.216615
0.000000 0.474287 0.233587
0.106738 0.487709 0.228884
0.231776 0.484007 0.224883
0.361752 0.485076 0.225379
0.492569 0.486409 0.225883
0.620366 0.483789 0.222230
0.749554 0.481388 0.218657
0.880134 0.479090 0.215108
1.000000 0.480865 0.223578
0.000000 0.601261 0.236897
0.103729 0.619347 0.227591
0.230411 0.615451 0.223424
0.361834 0.616284 0.223726
0.493946 0.617534 0.224181
0.626703 0.618893 0.224500
0.756199 0.616226 0.220596
0.886822 0.613759 0.216742
1.000000 0.611609 0.231498
0.000000 0.729906 0.239652
0.100367 0.752741 0.225662
0.228457 0.748707 0.221391
0.361197 0.749377 0.221589
0.494410 0.750403 0.221893
0.628277 0.751778 0.222299
0.762618 0.753138 0.222468
0.893541 0.750430 0.218385
1.000000 0.739881 0.239747
0.000000 0.859948 0.242014
0.096745 0.887600 0.223271
0.226060 0.883463 0.218926
0.359986 0.884016 0.219063
0.494249 0.884874 0.219276
0.628992 0.886044 0.219566
0.764346 0.887510 0.219929
0.900025 0.888854 0.219969
1.000000 0.875724 0.260196
0.000000 0.997328 0.245592
0.123876 1.000000 0.243986
0.251827 1.000000 0.245067
0.393808 1.000000 0.271308
0.533340 1.000000 0.317849
0.660572 1.000000 0.355382
0.775691 1.000000 0.357538
0.885196 1.000000 0.244251
1.000000 0.988067 0.238502
0.000000 0.000000 0.132375
0.054818 0.000000 0.160068
0.160560 0.000000 0.234415
0.313595 0.000000 0.305228
0.466416 0.000000 0.340479
0.590426 0.000000 0.344804
0.716203 0.000000 0.348547
0.843430 0.000000 0.351826
0.971889 0.000000 0.354735
0.000000 0.070444 0.208161
0.070203 0.069239 0.226265
0.180219 0.082371 0.269181
0.341406 0.101319 0.331855
0.480844 0.102319 0.345107
0.609203 0.099084 0.344720
0.739465 0.095624 0.343792
0.871284 0.091970 0.342391
1.000000 0.092573 0.342576
0.000000 0.218303 0.322543
0.103899 0.221403 0.334981
0.226637 0.223698 0.340619
0.355349 0.226643 0.345286
0.480808 0.224178 0.343847
0.608538 0.221701 0.342429
0.738219 0.219081 0.340834
0.869550 0.216274 0.338988
1.000000 0.215561 0.338451
0.000000 0.349946 0.344697
0.109408 0.358825 0.353180
0.232429 0.355134 0.349477
0.356767 0.352223 0.346544
0.482487 0.349552 0.343844
0.609970 0.347118 0.341376
0.739183 0.344754 0.338976
0.869987 0.342347 0.336533
1.000000 0.342009 0.336199
0.000000 0.474672 0.350664
0.106824 0.488101 0.354756
0.231713 0.484139 0.350645
0.357610 0.481021 0.347240
0.488467 0.482303 0.348105
0.616274 0.479622 0.344905
0.745451 0.477161 0.341850
0.876004 0.474805 0.338860
1.000000 0.477140 0.343744
0.000000 0.601551 0.355517
0.103778 0.619643 0.355114
0.230275 0.615495 0.350785
0.357541 0.612103 0.347042
0.489687 0.613326 0.347735
0.622463 0.614650 0.348368
0.751962 0.611943 0.344836
0.882577 0.609434 0.341403
1.000000 0.609973 0.352348
0.000000 0.730134 0.359591
0.100398 0.752975 0.354600
0.228281 0.748691 0.350137
0.356803 0.745098 0.346192
0.490042 0.746107 0.346661
0.623927 0.747461 0.347290
0.758277 0.748794 0.347732
0.889200 0.746058 0.343965
1.000000 0.739613 0.361331
0.000000 0.860135 0.363100
0.096766 0.887792 0.353440
0.225860 0.883403 0.348885
0.355518 0.879657 0.344807
0.489801 0.880505 0.345140
0.624560 0.881660 0.345592
0.759923 0.883109 0.346160
0.895606 0.884434 0.346443
1.000000 0.876434 0.384240
0.000000 0.998317 0.368753
0.124965 1.000000 0.368266
0.252904 1.000000 0.369294
0.400871 1.000000 0.390176
0.536646 1.000000 0.416963
0.661561 1.000000 0.439668
0.774914 1.000000 0.436035
0.884900 1.000000 0.366069
1.000000 0.988011 0.357938
0.000000 0.000000 0.302288
0.080854 0.000000 0.314787
0.188148 0.000000 0.366256
0.335853 0.000000 0.435856
0.468100 0.000000 0.455612
0.591786 0.000000 0.460798
0.717319 0.000000 0.465454
0.844363 0.000000 0.469620
0.972682 0.000000 0.473366
0.000000 0.087074 0.343072
0.080285 0.079137 0.360242
0.199958 0.089379 0.406862
0.350495 0.101302 0.461138
0.482427 0.102656 0.468970
0.610525 0.099299 0.469497
0.740571 0.095767 0.469530
0.872220 0.092069 0.469065
1.000000 0.093446 0.469048
0.000000 0.227574 0.448322
0.103042 0.224347 0.462536
0.225014 0.222041 0.462315
0.352573 0.223449 0.465245
0.481957 0.224714 0.468392
0.609596 0.222086 0.467762
0.739162 0.219361 0.467007
0.870382 0.216481 0.466003
1.000000 0.216451 0.465809
0.000000 0.350761 0.460667
0.105535 0.355523 0.473726
0.228791 0.351757 0.470187
0.353241 0.348690 0.467537
0.483029 0.349889 0.469308
0.610524 0.347347 0.467438
0.739709 0.344892 0.465702
0.870465 0.342412 0.463952
1.000000 0.342479 0.463764
0.000000 0.475265 0.468136
0.106956 0.488704 0.481039
0.231988 0.484714 0.477040
0.357640 0.481187 0.473497
0.484528 0.478358 0.470645
0.612363 0.475596 0.467854
0.741536 0.473052 0.465278
0.872063 0.470620 0.462810
1.000000 0.471992 0.464258
0.000000 0.602004 0.474379
0.103856 0.620107 0.482889
0.230443 0.615944 0.478635
0.357423 0.612162 0.474676
0.485537 0.609256 0.471502
0.618351 0.610533 0.472429
0.747864 0.607772 0.469249
0.878477 0.605208 0.466214
1.000000 0.607767 0.473475
0.000000 0.730494 0.479691
0.100447 0.753345 0.483704
0.228391 0.749052 0.479293
0.356600 0.745076 0.475082
0.485750 0.741929 0.471576
0.619669 0.743254 0.472418
0.754040 0.744553 0.473124
0.884971 0.741779 0.469660
1.000000 0.739328 0.483133
0.000000 0.860431 0.484300
0.096799 0.888096 0.483726
0.225936 0.883702 0.479208
0.355261 0.879575 0.474832
0.485408 0.876237 0.471109
0.620194 0.877373 0.471720
0.755578 0.878799 0.472487
0.891273 0.880098 0.473005
1.000000 0.877513 0.508197
0.000000 0.999762 0.492383
0.128862 1.000000 0.492773
0.274313 1.000000 0.499434
0.411254 1.000000 0.511580
0.541428 1.000000 0.526983
0.662720 1.000000 0.539165
0.773218 1.000000 0.530618
0.884225 1.000000 0.486850
1.000000 0.987892 0.475821
0.000000 0.000000 0.471896
0.099546 0.000000 0.484451
0.217007 0.000000 0.528043
0.349049 0.000000 0.566228
0.470167 0.000000 0.572028
0.593542 0.000000 0.577706
0.718803 0.000000 0.583021
0.845627 0.000000 0.587904
0.973771 0.000000 0.592369
0.000000 0.103508 0.509775
0.090953 0.089598 0.532894
0.217589 0.094984 0.564928
0.350700 0.098333 0.584846
0.480565 0.099247 0.590282
0.612240 0.099578 0.595193
0.742046 0.095958 0.595937
0.873490 0.092203 0.596239
1.000000 0.094644 0.595422
0.000000 0.230686 0.568065
0.099880 0.222481 0.585444
0.221865 0.218877 0.582961
0.349693 0.220049 0.586082
0.479581 0.221549 0.590076
0.610992 0.222595 0.593857
0.740431 0.219737 0.593762
0.871516 0.216763 0.593465
1.000000 0.217676 0.593053
0.000000 0.351812 0.577559
0.101513 0.352237 0.595016
0.225080 0.348384 0.591581
0.349744 0.345181 0.589155
0.480120 0.346709 0.591763
0.611541 0.347926 0.594266
0.740700 0.345354 0.593089
0.871400 0.342779 0.591946
1.000000 0.343640 0.591578
0.000000 0.476063 0.586153
0.103005 0.485388 0.603763
0.228226 0.481356 0.599851
0.354029 0.477759 0.596484
0.480966 0.474787 0.593849
0.612804 0.475877 0.595365
0.742000 0.473250 0.593228
0.872521 0.470742 0.591250
1.000000 0.472595 0.591699
0.000000 0.602626 0.593587
0.103963 0.620745 0.611026
0.230674 0.616562 0.606837
0.357765 0.612748 0.603011
0.485480 0.609309 0.599553
0.614372 0.606548 0.596769
0.743913 0.603719 0.593911
0.874530 0.601087 0.591246
1.000000 0.604532 0.594952
0.000000 0.730995 0.600025
0.100516 0.753860 0.613053
0.228544 0.749556 0.608689
0.356832 0.745560 0.604574
0.485556 0.741894 0.600725
0.615508 0.739165 0.597749
0.749913 0.740421 0.598702
0.880860 0.737598 0.595526
1.000000 0.739049 0.605212
0.000000 0.860844 0.605665
0.096846 0.888522 0.614185
0.226044 0.884121 0.609702
0.355426 0.879982 0.605398
0.485126 0.876130 0.601288
0.615902 0.873190 0.597998
0.751316 0.874587 0.598955
0.887981 0.876790 0.600340
1.000000 0.878917 0.630657
0.151254 1.000000 0.621187
0.193529 1.000000 0.622090
0.300863 1.000000 0.625797
0.424164 1.000000 0.632519
0.547103 1.000000 0.640733
0.663386 1.000000 0.645687
0.769716 1.000000 0.633693
0.882664 1.000000 0.606106
1.000000 0.987634 0.591541
0.000000 0.000000 0.659184
0.113905 0.000000 0.665194
0.232681 0.000000 0.679420
0.351488 0.000000 0.684222
0.472474 0.000000 0.689803
0.595608 0.000000 0.695660
0.720610 0.000000 0.701384
0.847200 0.000000 0.706797
0.975146 0.000000 0.711847
0.000000 0.114226 0.675079
0.095074 0.093594 0.699092
0.221033 0.094088 0.702782
0.348619 0.094665 0.707097
0.478451 0.095384 0.712464
0.610514 0.096152 0.718200
0.743846 0.096191 0.723160
0.875074 0.092370 0.724039
1.000000 0.096160 0.721562
0.000000 0.232120 0.685915
0.096195 0.219538 0.707669
0.218775 0.215771 0.705116
0.346963 0.216729 0.708248
0.476956 0.217998 0.712395
0.608904 0.219435 0.717090
0.741996 0.220202 0.721237
0.872939 0.217117 0.721496
1.000000 0.219231 0.720019
0.000000 0.353048 0.695505
0.097515 0.349107 0.717384
0.221458 0.345163 0.713999
0.346394 0.341818 0.711703
0.476928 0.343186 0.714551
0.608997 0.344840 0.717995
0.741942 0.345933 0.721058
0.872584 0.343245 0.720418
1.000000 0.345122 0.719081
0.000000 0.477050 0.704842
0.098810 0.481979 0.726910
0.224268 0.477899 0.723059
0.350265 0.474223 0.719826
0.477337 0.471148 0.717404
0.609864 0.472738 0.719824
0.742935 0.473846 0.721896
0.873456 0.471246 0.720345
1.000000 0.473929 0.719240
0.000000 0.603416 0.713238
0.099979 0.617435 0.735510
0.226846 0.613226 0.731373
0.354074 0.609367 0.727654
0.481897 0.605867 0.724367
0.610797 0.602965 0.721746
0.744263 0.603939 0.723057
0.874907 0.601238 0.720738
1.000000 0.605297 0.721311
0.000000 0.731639 0.720665
0.100604 0.754522 0.742723
0.228742 0.750204 0.738400
0.357131 0.746185 0.734372
0.485944 0.742487 0.730658
0.615349 0.739098 0.727250
0.745899 0.736400 0.724527
0.876872 0.733519 0.721617
1.000000 0.738839 0.727625
0.000000 0.861381 0.727252
0.096906 0.889075 0.744876
0.226183 0.884665 0.740423
0.355640 0.880511 0.736185
0.485408 0.876639 0.732180
0.615618 0.873049 0.728410
0.747142 0.870477 0.725612
0.886765 0.875532 0.729760
1.000000 0.880513 0.750916
0.216812 1.000000 0.746284
0.243982 1.000000 0.746735
0.328359 1.000000 0.748571
0.438015 1.000000 0.751789
0.552411 1.000000 0.755267
0.662214 1.000000 0.755548
0.762660 1.000000 0.742313
0.878675 1.000000 0.723177
0.995146 0.982588 0.709189
0.000000 0.000000 0.796698
0.117019 0.000000 0.797277
0.234717 0.000000 0.799592
0.353864 0.000000 0.803654
0.474902 0.000000 0.808905
0.597891 0.000000 0.814715
0.722678 0.000000 0.820630
0.849047 0.000000 0.826394
0.976788 0.000000 0.831887
0.000000 0.115821 0.798586
0.091772 0.090277 0.824738
0.218441 0.090519 0.826944
0.346495 0.090947 0.830855
0.476436 0.091508 0.835979
0.608388 0.092136 0.841719
0.742239 0.092782 0.847622
0.876935 0.092567 0.852568
1.000000 0.097972 0.847331
0.000000 0.233565 0.805214
0.092465 0.216561 0.831385
0.215677 0.212656 0.828710
0.344294 0.213433 0.831738
0.474470 0.214494 0.835873
0.606418 0.215733 0.840701
0.740128 0.217054 0.845847
0.874623 0.217536 0.850195
1.000000 0.221097 0.846545
0.000000 0.354412 0.814558
0.093522 0.346074 0.840888
0.217888 0.342041 0.837509
0.343145 0.338555 0.835261
0.473885 0.339763 0.838242
0.606037 0.341248 0.841905
0.739701 0.342908 0.846003
0.874000 0.343802 0.849464
1.000000 0.346913 0.846084
0.000000 0.478199 0.824295
0.094629 0.478714 0.850843
0.220365 0.474582 0.847031
0.346595 0.470822 0.843890
0.473837 0.467636 0.841622
0.606473 0.469108 0.844270
0.740323 0.470828 0.847366
0.874586 0.471856 0.849905
1.000000 0.475553 0.846225
0.000000 0.604363 0.833416
0.095670 0.613933 0.860199
0.222725 0.609694 0.856100
0.350118 0.605785 0.852469
0.478076 0.602215 0.849320
0.607073 0.599231 0.846893
0.741342 0.600859 0.849194
0.875786 0.601843 0.850942
1.000000 0.606718 0.847438
0.000000 0.732425 0.841678
0.096614 0.751231 0.868690
0.224884 0.746895 0.864400
0.353393 0.742845 0.860443
0.482311 0.739104 0.856844
0.611799 0.735661 0.853595
0.742327 0.732820 0.850992
0.877137 0.733673 0.852123
1.000000 0.739948 0.850991
0.000000 0.862042 0.849111
0.096980 0.889755 0.875854
0.226354 0.885335 0.871429
0.355903 0.881164 0.867250
0.485755 0.877266 0.863341
0.616039 0.873646 0.859703
0.746873 0.870287 0.856323
0.885616 0.874338 0.860241
1.000000 0.882023 0.868793
0.264566 1.000000 0.867273
0.284705 1.000000 0.867431
0.353344 1.000000 0.868054
0.450135 1.000000 0.869043
0.554970 1.000000 0.869696
0.656566 1.000000 0.867933
0.755488 1.000000 0.859862
0.870397 0.991852 0.845337
0.984707 0.972224 0.828544
0.000000 0.000000 0.918327
0.118000 0.000000 0.918812
0.236508 0.000000 0.920791
0.356147 0.000000 0.924386
0.477360 0.000000 0.929248
0.600308 0.000000 0.934867
0.724944 0.000000 0.940803
0.851120 0.000000 0.946757
0.978667 0.000000 0.952556
0.000000 0.116742 0.919925
0.088172 0.086665 0.950515
0.215674 0.086841 0.952439
0.344265 0.087162 0.955959
0.474428 0.087599 0.960757
0.606373 0.088109 0.966349
0.740087 0.088652 0.972302
0.875441 0.089199 0.978309
1.000000 0.100046 0.972606
0.000000 0.234976 0.925807
0.088674 0.213507 0.956440
0.212527 0.209489 0.953621
0.341622 0.210119 0.956486
0.472052 0.211001 0.960502
0.604064 0.212060 0.965323
0.737715 0.213218 0.970595
0.872935 0.214414 0.976040
1.000000 0.223245 0.972477
0.000000 0.355855 0.934712
0.089516 0.343084 0.965526
0.214338 0.338968 0.962120
0.339956 0.335349 0.959858
0.470945 0.336406 0.962884
0.603219 0.337726 0.966662
0.736904 0.339226 0.970955
0.872012 0.340829 0.975544
1.000000 0.348989 0.972406
0.000000 0.479478 0.944571
0.090452 0.475556 0.975624
0.216501 0.471373 0.971829
0.342997 0.467526 0.968740
0.470441 0.464226 0.966570
0.603214 0.465576 0.969382
0.737131 0.467169 0.972697
0.872267 0.468933 0.976371
1.000000 0.477452 0.972444
0.000000 0.605450 0.954189
0.091368 0.610559 0.985501
0.218639 0.606287 0.981430
0.346227 0.602324 0.977863
0.474345 0.598680 0.974822
0.603460 0.595607 0.972549
0.737811 0.597143 0.975058
0.873164 0.598898 0.977923
1.000000 0.608395 0.972679
0.000000 0.733344 0.963125
0.092220 0.747656 0.994693
0.220644 0.743299 0.990429
0.349297 0.739215 0.986532
0.478338 0.735425 0.983029
0.607926 0.731923 0.979915
0.738529 0.729013 0.977488
0.874264 0.730669 0.979708
1.000000 0.741231 0.973483
0.000000 0.862825 0.971295
0.096106 0.884184 1.000000
0.222488 0.882060 0.998704
0.352145 0.877866 0.994575
0.482093 0.873937 0.990747
0.612460 0.870276 0.987223
0.744388 0.868069 0.985352
0.884838 0.873518 0.989029
1.000000 0.882914 0.985000
0.297492 1.000000 0.985000
0.313508 1.000000 0.985000
0.370824 1.000000 0.985000
0.455869 1.000000 0.985000
0.550150 1.000000 0.985000
0.640907 1.000000 0.985000
0.748190 1.000000 0.984327
0.864346 0.985079 0.969262
0.972492 0.960108 0.944628
