correction_luts/studio_film_baked.cube
# Baked chain LUT: film_contrast@0.6 + warm_shift@0.2 + sat_reduce@0.3 + black_crush@0.4
# Generated by regenerate_luts.rb
# Color model: linear-light tone (v2)
#   film_contrast (Film Contrast - Stronger Filmic Look) @ 0.6
#   warm_shift (Warm Shift - Add Warmth) @ 0.2
#   sat_reduce (Saturation Reduce - -15%) @ 0.3
#   black_crush (Black Crush - Shadow Floor) @ 0.4
TITLE "film_contrast@0.6 + warm_shift@0.2 + sat_reduce@0.3 + black_crush@0.4"
LUT_3D_SIZE 33
0.000000 0.000000 0.000000
0.000019 0.000000 0.000000
0.000133 0.000003 0.000003
0.000412 0.000009 0.000009
0.000921 0.000021 0.000021
0.001721 0.000040 0.000040
0.002869 0.000066 0.000066
0.005344 0.000123 0.000123
0.011190 0.000258 0.000258
0.022191 0.000511 0.000511
0.039634 0.000912 0.000912
0.063511 0.001462 0.001462
0.118616 0.002730 0.002730
0.212321 0.004887 0.004887
0.295306 0.006797 0.006797
0.360035 0.008287 0.008287
0.419103 0.009647 0.009647
0.465354 0.010711 0.010711
0.496586 0.011430 0.011430
0.526731 0.012124 0.012124
0.557019 0.012821 0.012821
0.587444 0.013522 0.013522
0.618000 0.014225 0.014225
0.648680 0.014931 0.014931
0.679482 0.015640 0.015640
0.710399 0.016352 0.016352
0.741427 0.017066 0.017066
0.772563 0.017783 0.017783
0.803803 0.018502 0.018502
0.835144 0.019223 0.019223
0.866582 0.019947 0.019947
0.898114 0.020673 0.020673
0.929739 0.021401 0.021401
0.000001 0.000047 0.000001
0.000058 0.000058 0.000001
0.000193 0.000099 0.000004
0.000487 0.000169 0.000011
0.001008 0.000269 0.000023
0.001817 0.000396 0.000042
0.002982 0.000552 0.000069
0.005651 0.000913 0.000130
0.011736 0.001692 0.000270
0.022991 0.003005 0.000529
0.040645 0.004875 0.000936
0.064664 0.007186 0.001488
0.122417 0.012705 0.002818
0.216440 0.021119 0.004982
0.297890 0.027480 0.006857
0.362154 0.031737 0.008336
0.420495 0.035151 0.009679
0.465766 0.037276 0.010721
0.496647 0.038174 0.011432
0.526788 0.038998 0.012126
0.557072 0.039819 0.012823
0.587494 0.040638 0.013523
0.618046 0.041455 0.014226
0.648725 0.042270 0.014932
0.679523 0.043083 0.015641
0.710438 0.043896 0.016353
0.741465 0.044707 0.017067
0.772599 0.045518 0.017784
0.803837 0.046328 0.018503
0.835176 0.047137 0.019224
0.866613 0.047946 0.019948
0.898144 0.048754 0.020673
0.929767 0.049562 0.021401
0.000008 0.000328 0.000008
0.000175 0.000342 0.000008
0.000399 0.000398 0.000009
0.000763 0.000514 0.000018
0.001338 0.000682 0.000031
0.002192 0.000903 0.000050
0.003622 0.001256 0.000083
0.007088 0.002126 0.000163
0.014139 0.003751 0.000325
0.026372 0.006287 0.000607
0.044776 0.009710 0.001031
0.070835 0.014113 0.001630
0.137015 0.025287 0.003154
0.230275 0.039637 0.005300
0.305511 0.049334 0.007032
0.368222 0.056061 0.008476
0.424320 0.061175 0.009767
0.466717 0.063961 0.010743
0.496905 0.064950 0.011438
0.527028 0.065901 0.012131
0.557297 0.066843 0.012828
0.587705 0.067777 0.013528
0.618245 0.068705 0.014231
0.648912 0.069627 0.014937
0.679701 0.070544 0.015645
0.710607 0.071456 0.016357
0.741625 0.072363 0.017071
0.772751 0.073267 0.017787
0.803983 0.074166 0.018506
0.835315 0.075062 0.019227
0.866746 0.075956 0.019951
0.898272 0.076846 0.020676
0.929890 0.077734 0.021404
0.000023 0.001016 0.000023
0.000361 0.001033 0.000024
0.000744 0.001101 0.000025
0.001238 0.001234 0.000028
0.001932 0.001455 0.000044
0.003153 0.001912 0.000073
0.005725 0.002907 0.000132
0.010750 0.004713 0.000247
0.019603 0.007576 0.000451
0.033532 0.011605 0.000772
0.053085 0.016657 0.001222
0.089357 0.025677 0.002057
0.166319 0.044129 0.003828
0.253447 0.062522 0.005834
0.318746 0.073538 0.007337
0.378378 0.082056 0.008709
0.430231 0.088089 0.009903
0.467485 0.090719 0.010761
0.497418 0.091801 0.011450
0.527508 0.092870 0.012142
0.557747 0.093926 0.012838
0.588128 0.094970 0.013537
0.618644 0.096005 0.014240
0.649289 0.097029 0.014945
0.680058 0.098045 0.015654
0.710946 0.099053 0.016364
0.741947 0.100053 0.017078
0.773059 0.101046 0.017794
0.804276 0.102033 0.018513
0.835596 0.103015 0.019234
0.867014 0.103990 0.019957
0.898529 0.104961 0.020682
0.930136 0.105927 0.021410
0.000057 0.002462 0.000057
0.000671 0.002501 0.000058
0.001372 0.002672 0.000062
0.002326 0.003064 0.000071
0.003830 0.003811 0.000088
0.006449 0.005152 0.000148
0.010919 0.007307 0.000251
0.018248 0.010526 0.000420
0.029488 0.014969 0.000679
0.045378 0.020592 0.001045
0.070319 0.028881 0.001619
0.128761 0.048345 0.002964
0.208783 0.072259 0.004806
0.278707 0.089532 0.006415
0.336742 0.101003 0.007751
0.391317 0.110147 0.009007
0.436493 0.115812 0.010047
0.468332 0.117585 0.010780
0.498211 0.118774 0.011468
0.528252 0.119948 0.012159
0.558448 0.121107 0.012854
0.588789 0.122252 0.013553
0.619269 0.123384 0.014254
0.649881 0.124504 0.014959
0.680620 0.125612 0.015666
0.711479 0.126711 0.016377
0.742456 0.127799 0.017090
0.773543 0.128878 0.017805
0.804739 0.129949 0.018523
0.836039 0.131011 0.019244
0.867439 0.132066 0.019967
0.898936 0.133114 0.020692
0.930528 0.134156 0.021419
0.000189 0.008197 0.000189
0.001827 0.008304 0.000191
0.003652 0.008759 0.000202
0.005963 0.009714 0.000224
0.009183 0.011325 0.000261
0.013878 0.013770 0.000319
0.020867 0.017334 0.000480
0.030830 0.022053 0.000710
0.044363 0.027895 0.001021
0.068373 0.038390 0.001574
0.118085 0.059944 0.002718
0.185770 0.086119 0.004276
0.250641 0.106989 0.005769
0.304278 0.120433 0.007004
0.356985 0.131789 0.008217
0.404078 0.139849 0.009301
0.439838 0.143344 0.010124
0.469472 0.144637 0.010806
0.499285 0.145915 0.011492
0.529266 0.147177 0.012183
0.559406 0.148424 0.012876
0.589696 0.149657 0.013574
0.620129 0.150876 0.014274
0.650698 0.152081 0.014978
0.681397 0.153274 0.015684
0.712220 0.154455 0.016394
0.743163 0.155624 0.017106
0.774219 0.156783 0.017821
0.805386 0.157932 0.018538
0.836658 0.159071 0.019258
0.868033 0.160201 0.019980
0.899507 0.161322 0.020705
0.931077 0.162435 0.021431
0.000528 0.022948 0.000528
0.004327 0.023120 0.000532
0.008374 0.023837 0.000549
0.013035 0.025291 0.000582
0.018768 0.027618 0.000636
0.026082 0.030915 0.000712
0.035515 0.035240 0.000817
0.052193 0.044561 0.001201
0.082711 0.062028 0.001904
0.128312 0.085863 0.002953
0.183027 0.110650 0.004213
0.234275 0.129246 0.005393
0.281991 0.143148 0.006491
0.330186 0.155305 0.007600
0.375063 0.164428 0.008633
0.411857 0.169153 0.009480
0.441321 0.170561 0.010158
0.470879 0.171917 0.010839
0.500621 0.173262 0.011523
0.530535 0.174594 0.012212
0.560612 0.175913 0.012904
0.590844 0.177218 0.013600
0.621223 0.178510 0.014299
0.651741 0.179789 0.015002
0.682393 0.181056 0.015707
0.713172 0.182310 0.016416
0.744073 0.183552 0.017127
0.775091 0.184783 0.017841
0.806222 0.186003 0.018558
0.837461 0.187213 0.019277
0.868804 0.188412 0.019998
0.900249 0.189602 0.020722
0.931790 0.190782 0.021448
0.001221 0.053025 0.001221
0.008757 0.053495 0.001231
0.016868 0.055417 0.001276
0.026475 0.059485 0.001369
0.038925 0.066452 0.001530
0.055954 0.077025 0.001773
0.079297 0.091447 0.002105
0.109830 0.108978 0.002528
0.147488 0.128475 0.003395
0.186755 0.145083 0.004299
0.225839 0.158421 0.005198
0.267663 0.171251 0.006161
0.310176 0.182508 0.007140
0.350440 0.190958 0.008066
0.384623 0.195247 0.008853
0.413733 0.196657 0.009523
0.443027 0.198058 0.010198
0.472516 0.199454 0.010876
0.502188 0.200845 0.011559
0.532035 0.202227 0.012246
0.562047 0.203600 0.012937
0.592217 0.204963 0.013632
0.622537 0.206314 0.014330
0.653000 0.207654 0.015031
0.683599 0.208983 0.015735
0.714329 0.210300 0.016442
0.745183 0.211605 0.017153
0.776158 0.212899 0.017866
0.807247 0.214183 0.018581
0.838447 0.215455 0.019299
0.869754 0.216718 0.020020
0.901163 0.217970 0.020743
0.932673 0.219212 0.021468
0.003209 0.139428 0.003209
0.020461 0.140032 0.003223
0.038294 0.142242 0.003274
0.057429 0.146385 0.003369
0.078522 0.152347 0.003507
0.101846 0.159503 0.003671
0.127064 0.166835 0.003840
0.154838 0.175015 0.004028
0.185575 0.184136 0.004272
0.220223 0.194799 0.005069
0.256644 0.204905 0.005907
0.293275 0.213478 0.006751
0.327825 0.219371 0.007546
0.357791 0.221639 0.008236
0.386627 0.223031 0.008899
0.415668 0.224435 0.009568
0.444906 0.225849 0.010241
0.474335 0.227266 0.010918
0.503946 0.228684 0.011600
0.533731 0.230099 0.012285
0.563682 0.231509 0.012975
0.593791 0.232913 0.013668
0.624052 0.234309 0.014364
0.654458 0.235697 0.015064
0.685003 0.237075 0.015767
0.715680 0.238444 0.016473
0.746485 0.239802 0.017183
0.777412 0.241150 0.017894
0.808456 0.242488 0.018609
0.839613 0.243816 0.019326
0.870879 0.245134 0.020046
0.902250 0.246442 0.020768
0.933722 0.247740 0.021492
0.004831 0.209901 0.004831
0.027843 0.210230 0.004839
0.051113 0.211331 0.004864
0.074960 0.213388 0.004912
0.099725 0.216462 0.004982
0.125716 0.220504 0.005076
0.153133 0.225345 0.005187
0.182002 0.230682 0.005310
0.212080 0.236065 0.005434
0.242845 0.240962 0.005590
0.273916 0.245244 0.006305
0.302815 0.247104 0.006970
0.331246 0.248414 0.007625
0.359872 0.249759 0.008283
0.388693 0.251132 0.008947
0.417707 0.252527 0.009615
0.446908 0.253937 0.010287
0.476292 0.255359 0.010963
0.505854 0.256788 0.011644
0.535586 0.258220 0.012328
0.565482 0.259653 0.013016
0.595536 0.261084 0.013708
0.625742 0.262511 0.014403
0.656093 0.263934 0.015102
0.686584 0.265350 0.015804
0.717209 0.266759 0.016509
0.747963 0.268160 0.017217
0.778841 0.269552 0.017927
0.809838 0.270936 0.018641
0.840950 0.272310 0.019357
0.872172 0.273676 0.020076
0.903502 0.275032 0.020797
0.934934 0.276379 0.021520
0.006141 0.266772 0.006141
0.032430 0.266917 0.006144
0.058820 0.267391 0.006155
0.085423 0.268240 0.006174
0.112331 0.269419 0.006201
0.139565 0.270781 0.006233
0.167020 0.272066 0.006262
0.194397 0.272886 0.006281
0.221616 0.273311 0.006291
0.248972 0.273796 0.006302
0.276531 0.274387 0.006365
0.304837 0.275614 0.007017
0.333315 0.276887 0.007672
0.361967 0.278200 0.008332
0.390797 0.279546 0.008995
0.419805 0.280921 0.009663
0.448988 0.282317 0.010335
0.478345 0.283731 0.011011
0.507872 0.285159 0.011690
0.537563 0.286595 0.012374
0.567415 0.288038 0.013061
0.597422 0.289484 0.013751
0.627578 0.290930 0.014446
0.657880 0.292376 0.015143
0.688320 0.293818 0.015844
0.718895 0.295257 0.016547
0.749600 0.296690 0.017254
0.780429 0.298117 0.017964
0.811379 0.299538 0.018676
0.842445 0.300951 0.019391
0.873623 0.302356 0.020109
0.904910 0.303753 0.020829
0.936301 0.305142 0.021552
0.006938 0.301413 0.006938
0.033924 0.301424 0.006938
0.060919 0.301469 0.006939
0.087935 0.301561 0.006941
0.114988 0.301706 0.006945
0.142095 0.301909 0.006949
0.169271 0.302173 0.006955
0.196535 0.302497 0.006963
0.223901 0.302882 0.006972
0.251384 0.303325 0.006982
0.278996 0.303822 0.006993
0.306804 0.304425 0.007062
0.335347 0.305661 0.007719
0.364046 0.306939 0.008380
0.392905 0.308255 0.009044
0.421926 0.309603 0.009712
0.451110 0.310978 0.010384
0.480457 0.312376 0.011059
0.509964 0.313793 0.011738
0.539628 0.315224 0.012421
0.569447 0.316666 0.013107
0.599417 0.318116 0.013797
0.629533 0.319571 0.014491
0.659792 0.321029 0.015187
0.690188 0.322489 0.015887
0.720718 0.323947 0.016589
0.751376 0.325403 0.017295
0.782160 0.326856 0.018004
0.813064 0.328304 0.018715
0.844086 0.329747 0.019429
0.875220 0.331185 0.020146
0.906463 0.332616 0.020865
0.937813 0.334040 0.021586
0.007628 0.331400 0.007628
0.034826 0.331409 0.007628
0.062031 0.331450 0.007629
0.089254 0.331531 0.007631
0.116507 0.331661 0.007634
0.143805 0.331844 0.007638
0.171160 0.332081 0.007644
0.198589 0.332375 0.007651
0.226103 0.332725 0.007659
0.253718 0.333130 0.007668
0.281443 0.333588 0.007679
0.309289 0.334096 0.007690
0.337327 0.334711 0.007765
0.366087 0.335955 0.008427
0.394992 0.337238 0.009092
0.424044 0.338557 0.009761
0.453245 0.339906 0.010433
0.482597 0.341283 0.011108
0.512100 0.342682 0.011787
0.541752 0.344100 0.012470
0.571551 0.345534 0.013156
0.601494 0.346980 0.013845
0.631580 0.348435 0.014538
0.661804 0.349897 0.015233
0.692163 0.351364 0.015932
0.722653 0.352834 0.016634
0.753271 0.354304 0.017339
0.784013 0.355774 0.018046
0.814876 0.357243 0.018757
0.845855 0.358708 0.019470
0.876947 0.360170 0.020185
0.908149 0.361628 0.020904
0.939457 0.363080 0.021624
0.008324 0.361612 0.008324
0.035718 0.361620 0.008324
0.063118 0.361657 0.008325
0.090534 0.361731 0.008326
0.117974 0.361848 0.008329
0.145452 0.362013 0.008333
0.172979 0.362228 0.008338
0.200567 0.362496 0.008344
0.228228 0.362816 0.008351
0.255975 0.363188 0.008360
0.283818 0.363611 0.008370
0.311767 0.364082 0.008380
0.339829 0.364599 0.008392
0.368079 0.365225 0.008472
0.397042 0.366476 0.009139
0.426139 0.367765 0.009809
0.455372 0.369086 0.010482
0.484744 0.370438 0.011158
0.514256 0.371815 0.011837
0.543908 0.373215 0.012520
0.573699 0.374635 0.013205
0.603628 0.376070 0.013894
0.633693 0.377519 0.014586
0.663892 0.378978 0.015281
0.694222 0.380445 0.015980
0.724681 0.381919 0.016681
0.755264 0.383396 0.017385
0.785970 0.384876 0.018091
0.816795 0.386358 0.018801
0.847736 0.387839 0.019513
0.878789 0.389318 0.020228
0.909952 0.390795 0.020945
0.941221 0.392270 0.021665
0.009024 0.392034 0.009024
0.036601 0.392042 0.009024
0.064184 0.392075 0.009025
0.091779 0.392142 0.009026
0.119396 0.392249 0.009029
0.147044 0.392399 0.009032
0.174734 0.392596 0.009037
0.202477 0.392840 0.009042
0.230282 0.393134 0.009049
0.258161 0.393477 0.009057
0.286124 0.393868 0.009066
0.314179 0.394307 0.009076
0.342334 0.394789 0.009087
0.370597 0.395314 0.009099
0.399046 0.395952 0.009185
0.428198 0.397210 0.009856
0.457475 0.398503 0.010530
0.486879 0.399828 0.011207
0.516412 0.401181 0.011887
0.546076 0.402560 0.012570
0.575871 0.403961 0.013255
0.605796 0.405381 0.013944
0.635852 0.406818 0.014636
0.666035 0.408268 0.015331
0.696345 0.409730 0.016028
0.726779 0.411201 0.016729
0.757336 0.412680 0.017432
0.788012 0.414164 0.018138
0.818804 0.415651 0.018847
0.849712 0.417141 0.019559
0.880730 0.418632 0.020273
0.911857 0.420123 0.020989
0.943090 0.421613 0.021708
0.009729 0.422653 0.009729
0.037478 0.422660 0.009729
0.065231 0.422690 0.009729
0.092996 0.422752 0.009731
0.120779 0.422849 0.009733
0.148588 0.422987 0.009736
0.176434 0.423167 0.009740
0.204325 0.423392 0.009746
0.232271 0.423663 0.009752
0.260280 0.423981 0.009759
0.288363 0.424344 0.009767
0.316526 0.424752 0.009777
0.344779 0.425203 0.009787
0.373127 0.425696 0.009799
0.401577 0.426229 0.009811
0.430212 0.426877 0.009903
0.459542 0.428141 0.010578
0.488988 0.429439 0.011255
0.518554 0.430767 0.011936
0.548240 0.432122 0.012619
0.578050 0.433502 0.013305
0.607982 0.434904 0.013994
0.638037 0.436325 0.014686
0.668214 0.437763 0.015381
0.698513 0.439215 0.016078
0.728931 0.440679 0.016778
0.759468 0.442153 0.017481
0.790120 0.443635 0.018187
0.820887 0.445124 0.018895
0.851766 0.446618 0.019606
0.882755 0.448115 0.020319
0.913851 0.449614 0.021035
0.945051 0.451114 0.021753
0.010438 0.453456 0.010438
0.038348 0.453462 0.010438
0.066263 0.453490 0.010438
0.094187 0.453547 0.010440
0.122127 0.453636 0.010442
0.150090 0.453763 0.010445
0.178084 0.453930 0.010449
0.206118 0.454138 0.010453
0.234200 0.454389 0.010459
0.262337 0.454683 0.010466
0.290538 0.455021 0.010474
0.318811 0.455402 0.010482
0.347163 0.455824 0.010492
0.375601 0.456288 0.010503
0.404130 0.456790 0.010514
0.432755 0.457329 0.010527
0.461566 0.457987 0.010624
0.491063 0.459258 0.011303
0.520670 0.460561 0.011985
0.550389 0.461892 0.012669
0.580222 0.463249 0.013355
0.610170 0.464631 0.014045
0.640234 0.466033 0.014737
0.670414 0.467455 0.015432
0.700709 0.468894 0.016129
0.731120 0.470347 0.016829
0.761644 0.471813 0.017531
0.792281 0.473289 0.018237
0.823028 0.474774 0.018944
0.853885 0.476267 0.019655
0.884849 0.477765 0.020367
0.915918 0.479268 0.021083
0.947090 0.480773 0.021800
0.011151 0.484433 0.011151
0.039214 0.484439 0.011151
0.067281 0.484465 0.011151
0.095356 0.484517 0.011153
0.123445 0.484600 0.011154
0.151554 0.484717 0.011157
0.179690 0.484871 0.011161
0.207861 0.485064 0.011165
0.236074 0.485297 0.011171
0.264336 0.485571 0.011177
0.292655 0.485887 0.011184
0.321037 0.486243 0.011192
0.349490 0.486640 0.011201
0.378019 0.487076 0.011211
0.406630 0.487550 0.011222
0.435329 0.488061 0.011234
0.464120 0.488606 0.011247
0.493097 0.489274 0.011350
0.522752 0.490551 0.012033
0.552511 0.491858 0.012718
0.582376 0.493192 0.013405
0.612348 0.494552 0.014095
0.642430 0.495934 0.014787
0.672620 0.497338 0.015482
0.702921 0.498761 0.016180
0.733331 0.500200 0.016880
0.763850 0.501654 0.017582
0.794478 0.503121 0.018287
0.825212 0.504599 0.018995
0.856053 0.506087 0.019705
0.886998 0.507582 0.020417
0.918045 0.509084 0.021131
0.949195 0.510591 0.021848
0.011867 0.515574 0.011867
0.040075 0.515580 0.011868
0.068287 0.515604 0.011868
0.096505 0.515652 0.011869
0.124735 0.515729 0.011871
0.152984 0.515838 0.011874
0.181256 0.515982 0.011877
0.209559 0.516161 0.011881
0.237899 0.516379 0.011886
0.266282 0.516635 0.011892
0.294716 0.516930 0.011899
0.323207 0.517264 0.011906
0.351760 0.517637 0.011915
0.380382 0.518048 0.011924
0.409079 0.518496 0.011935
0.437854 0.518980 0.011946
0.466714 0.519498 0.011958
0.495661 0.520049 0.011970
0.524796 0.520727 0.012080
0.554601 0.522009 0.012766
0.584504 0.523320 0.013454
0.614508 0.524658 0.014145
0.644614 0.526020 0.014838
0.674823 0.527404 0.015533
0.705136 0.528809 0.016231
0.735553 0.530232 0.016931
0.766074 0.531672 0.017633
0.796699 0.533127 0.018338
0.827427 0.534595 0.019046
0.858257 0.536074 0.019755
0.889189 0.537564 0.020467
0.920221 0.539061 0.021182
0.951351 0.540566 0.021898
0.012588 0.546872 0.012588
0.040933 0.546877 0.012588
0.069282 0.546900 0.012588
0.097636 0.546945 0.012590
0.126002 0.547016 0.012591
0.154383 0.547118 0.012594
0.182786 0.547252 0.012597
0.211216 0.547420 0.012600
0.239678 0.547623 0.012605
0.268180 0.547863 0.012611
0.296726 0.548140 0.012617
0.325323 0.548454 0.012624
0.353977 0.548805 0.012632
0.382693 0.549193 0.012641
0.411475 0.549617 0.012651
0.440330 0.550076 0.012662
0.469261 0.550569 0.012673
0.498273 0.551094 0.012685
0.527369 0.551650 0.012698
0.556653 0.552337 0.012813
0.586601 0.553625 0.013502
0.616642 0.554940 0.014194
0.646779 0.556281 0.014888
0.677013 0.557645 0.015583
0.707345 0.559031 0.016282
0.737775 0.560437 0.016982
0.768305 0.561861 0.017685
0.798934 0.563302 0.018390
0.829661 0.564757 0.019097
0.860487 0.566226 0.019807
0.891411 0.567707 0.020518
0.922433 0.569197 0.021232
0.953550 0.570697 0.021949
0.013312 0.578318 0.013312
0.041788 0.578323 0.013312
0.070267 0.578344 0.013312
0.098752 0.578386 0.013313
0.127247 0.578453 0.013315
0.155755 0.578549 0.013317
0.184283 0.578674 0.013320
0.212835 0.578831 0.013323
0.241416 0.579022 0.013328
0.270032 0.579248 0.013333
0.298688 0.579508 0.013339
0.327390 0.579804 0.013346
0.356143 0.580135 0.013353
0.384952 0.580502 0.013362
0.413822 0.580903 0.013371
0.442757 0.581339 0.013381
0.471763 0.581808 0.013392
0.500842 0.582309 0.013404
0.529998 0.582840 0.013416
0.559235 0.583401 0.013429
0.588662 0.584098 0.013550
0.618746 0.585391 0.014242
0.648919 0.586710 0.014937
0.679184 0.588054 0.015633
0.709540 0.589421 0.016332
0.739990 0.590808 0.017033
0.770534 0.592215 0.017736
0.801172 0.593640 0.018441
0.831905 0.595082 0.019149
0.862733 0.596538 0.019858
0.893655 0.598007 0.020570
0.924671 0.599488 0.021284
0.955779 0.600980 0.022000
0.014039 0.609907 0.014039
0.042641 0.609911 0.014039
0.071245 0.609931 0.014039
0.099854 0.609970 0.014040
0.128472 0.610033 0.014042
0.157103 0.610123 0.014044
0.185750 0.610241 0.014046
0.214420 0.610388 0.014050
0.243115 0.610568 0.014054
0.271842 0.610780 0.014059
0.300606 0.611026 0.014065
0.329411 0.611305 0.014071
0.358261 0.611618 0.014078
0.387163 0.611966 0.014086
0.416120 0.612346 0.014095
0.445137 0.612760 0.014104
0.474217 0.613207 0.014115
0.503366 0.613685 0.014126
0.532585 0.614193 0.014137
0.561880 0.614731 0.014150
0.591251 0.615296 0.014163
0.620815 0.616002 0.014290
0.651030 0.617300 0.014985
0.681329 0.618623 0.015683
0.711716 0.619970 0.016382
0.742190 0.621339 0.017084
0.772754 0.622728 0.017787
0.803407 0.624137 0.018493
0.834151 0.625563 0.019200
0.864986 0.627005 0.019910
0.895911 0.628461 0.020622
0.926926 0.629931 0.021336
0.958031 0.631413 0.022052
0.014769 0.641631 0.014769
0.043491 0.641635 0.014769
0.072215 0.641653 0.014770
0.100943 0.641690 0.014770
0.129680 0.641750 0.014772
0.158427 0.641834 0.014774
0.187191 0.641945 0.014776
0.215973 0.642084 0.014779
0.244780 0.642254 0.014783
0.273615 0.642454 0.014788
0.302482 0.642686 0.014793
0.331387 0.642950 0.014799
0.360334 0.643247 0.014806
0.389328 0.643576 0.014814
0.418371 0.643938 0.014822
0.447470 0.644332 0.014831
0.476627 0.644758 0.014841
0.505846 0.645214 0.014851
0.535131 0.645700 0.014863
0.564485 0.646215 0.014875
0.593911 0.646758 0.014887
0.623411 0.647328 0.014900
0.653107 0.648043 0.015033
0.683446 0.649346 0.015731
0.713867 0.650673 0.016432
0.744370 0.652023 0.017134
0.774959 0.653394 0.017838
0.805632 0.654785 0.018544
0.836392 0.656195 0.019252
0.867238 0.657622 0.019962
0.898171 0.659064 0.020674
0.929190 0.660522 0.021388
0.960296 0.661992 0.022104
0.015502 0.673485 0.015502
0.044339 0.673489 0.015502
0.073178 0.673506 0.015503
0.102021 0.673541 0.015504
0.130871 0.673597 0.015505
0.159732 0.673677 0.015507
0.188606 0.673781 0.015509
0.217498 0.673913 0.015512
0.246412 0.674073 0.015516
0.275351 0.674263 0.015520
0.304320 0.674482 0.015525
0.333324 0.674733 0.015531
0.362365 0.675015 0.015537
0.391449 0.675327 0.015545
0.420579 0.675672 0.015553
0.449759 0.676047 0.015561
0.478993 0.676453 0.015571
0.508284 0.676889 0.015581
0.537636 0.677354 0.015591
0.567051 0.677848 0.015603
0.596534 0.678370 0.015615
0.626085 0.678918 0.015627
0.655708 0.679492 0.015640
0.685530 0.680215 0.015779
0.715989 0.681523 0.016481
0.746527 0.682854 0.017183
0.777144 0.684207 0.017888
0.807842 0.685580 0.018595
0.838621 0.686973 0.019303
0.869484 0.688384 0.020014
0.900429 0.689812 0.020726
0.931457 0.691255 0.021440
0.962569 0.692713 0.022156
0.016238 0.705464 0.016238
0.045186 0.705467 0.016238
0.074135 0.705484 0.016239
0.103088 0.705517 0.016240
0.132048 0.705570 0.016241
0.161017 0.705645 0.016242
0.189999 0.705744 0.016245
0.218996 0.705869 0.016248
0.248014 0.706021 0.016251
0.277055 0.706201 0.016255
0.306123 0.706409 0.016260
0.335222 0.706647 0.016266
0.364356 0.706915 0.016272
0.393528 0.707212 0.016279
0.422743 0.707540 0.016286
0.452005 0.707898 0.016294
0.481315 0.708286 0.016303
0.510679 0.708703 0.016313
0.540099 0.709148 0.016323
0.569578 0.709622 0.016334
0.599119 0.710123 0.016346
0.628724 0.710651 0.016358
0.658397 0.711204 0.016370
0.688138 0.711781 0.016384
0.718081 0.712513 0.016529
0.748656 0.713826 0.017232
0.779305 0.715161 0.017938
0.810031 0.716517 0.018645
0.840835 0.717892 0.019354
0.871717 0.719287 0.020065
0.902679 0.720699 0.020778
0.933720 0.722128 0.021492
0.964842 0.723572 0.022209
0.016977 0.737563 0.016977
0.046031 0.737566 0.016977
0.075087 0.737582 0.016978
0.104146 0.737613 0.016978
0.133211 0.737664 0.016979
0.162285 0.737735 0.016981
0.191370 0.737829 0.016983
0.220470 0.737947 0.016986
0.249588 0.738092 0.016989
0.278727 0.738262 0.016993
0.307891 0.738460 0.016998
0.337084 0.738687 0.017003
0.366309 0.738941 0.017009
0.395569 0.739225 0.017015
0.424868 0.739538 0.017023
0.454210 0.739880 0.017030
0.483597 0.740250 0.017039
0.513033 0.740649 0.017048
0.542522 0.741077 0.017058
0.572065 0.741531 0.017068
0.601666 0.742013 0.017080
0.631327 0.742521 0.017091
0.661051 0.743054 0.017104
0.690839 0.743612 0.017116
0.720694 0.744193 0.017130
0.750755 0.744933 0.017281
0.781440 0.746250 0.017987
0.812198 0.747589 0.018695
0.843029 0.748947 0.019405
0.873935 0.750326 0.020116
0.904917 0.751722 0.020829
0.939348 0.755850 0.021622
0.973759 0.759754 0.022414
0.017719 0.769778 0.017719
0.046876 0.769781 0.017719
0.076034 0.769796 0.017719
0.105195 0.769826 0.017720
0.134362 0.769874 0.017721
0.163537 0.769941 0.017722
0.192722 0.770031 0.017724
0.221921 0.770143 0.017727
0.251137 0.770280 0.017730
0.280371 0.770443 0.017734
0.309629 0.770631 0.017738
0.338913 0.770847 0.017743
0.368226 0.771090 0.017749
