correction_luts/studio_punch.cube
# Gentle contrast boost for well-lit interiors
# Slight gamma pull + highlight protection + mild black crush
# Strength: 1.0
# Color model: linear-light tone (v2)
TITLE "Studio Punch - Subtle Contrast Boost"
LUT_3D_SIZE 33
0.000000 0.000000 0.000000
0.001567 0.000000 0.000000
0.005192 0.000000 0.000000
0.010461 0.000000 0.000000
0.017198 0.000000 0.000000
0.027106 0.000000 0.000000
0.052386 0.000000 0.000000
0.095188 0.000000 0.000000
0.151406 0.000000 0.000000
0.212569 0.000000 0.000000
0.266100 0.000000 0.000000
0.299728 0.000000 0.000000
0.329260 0.000000 0.000000
0.358990 0.000000 0.000000
0.388903 0.000000 0.000000
0.418988 0.000000 0.000000
0.449234 0.000000 0.000000
0.479632 0.000000 0.000000
0.510173 0.000000 0.000000
0.540851 0.000000 0.000000
0.571657 0.000000 0.000000
0.602588 0.000000 0.000000
0.633636 0.000000 0.000000
0.664798 0.000000 0.000000
0.696068 0.000000 0.000000
0.727443 0.000000 0.000000
0.758918 0.000000 0.000000
0.790490 0.000000 0.000000
0.822156 0.000000 0.000000
0.853912 0.000000 0.000000
0.885757 0.000000 0.000000
0.917686 0.000000 0.000000
0.949698 0.000000 0.000000
0.000000 0.002264 0.000000
0.002450 0.002450 0.000000
0.006029 0.003015 0.000000
0.011169 0.003723 0.000000
0.017804 0.004451 0.000000
0.028807 0.005761 0.000000
0.055329 0.009222 0.000000
0.098569 0.014081 0.000000
0.154537 0.019317 0.000000
0.214864 0.023874 0.000000
0.267055 0.026706 0.000000
0.299834 0.027258 0.000000
0.329355 0.027446 0.000000
0.359075 0.027621 0.000000
0.388981 0.027784 0.000000
0.419059 0.027937 0.000000
0.449299 0.028081 0.000000
0.479692 0.028217 0.000000
0.510229 0.028346 0.000000
0.540902 0.028469 0.000000
0.571706 0.028585 0.000000
0.602633 0.028697 0.000000
0.633679 0.028804 0.000000
0.664838 0.028906 0.000000
0.696106 0.029004 0.000000
0.727478 0.029099 0.000000
0.758952 0.029190 0.000000
0.790522 0.029279 0.000000
0.822187 0.029364 0.000000
0.853942 0.029446 0.000000
0.885785 0.029526 0.000000
0.917713 0.029604 0.000000
0.949724 0.029679 0.000000
0.000000 0.007501 0.000000
0.003813 0.007627 0.000000
0.008117 0.008117 0.000000
0.013417 0.008945 0.000000
0.020964 0.010482 0.000000
0.037742 0.015097 0.000000
0.068144 0.022715 0.000000
0.112544 0.032155 0.000000
0.167098 0.041774 0.000000
0.223690 0.049709 0.000000
0.270103 0.054021 0.000000
0.300275 0.054596 0.000000
0.329750 0.054958 0.000000
0.359433 0.055297 0.000000
0.389306 0.055615 0.000000
0.419357 0.055914 0.000000
0.449573 0.056197 0.000000
0.479945 0.056464 0.000000
0.510464 0.056718 0.000000
0.541122 0.056960 0.000000
0.571911 0.057191 0.000000
0.602826 0.057412 0.000000
0.633860 0.057624 0.000000
0.665009 0.057827 0.000000
0.696268 0.058022 0.000000
0.727632 0.058211 0.000000
0.759098 0.058392 0.000000
0.790661 0.058567 0.000000
0.822319 0.058737 0.000000
0.854068 0.058901 0.000000
0.885906 0.059060 0.000000
0.917829 0.059215 0.000000
0.949835 0.059365 0.000000
0.000000 0.016093 0.000000
0.005459 0.016376 0.000000
0.011808 0.017711 0.000000
0.020879 0.020879 0.000000
0.035578 0.026684 0.000000
0.059093 0.035456 0.000000
0.093398 0.046699 0.000000
0.137849 0.059078 0.000000
0.188299 0.070612 0.000000
0.236733 0.078911 0.000000
0.271960 0.081588 0.000000
0.301117 0.082123 0.000000
0.330514 0.082628 0.000000
0.360128 0.083107 0.000000
0.389943 0.083559 0.000000
0.419943 0.083989 0.000000
0.450116 0.084397 0.000000
0.480449 0.084785 0.000000
0.510933 0.085155 0.000000
0.541560 0.085509 0.000000
0.572321 0.085848 0.000000
0.603211 0.086173 0.000000
0.634224 0.086485 0.000000
0.665353 0.086785 0.000000
0.696593 0.087074 0.000000
0.727941 0.087353 0.000000
0.759391 0.087622 0.000000
0.790941 0.087882 0.000000
0.822586 0.088134 0.000000
0.854323 0.088378 0.000000
0.886150 0.088615 0.000000
0.918062 0.088845 0.000000
0.950059 0.089068 0.000000
0.000000 0.046763 0.000000
0.011839 0.047357 0.000000
0.024943 0.049886 0.000000
0.041212 0.054949 0.000000
0.062741 0.062741 0.000000
0.091194 0.072955 0.000000
0.126940 0.084627 0.000000
0.168146 0.096083 0.000000
0.210035 0.105017 0.000000
0.244503 0.108668 0.000000
0.273283 0.109313 0.000000
0.302336 0.109940 0.000000
0.331637 0.110546 0.000000
0.361166 0.111128 0.000000
0.390904 0.111687 0.000000
0.420835 0.112223 0.000000
0.450945 0.112736 0.000000
0.481223 0.113229 0.000000
0.511657 0.113702 0.000000
0.542239 0.114156 0.000000
0.572960 0.114592 0.000000
0.603814 0.115012 0.000000
0.634793 0.115417 0.000000
0.665891 0.115807 0.000000
0.697104 0.116184 0.000000
0.728426 0.116548 0.000000
0.759853 0.116901 0.000000
0.791382 0.117242 0.000000
0.823007 0.117572 0.000000
0.854726 0.117893 0.000000
0.886535 0.118205 0.000000
0.918432 0.118507 0.000000
0.950414 0.118802 0.000000
0.000000 0.101972 0.000000
0.020501 0.102506 0.000000
0.041896 0.104739 0.000000
0.065423 0.109038 0.000000
0.092193 0.115241 0.000000
0.122626 0.122626 0.000000
0.155809 0.129841 0.000000
0.188831 0.134879 0.000000
0.217783 0.136114 0.000000
0.246196 0.136775 0.000000
0.274892 0.137446 0.000000
0.303854 0.138116 0.000000
0.333065 0.138777 0.000000
0.362505 0.139425 0.000000
0.392160 0.140057 0.000000
0.422013 0.140671 0.000000
0.452052 0.141266 0.000000
0.482263 0.141842 0.000000
0.512637 0.142399 0.000000
0.543164 0.142938 0.000000
0.573834 0.143458 0.000000
0.604641 0.143962 0.000000
0.635577 0.144449 0.000000
0.666636 0.144921 0.000000
0.697812 0.145377 0.000000
0.729101 0.145820 0.000000
0.760497 0.146249 0.000000
0.791996 0.146666 0.000000
0.823595 0.147070 0.000000
0.855289 0.147464 0.000000
0.887075 0.147846 0.000000
0.918951 0.148218 0.000000
0.950912 0.148580 0.000000
0.000000 0.159063 0.000000
0.026542 0.159255 0.000000
0.053340 0.160020 0.000000
0.080649 0.161299 0.000000
0.108390 0.162585 0.000000
0.135941 0.163129 0.000000
0.163590 0.163590 0.000000
0.191477 0.164123 0.000000
0.219618 0.164713 0.000000
0.248017 0.165345 0.000000
0.276672 0.166003 0.000000
0.305576 0.166678 0.000000
0.334717 0.167358 0.000000
0.364083 0.168038 0.000000
0.393662 0.168712 0.000000
0.423440 0.169376 0.000000
0.453406 0.170027 0.000000
0.483548 0.170664 0.000000
0.513857 0.171286 0.000000
0.544321 0.171891 0.000000
0.574934 0.172480 0.000000
0.605687 0.173053 0.000000
0.636573 0.173611 0.000000
0.667585 0.174153 0.000000
0.698718 0.174680 0.000000
0.729966 0.175192 0.000000
0.761325 0.175690 0.000000
0.792789 0.176175 0.000000
0.824354 0.176647 0.000000
0.856018 0.177107 0.000000
0.887776 0.177555 0.000000
0.919624 0.177992 0.000000
0.951560 0.178418 0.000000
0.000000 0.191554 0.000000
0.027367 0.191572 0.000000
0.054756 0.191647 0.000000
0.082199 0.191798 0.000000
0.109733 0.192032 0.000000
0.137393 0.192351 0.000000
0.165215 0.192750 0.000000
0.193223 0.193223 0.000000
0.221438 0.193759 0.000000
0.249872 0.194345 0.000000
0.278530 0.194971 0.000000
0.307412 0.195626 0.000000
0.336514 0.196300 0.000000
0.365829 0.196985 0.000000
0.395348 0.197674 0.000000
0.425063 0.198363 0.000000
0.454964 0.199047 0.000000
0.485041 0.199723 0.000000
0.515286 0.200389 0.000000
0.545689 0.201043 0.000000
0.576242 0.201685 0.000000
0.606938 0.202313 0.000000
0.637770 0.202927 0.000000
0.668731 0.203527 0.000000
0.699816 0.204113 0.000000
0.731019 0.204685 0.000000
0.762335 0.205244 0.000000
0.793758 0.205789 0.000000
0.825286 0.206322 0.000000
0.856914 0.206841 0.000000
0.888638 0.207349 0.000000
0.920455 0.207845 0.000000
0.952361 0.208329 0.000000
0.000000 0.221270 0.000000
0.027661 0.221285 0.000000
0.055337 0.221348 0.000000
0.083053 0.221476 0.000000
0.110837 0.221675 0.000000
0.138718 0.221949 0.000000
0.166723 0.222297 0.000000
0.194876 0.222716 0.000000
0.223198 0.223198 0.000000
0.251703 0.223736 0.000000
0.280400 0.224320 0.000000
0.309295 0.224942 0.000000
0.338388 0.225592 0.000000
0.367678 0.226263 0.000000
0.397161 0.226949 0.000000
0.426830 0.227643 0.000000
0.456679 0.228340 0.000000
0.486701 0.229036 0.000000
0.516889 0.229728 0.000000
0.547235 0.230415 0.000000
0.577731 0.231092 0.000000
0.608372 0.231761 0.000000
0.639149 0.232418 0.000000
0.670059 0.233064 0.000000
0.701093 0.233698 0.000000
0.732248 0.234319 0.000000
0.763518 0.234929 0.000000
0.794898 0.235525 0.000000
0.826384 0.236110 0.000000
0.857973 0.236682 0.000000
0.889659 0.237243 0.000000
0.921441 0.237791 0.000000
0.953314 0.238328 0.000000
0.000000 0.251286 0.000000
0.027922 0.251298 0.000000
0.055856 0.251353 0.000000
0.083821 0.251462 0.000000
0.111837 0.251634 0.000000
0.139929 0.251873 0.000000
0.168119 0.252179 0.000000
0.196428 0.252551 0.000000
0.224875 0.252985 0.000000
0.253475 0.253475 0.000000
0.282239 0.254015 0.000000
0.311175 0.254598 0.000000
0.340287 0.255216 0.000000
0.369578 0.255862 0.000000
0.399047 0.256530 0.000000
0.428690 0.257214 0.000000
0.458505 0.257909 0.000000
0.488486 0.258610 0.000000
0.518628 0.259314 0.000000
0.548925 0.260017 0.000000
0.579371 0.260717 0.000000
0.609961 0.261412 0.000000
0.640687 0.262099 0.000000
0.671546 0.262779 0.000000
0.702532 0.263449 0.000000
0.733638 0.264110 0.000000
0.764862 0.264760 0.000000
0.796197 0.265399 0.000000
0.827640 0.266027 0.000000
0.859187 0.266644 0.000000
0.890834 0.267250 0.000000
0.922577 0.267845 0.000000
0.954414 0.268429 0.000000
0.000000 0.281569 0.000000
0.028158 0.281581 0.000000
0.056326 0.281628 0.000000
0.084517 0.281723 0.000000
0.112750 0.281874 0.000000
0.141042 0.282084 0.000000
0.169413 0.282356 0.000000
0.197882 0.282688 0.000000
0.226463 0.283079 0.000000
0.255173 0.283526 0.000000
0.284023 0.284023 0.000000
0.313022 0.284565 0.000000
0.342176 0.285147 0.000000
0.371490 0.285762 0.000000
0.400966 0.286404 0.000000
0.430604 0.287069 0.000000
0.460402 0.287751 0.000000
0.490357 0.288445 0.000000
0.520466 0.289148 0.000000
0.550726 0.289856 0.000000
0.581131 0.290566 0.000000
0.611677 0.291275 0.000000
0.642359 0.291981 0.000000
0.673171 0.292683 0.000000
0.704111 0.293379 0.000000
0.735171 0.294069 0.000000
0.766349 0.294750 0.000000
0.797640 0.295422 0.000000
0.829040 0.296086 0.000000
0.860545 0.296740 0.000000
0.892151 0.297384 0.000000
0.923855 0.298018 0.000000
0.955654 0.298642 0.000000
0.000000 0.312097 0.000000
0.028373 0.312107 0.000000
0.056754 0.312149 0.000000
0.085154 0.312233 0.000000
0.113588 0.312367 0.000000
0.142070 0.312553 0.000000
0.170616 0.312796 0.000000
0.199242 0.313095 0.000000
0.227963 0.313449 0.000000
0.256791 0.313856 0.000000
0.285739 0.314313 0.000000
0.314816 0.314816 0.000000
0.344030 0.315361 0.000000
0.373386 0.315942 0.000000
0.402888 0.316555 0.000000
0.432537 0.317194 0.000000
0.462335 0.317855 0.000000
0.492281 0.318534 0.000000
0.522372 0.319227 0.000000
0.552606 0.319930 0.000000
0.582981 0.320640 0.000000
0.613493 0.321353 0.000000
0.644137 0.322068 0.000000
0.674910 0.322783 0.000000
0.705808 0.323496 0.000000
0.736828 0.324204 0.000000
0.767963 0.324908 0.000000
0.799212 0.325605 0.000000
0.830571 0.326296 0.000000
0.862035 0.326979 0.000000
0.893600 0.327653 0.000000
0.925265 0.328320 0.000000
0.957025 0.328977 0.000000
0.000000 0.342848 0.000000
0.028571 0.342857 0.000000
0.057149 0.342894 0.000000
0.085742 0.342969 0.000000
0.114363 0.343089 0.000000
0.143023 0.343256 0.000000
0.171737 0.343475 0.000000
0.200518 0.343745 0.000000
0.229378 0.344067 0.000000
0.258329 0.344439 0.000000
0.287383 0.344860 0.000000
0.316549 0.345326 0.000000
0.345835 0.345835 0.000000
0.375247 0.346382 0.000000
0.404790 0.346963 0.000000
0.434467 0.347573 0.000000
0.464280 0.348210 0.000000
0.494230 0.348868 0.000000
0.524317 0.349544 0.000000
0.554539 0.350235 0.000000
0.584895 0.350937 0.000000
0.615382 0.351647 0.000000
0.645998 0.352362 0.000000
0.676739 0.353081 0.000000
0.707603 0.353802 0.000000
0.738586 0.354521 0.000000
0.769685 0.355239 0.000000
0.800896 0.355954 0.000000
0.832215 0.356664 0.000000
0.863640 0.357368 0.000000
0.895168 0.358067 0.000000
0.926794 0.358759 0.000000
0.958517 0.359444 0.000000
0.000000 0.373804 0.000000
0.028755 0.373812 0.000000
0.057515 0.373846 0.000000
0.086288 0.373914 0.000000
0.115084 0.374021 0.000000
0.143913 0.374173 0.000000
0.172787 0.374371 0.000000
0.201717 0.374617 0.000000
0.230714 0.374911 0.000000
0.259790 0.375252 0.000000
0.288954 0.375641 0.000000
0.318216 0.376073 0.000000
0.347583 0.376548 0.000000
0.377061 0.377061 0.000000
0.406657 0.377610 0.000000
0.436374 0.378191 0.000000
0.466216 0.378800 0.000000
0.496183 0.379434 0.000000
0.526278 0.380090 0.000000
0.556500 0.380763 0.000000
0.586848 0.381451 0.000000
0.617322 0.382152 0.000000
0.647919 0.382861 0.000000
0.678637 0.383578 0.000000
0.709474 0.384299 0.000000
0.740428 0.385022 0.000000
0.771495 0.385747 0.000000
0.802672 0.386472 0.000000
0.833957 0.387194 0.000000
0.865347 0.387914 0.000000
0.896839 0.388630 0.000000
0.928429 0.389341 0.000000
0.960116 0.390047 0.000000
0.000000 0.404952 0.000000
0.028926 0.404959 0.000000
0.057856 0.404990 0.000000
0.086797 0.405051 0.000000
0.115757 0.405149 0.000000
0.144745 0.405287 0.000000
0.173772 0.405468 0.000000
0.202846 0.405693 0.000000
0.231978 0.405962 0.000000
0.261178 0.406277 0.000000
0.290454 0.406636 0.000000
0.319816 0.407038 0.000000
0.349270 0.407481 0.000000
0.378823 0.407963 0.000000
0.408481 0.408481 0.000000
0.438248 0.409032 0.000000
0.468129 0.409613 0.000000
0.498125 0.410221 0.000000
0.528239 0.410853 0.000000
0.558472 0.411505 0.000000
0.588823 0.412176 0.000000
0.619293 0.412862 0.000000
0.649880 0.413560 0.000000
0.680584 0.414269 0.000000
0.711403 0.414985 0.000000
0.742334 0.415707 0.000000
0.773375 0.416433 0.000000
0.804525 0.417161 0.000000
0.835781 0.417890 0.000000
0.867140 0.418619 0.000000
0.898599 0.419346 0.000000
0.930157 0.420071 0.000000
0.961811 0.420792 0.000000
0.000000 0.436279 0.000000
0.029086 0.436285 0.000000
0.058175 0.436313 0.000000
0.087274 0.436369 0.000000
0.116389 0.436459 0.000000
0.145528 0.436585 0.000000
0.174700 0.436751 0.000000
0.203913 0.436957 0.000000
0.233177 0.437206 0.000000
0.262498 0.437497 0.000000
0.291887 0.437830 0.000000
0.321350 0.438204 0.000000
0.350894 0.438618 0.000000
0.380527 0.439070 0.000000
0.410254 0.439558 0.000000
0.440080 0.440080 0.000000
0.470009 0.440633 0.000000
0.500043 0.441214 0.000000
0.530186 0.441822 0.000000
0.560439 0.442452 0.000000
0.590803 0.443102 0.000000
0.621278 0.443770 0.000000
0.651865 0.444454 0.000000
0.682563 0.445150 0.000000
0.713371 0.445857 0.000000
0.744287 0.446572 0.000000
0.775310 0.447294 0.000000
0.806439 0.448021 0.000000
0.837670 0.448752 0.000000
0.869003 0.449485 0.000000
0.900436 0.450218 0.000000
0.931965 0.450951 0.000000
0.963589 0.451682 0.000000
0.000000 0.467773 0.000000
0.029236 0.467779 0.000000
0.058476 0.467805 0.000000
0.087723 0.467856 0.000000
0.116985 0.467939 0.000000
0.146267 0.468055 0.000000
0.175578 0.468207 0.000000
0.204924 0.468398 0.000000
0.234314 0.468628 0.000000
0.263755 0.468898 0.000000
0.293255 0.469208 0.000000
0.322820 0.469557 0.000000
0.352458 0.469944 0.000000
0.382175 0.470369 0.000000
0.411976 0.470829 0.000000
0.441865 0.471323 0.000000
0.471849 0.471849 0.000000
0.501929 0.472404 0.000000
0.532109 0.472985 0.000000
0.562390 0.473592 0.000000
0.592776 0.474220 0.000000
0.623265 0.474869 0.000000
0.653860 0.475535 0.000000
0.684560 0.476216 0.000000
0.715364 0.476910 0.000000
0.746273 0.477615 0.000000
0.777285 0.478329 0.000000
0.808398 0.479051 0.000000
0.839612 0.479778 0.000000
0.870924 0.480510 0.000000
0.902334 0.481245 0.000000
0.933838 0.481981 0.000000
0.965436 0.482718 0.000000
0.000000 0.499425 0.000000
0.029378 0.499431 0.000000
0.058759 0.499454 0.000000
0.088147 0.499502 0.000000
0.117548 0.499578 0.000000
0.146966 0.499686 0.000000
0.176409 0.499827 0.000000
0.205884 0.500004 0.000000
0.235396 0.500217 0.000000
0.264954 0.500468 0.000000
0.294563 0.500757 0.000000
0.324231 0.501084 0.000000
0.353963 0.501447 0.000000
0.383765 0.501846 0.000000
0.413643 0.502281 0.000000
0.443601 0.502748 0.000000
0.473645 0.503248 0.000000
0.503777 0.503777 0.000000
0.534000 0.504333 0.000000
0.564318 0.504916 0.000000
0.594731 0.505522 0.000000
0.625243 0.506149 0.000000
0.655853 0.506795 0.000000
0.686562 0.507459 0.000000
0.717371 0.508138 0.000000
0.748279 0.508830 0.000000
0.779286 0.509533 0.000000
0.810390 0.510246 0.000000
0.841592 0.510967 0.000000
0.872890 0.511694 0.000000
0.904281 0.512426 0.000000
0.935766 0.513162 0.000000
0.967343 0.513901 0.000000
0.000000 0.531227 0.000000
0.029513 0.531232 0.000000
0.059028 0.531254 0.000000
0.088550 0.531298 0.000000
0.118082 0.531369 0.000000
0.147630 0.531468 0.000000
0.177200 0.531600 0.000000
0.206797 0.531764 0.000000
0.236428 0.531963 0.000000
0.266099 0.532198 0.000000
0.295816 0.532468 0.000000
0.325584 0.532774 0.000000
0.355410 0.533115 0.000000
0.385299 0.533491 0.000000
0.415257 0.533902 0.000000
0.445287 0.534345 0.000000
0.475395 0.534819 0.000000
0.505583 0.535323 0.000000
0.535855 0.535855 0.000000
0.566215 0.536414 0.000000
0.596663 0.536997 0.000000
0.627203 0.537602 0.000000
0.657835 0.538229 0.000000
0.688560 0.538873 0.000000
0.719380 0.539535 0.000000
0.750294 0.540212 0.000000
0.781302 0.540901 0.000000
0.812404 0.541603 0.000000
0.843599 0.542314 0.000000
0.874887 0.543034 0.000000
0.906267 0.543760 0.000000
0.937737 0.544492 0.000000
0.969296 0.545229 0.000000
0.000000 0.563170 0.000000
0.029641 0.563175 0.000000
0.059284 0.563195 0.000000
0.088932 0.563236 0.000000
0.118590 0.563302 0.000000
0.148262 0.563395 0.000000
0.177953 0.563518 0.000000
0.207668 0.563671 0.000000
0.237414 0.563858 0.000000
0.267194 0.564077 0.000000
0.297016 0.564330 0.000000
0.326884 0.564618 0.000000
0.356804 0.564939 0.000000
0.386780 0.565294 0.000000
0.416818 0.565682 0.000000
0.446922 0.566102 0.000000
0.477097 0.566553 0.000000
0.507345 0.567033 0.000000
0.537671 0.567542 0.000000
0.568077 0.568077 0.000000
0.598565 0.568637 0.000000
0.629139 0.569221 0.000000
0.659799 0.569826 0.000000
0.690546 0.570451 0.000000
0.721383 0.571095 0.000000
0.752309 0.571755 0.000000
0.783324 0.572429 0.000000
0.814429 0.573117 0.000000
0.845624 0.573816 0.000000
0.876908 0.574526 0.000000
0.908280 0.575244 0.000000
0.939740 0.575970 0.000000
0.971287 0.576702 0.000000
0.000000 0.595248 0.000000
0.029763 0.595253 0.000000
0.059527 0.595272 0.000000
0.089297 0.595310 0.000000
0.119074 0.595372 0.000000
0.148865 0.595459 0.000000
0.178672 0.595573 0.000000
0.208501 0.595717 0.000000
0.238357 0.595892 0.000000
0.268244 0.596098 0.000000
0.298168 0.596336 0.000000
0.328134 0.596607 0.000000
0.358146 0.596910 0.000000
0.388209 0.597245 0.000000
0.418329 0.597613 0.000000
0.448508 0.598011 0.000000
0.478752 0.598440 0.000000
0.509063 0.598897 0.000000
0.539445 0.599383 0.000000
0.569901 0.599896 0.000000
0.600434 0.600434 0.000000
0.631046 0.600996 0.000000
0.661739 0.601581 0.000000
0.692514 0.602186 0.000000
0.723373 0.602810 0.000000
0.754316 0.603453 0.000000
0.785344 0.604111 0.000000
0.816458 0.604783 0.000000
0.847657 0.605469 0.000000
0.878942 0.606167 0.000000
0.910312 0.606875 0.000000
0.941767 0.607591 0.000000
0.973305 0.608316 0.000000
0.000000 0.627455 0.000000
0.029879 0.627459 0.000000
0.059760 0.627477 0.000000
0.089645 0.627513 0.000000
0.119537 0.627571 0.000000
0.149441 0.627652 0.000000
0.179360 0.627760 0.000000
0.209298 0.627895 0.000000
0.239261 0.628060 0.000000
0.269252 0.628254 0.000000
0.299275 0.628478 0.000000
0.329337 0.628733 0.000000
0.359440 0.629020 0.000000
0.389590 0.629337 0.000000
0.419790 0.629685 0.000000
0.450046 0.630064 0.000000
0.480359 0.630472 0.000000
0.510735 0.630909 0.000000
0.541177 0.631373 0.000000
0.571687 0.631864 0.000000
0.602268 0.632381 0.000000
0.632922 0.632922 0.000000
0.663651 0.633485 0.000000
0.694458 0.634071 0.000000
0.725344 0.634676 0.000000
0.756309 0.635299 0.000000
0.787355 0.635940 0.000000
0.818482 0.636597 0.000000
0.849691 0.637268 0.000000
0.880981 0.637952 0.000000
0.912354 0.638648 0.000000
0.943808 0.639354 0.000000
0.975343 0.640069 0.000000
0.000000 0.659784 0.000000
0.029990 0.659788 0.000000
0.059982 0.659805 0.000000
0.089978 0.659839 0.000000
0.119981 0.659894 0.000000
0.149993 0.659970 0.000000
0.180020 0.660072 0.000000
0.210063 0.660199 0.000000
0.240129 0.660354 0.000000
0.270220 0.660537 0.000000
0.300341 0.660749 0.000000
0.330495 0.660991 0.000000
0.360688 0.661262 0.000000
0.390923 0.661563 0.000000
0.421205 0.661893 0.000000
0.451536 0.662253 0.000000
0.481921 0.662642 0.000000
0.512364 0.663059 0.000000
0.542866 0.663503 0.000000
0.573432 0.663973 0.000000
0.604063 0.664469 0.000000
0.634763 0.664990 0.000000
0.665533 0.665533 0.000000
0.696376 0.666098 0.000000
0.727292 0.666684 0.000000
0.758284 0.667290 0.000000
0.789351 0.667913 0.000000
0.820496 0.668553 0.000000
0.851719 0.669208 0.000000
0.883020 0.669877 0.000000
0.914399 0.670560 0.000000
0.945857 0.671253 0.000000
0.977393 0.671958 0.000000
0.000000 0.692232 0.000000
0.030097 0.692236 0.000000
0.060196 0.692252 0.000000
0.090298 0.692284 0.000000
0.120406 0.692335 0.000000
0.150523 0.692407 0.000000
0.180653 0.692503 0.000000
0.210798 0.692624 0.000000
0.240963 0.692770 0.000000
0.271152 0.692943 0.000000
0.301367 0.693144 0.000000
0.331613 0.693372 0.000000
0.361894 0.693630 0.000000
0.392213 0.693915 0.000000
0.422575 0.694230 0.000000
0.452982 0.694572 0.000000
0.483439 0.694943 0.000000
0.513948 0.695341 0.000000
0.544513 0.695766 0.000000
0.575136 0.696217 0.000000
0.605820 0.696693 0.000000
0.636568 0.697194 0.000000
0.667382 0.697717 0.000000
0.698263 0.698263 0.000000
0.729214 0.698830 0.000000
0.760236 0.699417 0.000000
0.791329 0.700022 0.000000
0.822496 0.700645 0.000000
0.853737 0.701284 0.000000
0.885052 0.701938 0.000000
0.916443 0.702606 0.000000
0.947908 0.703287 0.000000
0.979449 0.703979 0.000000
0.000000 0.724793 0.000000
0.030200 0.724796 0.000000
0.060401 0.724811 0.000000
0.090605 0.724841 0.000000
0.120815 0.724890 0.000000
0.151033 0.724958 0.000000
0.181262 0.725049 0.000000
0.211506 0.725163 0.000000
0.241767 0.725302 0.000000
0.272050 0.725466 0.000000
0.302357 0.725656 0.000000
0.332692 0.725873 0.000000
0.363059 0.726118 0.000000
0.393461 0.726389 0.000000
0.423902 0.726689 0.000000
0.454385 0.727015 0.000000
0.484913 0.727369 0.000000
0.515489 0.727750 0.000000
0.546118 0.728157 0.000000
0.576800 0.728589 0.000000
0.607539 0.729046 0.000000
0.638337 0.729528 0.000000
0.669197 0.730033 0.000000
0.700119 0.730559 0.000000
0.731108 0.731108 0.000000
0.762162 0.731676 0.000000
0.793285 0.732263 0.000000
0.824478 0.732869 0.000000
0.855740 0.733491 0.000000
0.887073 0.734130 0.000000
0.918478 0.734783 0.000000
0.949955 0.735449 0.000000
0.981504 0.736128 0.000000
0.000000 0.757462 0.000000
0.030299 0.757465 0.000000
0.060598 0.757479 0.000000
0.090901 0.757508 0.000000
0.121209 0.757554 0.000000
0.151524 0.757619 0.000000
0.181849 0.757705 0.000000
0.212188 0.757813 0.000000
0.242542 0.757945 0.000000
0.272916 0.758100 0.000000
0.303313 0.758281 0.000000
0.333735 0.758488 0.000000
0.364186 0.758720 0.000000
0.394669 0.758979 0.000000
0.425188 0.759265 0.000000
0.455746 0.759577 0.000000
0.486345 0.759915 0.000000
0.516990 0.760279 0.000000
0.547682 0.760669 0.000000
0.578424 0.761084 0.000000
0.609219 0.761523 0.000000
0.640069 0.761986 0.000000
0.670976 0.762473 0.000000
0.701943 0.762981 0.000000
0.732971 0.763511 0.000000
0.764062 0.764062 0.000000
0.795217 0.764631 0.000000
0.826437 0.765220 0.000000
0.857725 0.765825 0.000000
0.889079 0.766448 0.000000
0.920502 0.767085 0.000000
0.951994 0.767737 0.000000
0.983555 0.768402 0.000000
0.000000 0.790236 0.000000
0.030394 0.790239 0.000000
0.060789 0.790253 0.000000
0.091186 0.790280 0.000000
0.121588 0.790324 0.000000
0.151997 0.790385 0.000000
0.182415 0.790467 0.000000
0.212846 0.790570 0.000000
0.243291 0.790695 0.000000
0.273753 0.790843 0.000000
0.304237 0.791015 0.000000
0.334743 0.791212 0.000000
0.365277 0.791434 0.000000
0.395840 0.791681 0.000000
0.426436 0.791953 0.000000
0.457068 0.792251 0.000000
0.487738 0.792575 0.000000
0.518450 0.792924 0.000000
0.549206 0.793297 0.000000
0.580008 0.793696 0.000000
0.610860 0.794118 0.000000
0.641763 0.794564 0.000000
