correction_luts/studio_balanced_baked.cube
# Baked chain LUT: studio_punch@0.8 + warm_shift@0.3 + sat_boost@0.5 + black_crush@0.15
# Generated by regenerate_luts.rb
# Color model: linear-light tone (v2)
#   studio_punch (Studio Punch - Subtle Contrast Boost) @ 0.8
#   warm_shift (Warm Shift - Add Warmth) @ 0.3
#   sat_boost (Saturation Boost - +15%) @ 0.5
#   black_crush (Black Crush - Shadow Floor) @ 0.15
TITLE "studio_punch@0.8 + warm_shift@0.3 + sat_boost@0.5 + black_crush@0.15"
LUT_3D_SIZE 5
0.000000 0.000000 0.000000
0.101760 0.000000 0.000000
0.463590 0.000000 0.000000
0.715013 0.000000 0.000000
0.971066 0.000000 0.000000
0.000000 0.201686 0.000000
0.223099 0.220454 0.000000
0.470613 0.232516 0.000000
0.719140 0.236871 0.000000
0.974023 0.240618 0.000000
0.000000 0.474048 0.000000
0.240219 0.474741 0.000000
0.483077 0.477349 0.000000
0.730827 0.481441 0.000000
0.983919 0.486126 0.000000
0.000000 0.729765 0.000000
0.246312 0.730175 0.000000
0.493748 0.731840 0.000000
0.743666 0.734848 0.000000
0.996998 0.738882 0.000000
0.000000 0.996696 0.000000
0.252618 0.998489 0.000000
0.531217 1.000000 0.225108
0.776065 1.000000 0.294412
0.996883 0.985063 0.000000
0.000000 0.000000 0.027855
0.129765 0.000000 0.126303
0.465238 0.000000 0.226413
0.715471 0.000000 0.232128
0.971380 0.000000 0.236366
0.000000 0.208842 0.205709
0.227253 0.224359 0.220742
0.480165 0.223948 0.220195
0.737740 0.219032 0.215211
1.000000 0.215243 0.211381
0.000000 0.474287 0.233587
0.231776 0.484007 0.224883
0.492569 0.486409 0.225883
0.749554 0.481388 0.218657
1.000000 0.480865 0.223578
0.000000 0.729906 0.239652
0.228457 0.748707 0.221391
0.494410 0.750403 0.221893
0.762618 0.753138 0.222468
1.000000 0.739881 0.239747
0.000000 0.997328 0.245592
0.251827 1.000000 0.245067
0.533340 1.000000 0.317849
0.775691 1.000000 0.357538
1.000000 0.988067 0.238502
0.000000 0.000000 0.302288
0.188148 0.000000 0.366256
0.468100 0.000000 0.455612
0.717319 0.000000 0.465454
0.972682 0.000000 0.473366
0.000000 0.227574 0.448322
0.225014 0.222041 0.462315
0.481957 0.224714 0.468392
0.739162 0.219361 0.467007
1.000000 0.216451 0.465809
0.000000 0.475265 0.468136
0.231988 0.484714 0.477040
0.484528 0.478358 0.470645
0.741536 0.473052 0.465278
1.000000 0.471992 0.464258
0.000000 0.730494 0.479691
0.228391 0.749052 0.479293
0.485750 0.741929 0.471576
0.754040 0.744553 0.473124
1.000000 0.739328 0.483133
0.000000 0.999762 0.492383
0.274313 1.000000 0.499434
0.541428 1.000000 0.526983
0.773218 1.000000 0.530618
1.000000 0.987892 0.475821
0.000000 0.000000 0.659184
0.232681 0.000000 0.679420
0.472474 0.000000 0.689803
0.720610 0.000000 0.701384
0.975146 0.000000 0.711847
0.000000 0.232120 0.685915
0.218775 0.215771 0.705116
0.476956 0.217998 0.712395
0.741996 0.220202 0.721237
1.000000 0.219231 0.720019
0.000000 0.477050 0.704842
0.224268 0.477899 0.723059
0.477337 0.471148 0.717404
0.742935 0.473846 0.721896
1.000000 0.473929 0.719240
0.000000 0.731639 0.720665
0.228742 0.750204 0.738400
0.485944 0.742487 0.730658
0.745899 0.736400 0.724527
1.000000 0.738839 0.727625
0.216812 1.000000 0.746284
0.328359 1.000000 0.748571
0.552411 1.000000 0.755267
0.762660 1.000000 0.742313
0.995146 0.982588 0.709189
0.000000 0.000000 0.918327
0.236508 0.000000 0.920791
0.477360 0.000000 0.929248
0.724944 0.000000 0.940803
0.978667 0.000000 0.952556
0.000000 0.234976 0.925807
0.212527 0.209489 0.953621
0.472052 0.211001 0.960502
0.737715 0.213218 0.970595
1.000000 0.223245 0.972477
0.000000 0.479478 0.944571
0.216501 0.471373 0.971829
0.470441 0.464226 0.966570
0.737131 0.467169 0.972697
1.000000 0.477452 0.972444
0.000000 0.733344 0.963125
0.220644 0.743299 0.990429
0.478338 0.735425 0.983029
0.738529 0.729013 0.977488
1.000000 0.741231 0.973483
0.297492 1.000000 0.985000
0.370824 1.000000 0.985000
0.550150 1.000000 0.985000
0.748190 1.000000 0.984327
0.972492 0.960108 0.944628
