correction_luts/studio_dance_baked.cube
# Baked chain LUT: studio_punch@1.0 + warm_shift@0.4 + sat_boost@0.6 + black_crush@0.25
# Generated by generate_chain_lut.rb
#   studio_punch (Studio Punch - Subtle Contrast Boost) @ 1.0
#   warm_shift (Warm Shift - Add Warmth) @ 0.4
#   sat_boost (Saturation Boost - +15%) @ 0.6
#   black_crush (Black Crush - Shadow Floor) @ 0.25
TITLE "studio_punch@1.0 + warm_shift@0.4 + sat_boost@0.6 + black_crush@0.25"
LUT_3D_SIZE 33
0.000000 0.000000 0.000000
0.000102 0.000000 0.000000
0.000532 0.000000 0.000000
0.001397 0.000000 0.000000
0.002775 0.000000 0.000000
0.004869 0.000000 0.000000
0.011260 0.000000 0.000000
0.025842 0.000000 0.000000
0.050494 0.000000 0.000000
0.083881 0.000000 0.000000
0.122399 0.000000 0.000000
0.172449 0.000000 0.000000
0.218059 0.000000 0.000000
0.270905 0.000000 0.000000
0.327988 0.000000 0.000000
0.385518 0.000000 0.000000
0.439057 0.000000 0.000000
0.483627 0.000000 0.000000
0.516349 0.000000 0.000000
0.547398 0.000000 0.000000
0.578578 0.000000 0.000000
0.609882 0.000000 0.000000
0.641307 0.000000 0.000000
0.672846 0.000000 0.000000
0.704494 0.000000 0.000000
0.736249 0.000000 0.000000
0.768105 0.000000 0.000000
0.800059 0.000000 0.000000
0.832109 0.000000 0.000000
0.864250 0.000000 0.000000
0.896479 0.000000 0.000000
0.928795 0.000000 0.000000
0.961195 0.000000 0.000000
0.000000 0.000102 0.000000
0.000102 0.000102 0.000000
0.000532 0.000265 0.000000
0.001397 0.000464 0.000000
0.002775 0.000690 0.000000
0.004869 0.000966 0.000000
0.011260 0.001850 0.000000
0.025842 0.003634 0.000000
0.050494 0.006212 0.000000
0.083881 0.009173 0.000000
0.122399 0.012047 0.000000
0.172449 0.015430 0.000000
0.218059 0.017885 0.000000
0.270905 0.020511 0.000000
0.327988 0.023059 0.000000
0.385518 0.025296 0.000000
0.439057 0.027009 0.000000
0.483627 0.028001 0.000000
0.516349 0.028234 0.000000
0.547398 0.028357 0.000000
0.578578 0.028473 0.000000
0.609882 0.028585 0.000000
0.641307 0.028691 0.000000
0.672846 0.028793 0.000000
0.704494 0.028892 0.000000
0.736249 0.028986 0.000000
0.768105 0.029077 0.000000
0.800059 0.029165 0.000000
0.832109 0.029250 0.000000
0.864250 0.029332 0.000000
0.896479 0.029412 0.000000
0.928795 0.029489 0.000000
0.961195 0.029564 0.000000
0.000000 0.000531 0.000000
0.000266 0.000531 0.000000
0.000532 0.000531 0.000000
0.001397 0.000928 0.000000
0.002775 0.001380 0.000000
0.004869 0.001932 0.000000
0.011260 0.003699 0.000000
0.025842 0.007267 0.000000
0.050494 0.012425 0.000000
0.083881 0.018347 0.000000
0.122399 0.024094 0.000000
0.172449 0.030861 0.000000
0.218059 0.035771 0.000000
0.270905 0.041021 0.000000
0.327988 0.046118 0.000000
0.385518 0.050593 0.000000
0.439057 0.054018 0.000000
0.483627 0.056001 0.000000
0.516349 0.056469 0.000000
0.547398 0.056713 0.000000
0.578578 0.056947 0.000000
0.609882 0.057169 0.000000
0.641307 0.057382 0.000000
0.672846 0.057587 0.000000
0.704494 0.057783 0.000000
0.736249 0.057972 0.000000
0.768105 0.058155 0.000000
0.800059 0.058330 0.000000
0.832109 0.058500 0.000000
0.864250 0.058665 0.000000
0.896479 0.058824 0.000000
0.928795 0.058979 0.000000
0.961195 0.059129 0.000000
0.000000 0.001391 0.000000
0.000465 0.001391 0.000000
0.000930 0.001391 0.000000
0.001397 0.001392 0.000000
0.002775 0.002070 0.000000
0.004869 0.002898 0.000000
0.011260 0.005549 0.000000
0.025842 0.010901 0.000000
0.050494 0.018637 0.000000
0.083881 0.027520 0.000000
0.122399 0.036141 0.000000
0.172449 0.046291 0.000000
0.218059 0.053656 0.000000
0.270905 0.061532 0.000000
0.327988 0.069176 0.000000
0.385518 0.075889 0.000000
0.439057 0.081027 0.000000
0.483627 0.084002 0.000000
0.516349 0.084703 0.000000
0.547398 0.085070 0.000000
0.578578 0.085420 0.000000
0.609882 0.085754 0.000000
0.641307 0.086074 0.000000
0.672846 0.086380 0.000000
0.704494 0.086675 0.000000
0.736249 0.086959 0.000000
0.768105 0.087232 0.000000
0.800059 0.087496 0.000000
0.832109 0.087750 0.000000
0.864250 0.087997 0.000000
0.896479 0.088236 0.000000
0.928795 0.088468 0.000000
0.961195 0.088693 0.000000
0.000000 0.002754 0.000000
0.000692 0.002754 0.000000
0.001385 0.002754 0.000000
0.002077 0.002754 0.000000
0.002775 0.002760 0.000000
0.004869 0.003864 0.000000
0.011260 0.007398 0.000000
0.025842 0.014534 0.000000
0.050494 0.024849 0.000000
0.083881 0.036693 0.000000
0.122399 0.048189 0.000000
0.172449 0.061721 0.000000
0.218059 0.071542 0.000000
0.270905 0.082043 0.000000
0.327988 0.092235 0.000000
0.385518 0.101186 0.000000
0.439057 0.108036 0.000000
0.483627 0.112003 0.000000
0.516349 0.112937 0.000000
0.547398 0.113427 0.000000
0.578578 0.113893 0.000000
0.609882 0.114339 0.000000
0.641307 0.114765 0.000000
0.672846 0.115174 0.000000
0.704494 0.115567 0.000000
0.736249 0.115945 0.000000
0.768105 0.116309 0.000000
0.800059 0.116661 0.000000
0.832109 0.117001 0.000000
0.864250 0.117330 0.000000
0.896479 0.117648 0.000000
0.928795 0.117957 0.000000
0.961195 0.118257 0.000000
0.000000 0.004816 0.000000
0.000971 0.004816 0.000000
0.001942 0.004816 0.000000
0.002912 0.004816 0.000000
0.003883 0.004816 0.000000
0.004869 0.004830 0.000000
0.011260 0.009248 0.000000
0.025842 0.018168 0.000000
0.050494 0.031062 0.000000
0.083881 0.045867 0.000000
0.122399 0.060236 0.000000
0.172449 0.077151 0.000000
0.218059 0.089427 0.000000
0.270905 0.102553 0.000000
0.327988 0.115294 0.000000
0.385518 0.126482 0.000000
0.439057 0.135045 0.000000
0.483627 0.140003 0.000000
0.516349 0.141172 0.000000
0.547398 0.141784 0.000000
0.578578 0.142367 0.000000
0.609882 0.142923 0.000000
0.641307 0.143456 0.000000
0.672846 0.143967 0.000000
0.704494 0.144458 0.000000
0.736249 0.144931 0.000000
0.768105 0.145386 0.000000
0.800059 0.145826 0.000000
0.832109 0.146251 0.000000
0.864250 0.146662 0.000000
0.896479 0.147060 0.000000
0.928795 0.147447 0.000000
0.961195 0.147822 0.000000
0.000000 0.011038 0.000000
0.001866 0.011038 0.000000
0.003733 0.011038 0.000000
0.005599 0.011038 0.000000
0.007466 0.011038 0.000000
0.009332 0.011038 0.000000
0.011260 0.011098 0.000000
0.025842 0.021801 0.000000
0.050494 0.037274 0.000000
0.083881 0.055040 0.000000
0.122399 0.072283 0.000000
0.172449 0.092582 0.000000
0.218059 0.107313 0.000000
0.270905 0.123064 0.000000
0.327988 0.138353 0.000000
0.385518 0.151779 0.000000
0.439057 0.162054 0.000000
0.483627 0.168004 0.000000
0.516349 0.169406 0.000000
0.547398 0.170140 0.000000
0.578578 0.170840 0.000000
0.609882 0.171508 0.000000
0.641307 0.172147 0.000000
0.672846 0.172761 0.000000
0.704494 0.173350 0.000000
0.736249 0.173917 0.000000
0.768105 0.174464 0.000000
0.800059 0.174991 0.000000
0.832109 0.175501 0.000000
0.864250 0.175994 0.000000
0.896479 0.176472 0.000000
0.928795 0.176936 0.000000
0.961195 0.177386 0.000000
0.000000 0.025284 0.000000
0.003670 0.025284 0.000000
0.007340 0.025284 0.000000
0.011009 0.025284 0.000000
0.014679 0.025284 0.000000
0.018349 0.025284 0.000000
0.022019 0.025284 0.000000
0.025842 0.025435 0.000000
0.050494 0.043487 0.000000
0.083881 0.064213 0.000000
0.122399 0.084330 0.000000
0.172449 0.108012 0.000000
0.218059 0.125198 0.000000
0.270905 0.143575 0.000000
0.327988 0.161412 0.000000
0.385518 0.177075 0.000000
0.439057 0.189062 0.000000
0.483627 0.196004 0.000000
0.516349 0.197640 0.000000
0.547398 0.198497 0.000000
0.578578 0.199313 0.000000
0.609882 0.200093 0.000000
0.641307 0.200839 0.000000
0.672846 0.201554 0.000000
0.704494 0.202242 0.000000
0.736249 0.202903 0.000000
0.768105 0.203541 0.000000
0.800059 0.204156 0.000000
0.832109 0.204751 0.000000
0.864250 0.205327 0.000000
0.896479 0.205884 0.000000
0.928795 0.206425 0.000000
0.961195 0.206950 0.000000
0.000000 0.049404 0.000000
0.006274 0.049404 0.000000
0.012549 0.049404 0.000000
0.018823 0.049404 0.000000
0.025097 0.049404 0.000000
0.031372 0.049404 0.000000
0.037646 0.049404 0.000000
0.043920 0.049404 0.000000
0.050494 0.049699 0.000000
0.083881 0.073387 0.000000
0.122399 0.096377 0.000000
0.172449 0.123442 0.000000
0.218059 0.143084 0.000000
0.270905 0.164085 0.000000
0.327988 0.184470 0.000000
0.385518 0.202372 0.000000
0.439057 0.216071 0.000000
0.483627 0.224005 0.000000
0.516349 0.225875 0.000000
0.547398 0.226854 0.000000
0.578578 0.227787 0.000000
0.609882 0.228677 0.000000
0.641307 0.229530 0.000000
0.672846 0.230348 0.000000
0.704494 0.231133 0.000000
0.736249 0.231889 0.000000
0.768105 0.232618 0.000000
0.800059 0.233321 0.000000
0.832109 0.234001 0.000000
0.864250 0.234659 0.000000
0.896479 0.235296 0.000000
0.928795 0.235914 0.000000
0.961195 0.236514 0.000000
0.000000 0.082070 0.000000
0.009265 0.082070 0.000000
0.018530 0.082070 0.000000
0.027794 0.082070 0.000000
0.037059 0.082070 0.000000
0.046324 0.082070 0.000000
0.055589 0.082070 0.000000
0.064854 0.082070 0.000000
0.074119 0.082070 0.000000
0.083881 0.082560 0.000000
0.122399 0.108424 0.000000
0.172449 0.138873 0.000000
0.218059 0.160969 0.000000
0.270905 0.184596 0.000000
0.327988 0.207529 0.000000
0.385518 0.227668 0.000000
0.439057 0.243080 0.000000
0.483627 0.252006 0.000000
0.516349 0.254109 0.000000
0.547398 0.255210 0.000000
0.578578 0.256260 0.000000
0.609882 0.257262 0.000000
0.641307 0.258221 0.000000
0.672846 0.259141 0.000000
0.704494 0.260025 0.000000
0.736249 0.260876 0.000000
0.768105 0.261695 0.000000
0.800059 0.262487 0.000000
0.832109 0.263251 0.000000
0.864250 0.263992 0.000000
0.896479 0.264708 0.000000
0.928795 0.265404 0.000000
0.961195 0.266079 0.000000
0.000000 0.118995 0.000000
0.012090 0.118995 0.000000
0.024180 0.118995 0.000000
0.036270 0.118995 0.000000
0.048360 0.118995 0.000000
0.060450 0.118995 0.000000
0.072539 0.118995 0.000000
0.084629 0.118995 0.000000
0.096719 0.118995 0.000000
0.108809 0.118995 0.000000
0.122399 0.120472 0.000000
0.172449 0.154303 0.000000
0.218059 0.178855 0.000000
0.270905 0.205106 0.000000
0.327988 0.230588 0.000000
0.385518 0.252965 0.000000
0.439057 0.270089 0.000000
0.483627 0.280006 0.000000
0.516349 0.282343 0.000000
0.547398 0.283567 0.000000
0.578578 0.284733 0.000000
0.609882 0.285847 0.000000
0.641307 0.286912 0.000000
0.672846 0.287935 0.000000
0.704494 0.288917 0.000000
0.736249 0.289862 0.000000
0.768105 0.290773 0.000000
0.800059 0.291652 0.000000
0.832109 0.292502 0.000000
0.864250 0.293324 0.000000
0.896479 0.294121 0.000000
0.928795 0.294893 0.000000
0.961195 0.295643 0.000000
0.000000 0.165979 0.000000
0.015330 0.165979 0.000000
0.030661 0.165979 0.000000
0.045991 0.165979 0.000000
0.061322 0.165979 0.000000
0.076652 0.165979 0.000000
0.091983 0.165979 0.000000
0.107313 0.165979 0.000000
0.122644 0.165979 0.000000
0.137974 0.165979 0.000000
0.153304 0.165979 0.000000
0.172449 0.169733 0.000000
0.218059 0.196740 0.000000
0.270905 0.225617 0.000000
0.327988 0.253647 0.000000
0.385518 0.278261 0.000000
0.439057 0.297098 0.000000
0.483627 0.308007 0.000000
0.516349 0.310578 0.000000
0.547398 0.311924 0.000000
0.578578 0.313206 0.000000
0.609882 0.314431 0.000000
0.641307 0.315604 0.000000
0.672846 0.316728 0.000000
0.704494 0.317808 0.000000
0.736249 0.318848 0.000000
0.768105 0.319850 0.000000
0.800059 0.320817 0.000000
0.832109 0.321752 0.000000
0.864250 0.322656 0.000000
0.896479 0.323533 0.000000
0.928795 0.324382 0.000000
0.961195 0.325207 0.000000
0.000000 0.209483 0.000000
0.017736 0.209483 0.000000
0.035472 0.209483 0.000000
0.053209 0.209483 0.000000
0.070945 0.209483 0.000000
0.088681 0.209483 0.000000
0.106417 0.209483 0.000000
0.124154 0.209483 0.000000
0.141890 0.209483 0.000000
0.159626 0.209483 0.000000
0.177362 0.209483 0.000000
0.195099 0.209483 0.000000
0.218059 0.214625 0.000000
0.270905 0.246128 0.000000
0.327988 0.276706 0.000000
0.385518 0.303557 0.000000
0.439057 0.324107 0.000000
0.483627 0.336008 0.000000
0.516349 0.338812 0.000000
0.547398 0.340281 0.000000
0.578578 0.341680 0.000000
0.609882 0.343016 0.000000
0.641307 0.344295 0.000000
0.672846 0.345522 0.000000
0.704494 0.346700 0.000000
0.736249 0.347834 0.000000
0.768105 0.348927 0.000000
0.800059 0.349982 0.000000
0.832109 0.351002 0.000000
0.864250 0.351989 0.000000
0.896479 0.352945 0.000000
0.928795 0.353872 0.000000
0.961195 0.354772 0.000000
0.000000 0.260452 0.000000
0.020355 0.260452 0.000000
0.040711 0.260452 0.000000
0.061066 0.260452 0.000000
0.081421 0.260452 0.000000
0.101777 0.260452 0.000000
0.122132 0.260452 0.000000
0.142487 0.260452 0.000000
0.162843 0.260452 0.000000
0.183198 0.260452 0.000000
0.203553 0.260452 0.000000
0.223908 0.260452 0.000000
0.244264 0.260452 0.000000
0.270905 0.266638 0.000000
0.327988 0.299764 0.000000
0.385518 0.328854 0.000000
0.439057 0.351116 0.000000
0.483627 0.364008 0.000000
0.516349 0.367046 0.000000
0.547398 0.368637 0.000000
0.578578 0.370153 0.000000
0.609882 0.371601 0.000000
0.641307 0.372986 0.000000
0.672846 0.374315 0.000000
0.704494 0.375592 0.000000
0.736249 0.376820 0.000000
0.768105 0.378004 0.000000
0.800059 0.379147 0.000000
0.832109 0.380252 0.000000
0.864250 0.381321 0.000000
0.896479 0.382357 0.000000
0.928795 0.383361 0.000000
0.961195 0.384336 0.000000
0.000000 0.316158 0.000000
0.022944 0.316158 0.000000
0.045888 0.316158 0.000000
0.068832 0.316158 0.000000
0.091776 0.316158 0.000000
0.114720 0.316158 0.000000
0.137664 0.316158 0.000000
0.160608 0.316158 0.000000
0.183553 0.316158 0.000000
0.206497 0.316158 0.000000
0.229441 0.316158 0.000000
0.252385 0.316158 0.000000
0.275329 0.316158 0.000000
0.298273 0.316158 0.000000
0.327988 0.322823 0.000000
0.385518 0.354150 0.000000
0.439057 0.378125 0.000000
0.483627 0.392009 0.000000
0.516349 0.395281 0.000000
0.547398 0.396994 0.000000
0.578578 0.398626 0.000000
0.609882 0.400185 0.000000
0.641307 0.401677 0.000000
0.672846 0.403108 0.000000
0.704494 0.404483 0.000000
0.736249 0.405806 0.000000
0.768105 0.407082 0.000000
0.800059 0.408313 0.000000
0.832109 0.409502 0.000000
0.864250 0.410653 0.000000
0.896479 0.411769 0.000000
0.928795 0.412850 0.000000
0.961195 0.413900 0.000000
0.000000 0.373106 0.000000
0.025272 0.373106 0.000000
0.050543 0.373106 0.000000
0.075815 0.373106 0.000000
0.101087 0.373106 0.000000
0.126358 0.373106 0.000000
0.151630 0.373106 0.000000
0.176902 0.373106 0.000000
0.202173 0.373106 0.000000
0.227445 0.373106 0.000000
0.252717 0.373106 0.000000
0.277989 0.373106 0.000000
0.303260 0.373106 0.000000
0.328532 0.373106 0.000000
0.353804 0.373106 0.000000
0.385518 0.379447 0.000000
0.439057 0.405134 0.000000
0.483627 0.420009 0.000000
0.516349 0.423515 0.000000
0.547398 0.425351 0.000000
0.578578 0.427100 0.000000
0.609882 0.428770 0.000000
0.641307 0.430369 0.000000
0.672846 0.431902 0.000000
0.704494 0.433375 0.000000
0.736249 0.434793 0.000000
0.768105 0.436159 0.000000
0.800059 0.437478 0.000000
0.832109 0.438752 0.000000
0.864250 0.439986 0.000000
0.896479 0.441181 0.000000
0.928795 0.442340 0.000000
0.961195 0.443465 0.000000
0.000000 0.427170 0.000000
0.027125 0.427170 0.000000
0.054251 0.427170 0.000000
0.081376 0.427170 0.000000
0.108501 0.427170 0.000000
0.135627 0.427170 0.000000
0.162752 0.427170 0.000000
0.189877 0.427170 0.000000
0.217003 0.427170 0.000000
0.244128 0.427170 0.000000
0.271253 0.427170 0.000000
0.298378 0.427170 0.000000
0.325504 0.427170 0.000000
0.352629 0.427170 0.000000
0.379754 0.427170 0.000000
0.406880 0.427170 0.000000
0.439057 0.432143 0.000000
0.483627 0.448010 0.000000
0.516349 0.451749 0.000000
0.547398 0.453707 0.000000
0.578578 0.455573 0.000000
0.609882 0.457355 0.000000
0.641307 0.459060 0.000000
0.672846 0.460695 0.000000
0.704494 0.462267 0.000000
0.736249 0.463779 0.000000
0.768105 0.465236 0.000000
0.800059 0.466643 0.000000
0.832109 0.468003 0.000000
0.864250 0.469318 0.000000
0.896479 0.470593 0.000000
0.928795 0.471829 0.000000
0.961195 0.473029 0.000000
0.000000 0.473697 0.000000
0.028310 0.473697 0.000000
0.056621 0.473697 0.000000
0.084931 0.473697 0.000000
0.113242 0.473697 0.000000
0.141552 0.473697 0.000000
0.169862 0.473697 0.000000
0.198173 0.473697 0.000000
0.226483 0.473697 0.000000
0.254793 0.473697 0.000000
0.283104 0.473697 0.000000
0.311414 0.473697 0.000000
0.339725 0.473697 0.000000
0.368035 0.473697 0.000000
0.396345 0.473697 0.000000
0.424656 0.473697 0.000000
0.452966 0.473697 0.000000
0.483627 0.476011 0.000000
0.516349 0.479984 0.000000
0.547398 0.482064 0.000000
0.578578 0.484046 0.000000
0.609882 0.485939 0.000000
0.641307 0.487751 0.000000
0.672846 0.489489 0.000000
0.704494 0.491158 0.000000
0.736249 0.492765 0.000000
0.768105 0.494313 0.000000
0.800059 0.495808 0.000000
0.832109 0.497253 0.000000
0.864250 0.498651 0.000000
0.896479 0.500005 0.000000
0.928795 0.501318 0.000000
0.961195 0.502593 0.000000
0.000000 0.508218 0.000000
0.028686 0.508218 0.000000
0.057372 0.508218 0.000000
0.086058 0.508218 0.000000
0.114744 0.508218 0.000000
0.143430 0.508218 0.000000
0.172116 0.508218 0.000000
0.200803 0.508218 0.000000
0.229489 0.508218 0.000000
0.258175 0.508218 0.000000
0.286861 0.508218 0.000000
0.315547 0.508218 0.000000
0.344233 0.508218 0.000000
0.372919 0.508218 0.000000
0.401605 0.508218 0.000000
0.430291 0.508218 0.000000
0.458977 0.508218 0.000000
0.487663 0.508218 0.000000
0.516349 0.508218 0.000000
0.547398 0.510421 0.000000
0.578578 0.512520 0.000000
0.609882 0.514524 0.000000
0.641307 0.516442 0.000000
0.672846 0.518282 0.000000
0.704494 0.520050 0.000000
0.736249 0.521751 0.000000
0.768105 0.523391 0.000000
0.800059 0.524973 0.000000
0.832109 0.526503 0.000000
0.864250 0.527983 0.000000
0.896479 0.529417 0.000000
0.928795 0.530808 0.000000
0.961195 0.532157 0.000000
0.000000 0.538778 0.000000
0.028810 0.538778 0.000000
0.057621 0.538778 0.000000
0.086431 0.538778 0.000000
0.115242 0.538778 0.000000
0.144052 0.538778 0.000000
0.172863 0.538778 0.000000
0.201673 0.538778 0.000000
0.230483 0.538778 0.000000
0.259294 0.538778 0.000000
0.288104 0.538778 0.000000
0.316915 0.538778 0.000000
0.345725 0.538778 0.000000
0.374535 0.538778 0.000000
0.403346 0.538778 0.000000
0.432156 0.538778 0.000000
0.460967 0.538778 0.000000
0.489777 0.538778 0.000000
0.518588 0.538778 0.000000
0.547398 0.538778 0.000000
0.578578 0.540993 0.000000
0.609882 0.543109 0.000000
0.641307 0.545134 0.000000
0.672846 0.547076 0.000000
0.704494 0.548942 0.000000
0.736249 0.550737 0.000000
0.768105 0.552468 0.000000
0.800059 0.554139 0.000000
0.832109 0.555753 0.000000
0.864250 0.557315 0.000000
0.896479 0.558829 0.000000
0.928795 0.560297 0.000000
0.961195 0.561722 0.000000
0.000000 0.569466 0.000000
0.028929 0.569466 0.000000
0.057858 0.569466 0.000000
0.086787 0.569466 0.000000
0.115716 0.569466 0.000000
0.144644 0.569466 0.000000
0.173573 0.569466 0.000000
0.202502 0.569466 0.000000
0.231431 0.569466 0.000000
0.260360 0.569466 0.000000
0.289289 0.569466 0.000000
0.318218 0.569466 0.000000
0.347147 0.569466 0.000000
0.376076 0.569466 0.000000
0.405004 0.569466 0.000000
0.433933 0.569466 0.000000
0.462862 0.569466 0.000000
0.491791 0.569466 0.000000
0.520720 0.569466 0.000000
0.549649 0.569466 0.000000
0.578578 0.569466 0.000000
0.609882 0.571693 0.000000
0.641307 0.573825 0.000000
0.672846 0.575869 0.000000
0.704494 0.577833 0.000000
0.736249 0.579723 0.000000
0.768105 0.581545 0.000000
0.800059 0.583304 0.000000
0.832109 0.585003 0.000000
0.864250 0.586648 0.000000
0.896479 0.588241 0.000000
0.928795 0.589786 0.000000
0.961195 0.591286 0.000000
0.000000 0.600278 0.000000
0.029042 0.600278 0.000000
0.058084 0.600278 0.000000
0.087126 0.600278 0.000000
0.116168 0.600278 0.000000
0.145210 0.600278 0.000000
0.174252 0.600278 0.000000
0.203294 0.600278 0.000000
0.232336 0.600278 0.000000
0.261378 0.600278 0.000000
0.290420 0.600278 0.000000
0.319462 0.600278 0.000000
0.348504 0.600278 0.000000
0.377546 0.600278 0.000000
0.406588 0.600278 0.000000
0.435630 0.600278 0.000000
0.464672 0.600278 0.000000
0.493714 0.600278 0.000000
0.522756 0.600278 0.000000
0.551798 0.600278 0.000000
0.580840 0.600278 0.000000
0.609882 0.600278 0.000000
0.641307 0.602516 0.000000
0.672846 0.604663 0.000000
0.704494 0.606725 0.000000
0.736249 0.608710 0.000000
0.768105 0.610622 0.000000
0.800059 0.612469 0.000000
0.832109 0.614253 0.000000
0.864250 0.615980 0.000000
0.896479 0.617653 0.000000
0.928795 0.619275 0.000000
0.961195 0.620850 0.000000
0.000000 0.631207 0.000000
0.029150 0.631207 0.000000
0.058301 0.631207 0.000000
0.087451 0.631207 0.000000
0.116601 0.631207 0.000000
0.145752 0.631207 0.000000
0.174902 0.631207 0.000000
0.204052 0.631207 0.000000
0.233202 0.631207 0.000000
0.262353 0.631207 0.000000
0.291503 0.631207 0.000000
0.320653 0.631207 0.000000
0.349804 0.631207 0.000000
0.378954 0.631207 0.000000
0.408104 0.631207 0.000000
0.437255 0.631207 0.000000
0.466405 0.631207 0.000000
0.495555 0.631207 0.000000
0.524706 0.631207 0.000000
0.553856 0.631207 0.000000
0.583006 0.631207 0.000000
0.612156 0.631207 0.000000
0.641307 0.631207 0.000000
0.672846 0.633456 0.000000
0.704494 0.635617 0.000000
0.736249 0.637696 0.000000
0.768105 0.639700 0.000000
0.800059 0.641634 0.000000
0.832109 0.643504 0.000000
0.864250 0.645313 0.000000
0.896479 0.647065 0.000000
0.928795 0.648765 0.000000
0.961195 0.650415 0.000000
0.000000 0.662250 0.000000
0.029254 0.662250 0.000000
0.058508 0.662250 0.000000
0.087762 0.662250 0.000000
0.117017 0.662250 0.000000
0.146271 0.662250 0.000000
0.175525 0.662250 0.000000
0.204779 0.662250 0.000000
0.234033 0.662250 0.000000
0.263287 0.662250 0.000000
0.292542 0.662250 0.000000
0.321796 0.662250 0.000000
0.351050 0.662250 0.000000
0.380304 0.662250 0.000000
0.409558 0.662250 0.000000
0.438812 0.662250 0.000000
0.468066 0.662250 0.000000
0.497321 0.662250 0.000000
0.526575 0.662250 0.000000
0.555829 0.662250 0.000000
0.585083 0.662250 0.000000
0.614337 0.662250 0.000000
0.643591 0.662250 0.000000
0.672846 0.662250 0.000000
0.704494 0.664508 0.000000
0.736249 0.666682 0.000000
0.768105 0.668777 0.000000
0.800059 0.670799 0.000000
0.832109 0.672754 0.000000
0.864250 0.674645 0.000000
0.896479 0.676477 0.000000
0.928795 0.678254 0.000000
0.961195 0.679979 0.000000
0.000000 0.693400 0.000000
0.029354 0.693400 0.000000
0.058708 0.693400 0.000000
0.088062 0.693400 0.000000
0.117416 0.693400 0.000000
0.146770 0.693400 0.000000
0.176124 0.693400 0.000000
0.205477 0.693400 0.000000
0.234831 0.693400 0.000000
0.264185 0.693400 0.000000
0.293539 0.693400 0.000000
0.322893 0.693400 0.000000
0.352247 0.693400 0.000000
0.381601 0.693400 0.000000
0.410955 0.693400 0.000000
0.440309 0.693400 0.000000
0.469663 0.693400 0.000000
0.499017 0.693400 0.000000
0.528371 0.693400 0.000000
0.557725 0.693400 0.000000
0.587079 0.693400 0.000000
0.616432 0.693400 0.000000
0.645786 0.693400 0.000000
0.675140 0.693400 0.000000
0.704494 0.693400 0.000000
0.736249 0.695668 0.000000
0.768105 0.697854 0.000000
0.800059 0.699964 0.000000
0.832109 0.702004 0.000000
0.864250 0.703977 0.000000
0.896479 0.705889 0.000000
0.928795 0.707743 0.000000
0.961195 0.709543 0.000000
0.000000 0.724654 0.000000
0.029450 0.724654 0.000000
0.058900 0.724654 0.000000
0.088350 0.724654 0.000000
0.117800 0.724654 0.000000
0.147250 0.724654 0.000000
0.176700 0.724654 0.000000
0.206150 0.724654 0.000000
0.235600 0.724654 0.000000
0.265050 0.724654 0.000000
0.294499 0.724654 0.000000
0.323949 0.724654 0.000000
0.353399 0.724654 0.000000
0.382849 0.724654 0.000000
0.412299 0.724654 0.000000
0.441749 0.724654 0.000000
0.471199 0.724654 0.000000
0.500649 0.724654 0.000000
0.530099 0.724654 0.000000
0.559549 0.724654 0.000000
0.588999 0.724654 0.000000
0.618449 0.724654 0.000000
0.647899 0.724654 0.000000
0.677349 0.724654 0.000000
0.706799 0.724654 0.000000
0.736249 0.724654 0.000000
0.768105 0.726932 0.000000
0.800059 0.729130 0.000000
0.832109 0.731254 0.000000
0.864250 0.733310 0.000000
0.896479 0.735301 0.000000
0.928795 0.737233 0.000000
0.961195 0.739108 0.000000
0.000000 0.756009 0.000000
0.029542 0.756009 0.000000
0.059085 0.756009 0.000000
0.088627 0.756009 0.000000
0.118170 0.756009 0.000000
0.147712 0.756009 0.000000
0.177255 0.756009 0.000000
0.206797 0.756009 0.000000
0.236340 0.756009 0.000000
0.265882 0.756009 0.000000
0.295425 0.756009 0.000000
0.324967 0.756009 0.000000
0.354510 0.756009 0.000000
0.384052 0.756009 0.000000
0.413595 0.756009 0.000000
