correction_luts/studio_film_baked.cube
# Baked chain LUT: film_contrast@0.6 + warm_shift@0.2 + sat_reduce@0.3 + black_crush@0.4
# Generated by regenerate_luts.rb
# Color model: linear-light tone (v2)
#   film_contrast (Film Contrast - Stronger Filmic Look) @ 0.6
#   warm_shift (Warm Shift - Add Warmth) @ 0.2
#   sat_reduce (Saturation Reduce - -15%) @ 0.3
#   black_crush (Black Crush - Shadow Floor) @ 0.4
TITLE "film_contrast@0.6 + warm_shift@0.2 + sat_reduce@0.3 + black_crush@0.4"
LUT_3D_SIZE 9
0.000000 0.000000 0.000000
0.000921 0.000021 0.000021
0.011190 0.000258 0.000258
0.118616 0.002730 0.002730
0.419103 0.009647 0.009647
0.557019 0.012821 0.012821
0.679482 0.015640 0.015640
0.803803 0.018502 0.018502
0.929739 0.021401 0.021401
0.000057 0.002462 0.000057
0.003830 0.003811 0.000088
0.029488 0.014969 0.000679
0.208783 0.072259 0.004806
0.436493 0.115812 0.010047
0.558448 0.121107 0.012854
0.680620 0.125612 0.015666
0.804739 0.129949 0.018523
0.930528 0.134156 0.021419
0.003209 0.139428 0.003209
0.078522 0.152347 0.003507
0.185575 0.184136 0.004272
0.327825 0.219371 0.007546
0.444906 0.225849 0.010241
0.563682 0.231509 0.012975
0.685003 0.237075 0.015767
0.808456 0.242488 0.018609
0.933722 0.247740 0.021492
0.007628 0.331400 0.007628
0.116507 0.331661 0.007634
0.226103 0.332725 0.007659
0.337327 0.334711 0.007765
0.453245 0.339906 0.010433
0.571551 0.345534 0.013156
0.692163 0.351364 0.015932
0.814876 0.357243 0.018757
0.939457 0.363080 0.021624
0.010438 0.453456 0.010438
0.122127 0.453636 0.010442
0.234200 0.454389 0.010459
0.347163 0.455824 0.010492
0.461566 0.457987 0.010624
0.580222 0.463249 0.013355
0.700709 0.468894 0.016129
0.823028 0.474774 0.018944
0.947090 0.480773 0.021800
0.013312 0.578318 0.013312
0.127247 0.578453 0.013315
0.241416 0.579022 0.013328
0.356143 0.580135 0.013353
0.471763 0.581808 0.013392
0.588662 0.584098 0.013550
0.709540 0.589421 0.016332
0.831905 0.595082 0.019149
0.955779 0.600980 0.022000
0.016238 0.705464 0.016238
0.132048 0.705570 0.016241
0.248014 0.706021 0.016251
0.364356 0.706915 0.016272
0.481315 0.708286 0.016303
0.599119 0.710123 0.016346
0.718081 0.712513 0.016529
0.840835 0.717892 0.019354
0.964842 0.723572 0.022209
0.019209 0.834539 0.019209
0.136631 0.834626 0.019211
0.254163 0.834996 0.019220
0.371964 0.835734 0.019237
0.490211 0.836881 0.019263
0.610599 0.840530 0.019347
0.735762 0.848502 0.019531
0.860279 0.853609 0.019802
0.977500 0.856054 0.022500
0.022462 0.975869 0.022462
0.142585 0.975821 0.022461
0.262640 0.975568 0.022456
0.382442 0.974830 0.022439
0.501530 0.973057 0.022398
0.618964 0.969378 0.022313
0.733157 0.962633 0.022158
0.841768 0.951455 0.021901
0.941884 0.934581 0.021680
0.000009 0.000009 0.000409
0.001145 0.000026 0.001138
0.012690 0.000292 0.006380
0.127662 0.002939 0.043770
0.421516 0.009702 0.110817
0.557168 0.012825 0.119749
0.679599 0.015643 0.124326
0.803899 0.018504 0.128700
0.929819 0.021402 0.132927
0.000066 0.002850 0.002835
0.004584 0.004560 0.004530
0.032260 0.016554 0.016399
0.223084 0.078299 0.077584
0.440640 0.118732 0.117670
0.561112 0.123663 0.122580
0.683297 0.128198 0.127098
0.807431 0.132563 0.131448
0.933236 0.136797 0.135669
0.003315 0.144016 0.072962
0.084175 0.161603 0.082770
0.192969 0.191489 0.098094
0.331520 0.222664 0.115295
0.447545 0.228427 0.119514
0.566340 0.234103 0.123722
0.687679 0.239690 0.127914
0.811149 0.245124 0.132054
0.936433 0.250398 0.136134
0.007630 0.331489 0.114504
0.119058 0.334269 0.117113
0.228686 0.335334 0.117486
0.339940 0.337324 0.118224
0.455884 0.342526 0.121741
0.574212 0.348165 0.125442
0.694844 0.354009 0.129246
0.817575 0.359904 0.133100
0.942174 0.365759 0.136968
0.010439 0.453517 0.120101
0.124728 0.456282 0.122733
0.236819 0.457036 0.122936
0.349801 0.458475 0.123323
0.464224 0.460644 0.123968
0.582897 0.465915 0.127339
0.703403 0.471570 0.130838
0.825739 0.477462 0.134429
0.949817 0.483475 0.138080
0.013313 0.578364 0.125193
0.129893 0.581136 0.127859
0.244074 0.581706 0.127984
0.358813 0.582822 0.128230
0.474446 0.584499 0.128599
0.591360 0.586795 0.129188
0.712252 0.592126 0.132484
0.834632 0.597797 0.135877
0.958520 0.603706 0.139345
0.016239 0.705500 0.129967
0.134735 0.708286 0.132667
0.250708 0.708738 0.132751
0.367058 0.709634 0.132919
0.484028 0.711008 0.133177
0.601842 0.712851 0.133522
0.720815 0.715247 0.134077
0.843581 0.720634 0.137334
0.967599 0.726322 0.140665
0.019210 0.834568 0.134525
0.139353 0.837373 0.137256
0.256891 0.837743 0.137317
0.374697 0.838483 0.137438
0.492952 0.839633 0.137627
0.613430 0.843397 0.138244
0.738592 0.851343 0.139546
0.863083 0.856412 0.140508
0.980277 0.858805 0.143162
0.022462 0.975853 0.140444
0.145362 0.978583 0.143217
0.265412 0.978323 0.143179
0.385205 0.977572 0.143069
0.504275 0.975776 0.142806
0.621678 0.972065 0.142263
0.735822 0.965274 0.141269
0.844364 0.954036 0.139624
0.944386 0.937084 0.137290
0.000064 0.000064 0.002801
0.002046 0.000091 0.003939
0.020050 0.000462 0.019700
0.166165 0.003825 0.110119
0.429371 0.009883 0.215882
0.557792 0.012839 0.226928
0.680094 0.015654 0.233179
0.804305 0.018513 0.239016
0.930161 0.021410 0.244541
0.000242 0.005427 0.010509
0.008099 0.008039 0.015400
0.041484 0.021289 0.040768
0.249034 0.087419 0.165672
0.442055 0.119132 0.223507
0.561726 0.123818 0.230043
0.683799 0.128313 0.236153
0.807854 0.132654 0.241917
0.933599 0.136872 0.247404
0.003668 0.159367 0.157810
0.090218 0.173172 0.171500
0.205380 0.203823 0.201876
0.334817 0.225694 0.223563
0.450586 0.231212 0.229053
0.569356 0.236847 0.234659
0.690667 0.242414 0.240199
0.814114 0.247843 0.245603
0.939380 0.253120 0.250856
0.007639 0.331865 0.221628
0.119236 0.334686 0.224366
0.231451 0.338207 0.227545
0.342783 0.340165 0.228882
0.458776 0.345336 0.233215
0.577125 0.350949 0.237861
0.697764 0.356777 0.242667
0.820496 0.362664 0.247528
0.945092 0.368517 0.252382
0.010445 0.453778 0.229895
0.124846 0.456589 0.232618
0.239538 0.459875 0.235540
0.352575 0.461303 0.236271
0.467040 0.463459 0.237417
0.585745 0.468718 0.241414
0.706272 0.474363 0.245626
0.828621 0.480250 0.249980
0.952708 0.486261 0.254415
0.013317 0.578560 0.237153
0.129985 0.581379 0.239893
0.246793 0.584536 0.242719
0.361570 0.585648 0.243180
0.477236 0.587320 0.243875
0.594177 0.589611 0.244889
0.715092 0.594938 0.248693
0.837489 0.600606 0.252655
0.961391 0.606514 0.256734
0.016243 0.705654 0.243748
0.134813 0.708489 0.246514
0.253444 0.711572 0.249304
0.369820 0.712466 0.249617
0.486814 0.713839 0.250098
0.604650 0.715680 0.250743
0.723643 0.718074 0.251667
0.846426 0.723460 0.255351
0.970459 0.729149 0.259156
0.019213 0.834695 0.249878
0.139423 0.837548 0.252671
0.259648 0.840587 0.255451
0.377473 0.841327 0.255676
0.495746 0.842476 0.256025
0.616567 0.846683 0.257304
0.741641 0.854436 0.259660
0.865963 0.859292 0.261245
0.983054 0.861462 0.263789
0.022460 0.975780 0.258407
0.145400 0.978554 0.261222
0.268162 0.980997 0.263874
0.387921 0.980194 0.263658
0.506928 0.978319 0.263154
0.624231 0.974501 0.262127
0.738230 0.967579 0.260265
0.846580 0.956188 0.257201
0.946362 0.939065 0.252721
0.000304 0.000304 0.013194
0.006904 0.000448 0.019470
0.038362 0.001287 0.055906
0.230535 0.005306 0.226513
0.438558 0.010095 0.325704
0.559007 0.012867 0.334700
0.681072 0.015677 0.342434
0.805115 0.018532 0.349619
0.930846 0.021426 0.356369
0.000889 0.013591 0.038616
0.017483 0.017356 0.048622
0.074523 0.038631 0.108225
0.279569 0.098138 0.274728
0.443476 0.119515 0.330004
0.562874 0.124071 0.338041
0.684742 0.128490 0.345569
0.808643 0.132784 0.352639
0.934271 0.136971 0.359321
0.006230 0.184284 0.270641
0.103160 0.196047 0.286873
0.220241 0.218589 0.318741
0.335928 0.226459 0.330155
0.451659 0.231787 0.336745
0.570327 0.237281 0.343549
0.691527 0.242749 0.350287
0.814872 0.248111 0.356845
0.940052 0.253340 0.363187
0.007656 0.332597 0.329347
0.119494 0.335410 0.332158
0.232005 0.338974 0.335713
0.345924 0.343301 0.340022
0.461993 0.348393 0.345091
0.580367 0.353935 0.350605
0.700999 0.359707 0.356348
0.823709 0.365554 0.362165
0.948280 0.371380 0.367963
0.010457 0.454296 0.340008
0.124987 0.457105 0.342773
0.239892 0.460467 0.345955
0.355528 0.464365 0.349506
0.470066 0.466482 0.351121
0.588820 0.471703 0.355712
0.709373 0.477314 0.360605
0.831731 0.483172 0.365693
0.955818 0.489160 0.370888
0.013326 0.578952 0.349308
0.130072 0.581770 0.352074
0.247051 0.585016 0.355100
0.364442 0.588660 0.358315
0.480166 0.590314 0.359322
0.597152 0.592584 0.360745
0.718101 0.597891 0.365042
0.840521 0.603540 0.369557
0.964436 0.609433 0.374232
0.016250 0.705965 0.357659
0.134872 0.708800 0.360442
0.253651 0.711977 0.363400
0.372661 0.715450 0.366441
0.489698 0.716814 0.367139
0.607572 0.718643 0.368076
0.726597 0.721026 0.369361
0.849405 0.726401 0.373463
0.973457 0.732080 0.377732
0.019219 0.834950 0.365322
0.139466 0.837803 0.368127
0.259825 0.840939 0.371057
0.380306 0.844296 0.374004
0.498612 0.845440 0.374511
0.620093 0.850502 0.376753
0.744960 0.857838 0.380003
0.868922 0.862249 0.382044
0.985828 0.863973 0.384320
0.022456 0.975604 0.376312
0.145372 0.978365 0.379115
0.268198 0.980858 0.381814
0.390562 0.982630 0.384137
0.509445 0.980601 0.383344
0.626554 0.976580 0.381772
0.740278 0.969412 0.378970
0.848269 0.957746 0.374409
0.947612 0.940326 0.367704
0.001543 0.001543 0.067023
0.021639 0.001833 0.079641
0.093978 0.004157 0.180591
0.285238 0.008537 0.370884
0.441570 0.010164 0.433867
0.560819 0.012909 0.443410
0.682565 0.015711 0.452342
0.806368 0.018561 0.460697
0.931915 0.021451 0.468554
0.002787 0.032659 0.121080
0.043805 0.043494 0.158764
0.158954 0.083235 0.303833
0.317434 0.112876 0.412032
0.445531 0.120068 0.437802
0.564592 0.124450 0.446930
0.686182 0.128761 0.455616
0.809864 0.132984 0.463824
0.935321 0.137125 0.471590
0.009403 0.210964 0.408495
0.116265 0.218780 0.421330
0.229533 0.227830 0.436455
0.339832 0.229863 0.440351
0.453178 0.232567 0.445361
0.571722 0.237861 0.453113
0.692769 0.243185 0.460869
0.815969 0.248445 0.468450
0.941020 0.253601 0.475788
0.010139 0.336145 0.440467
0.122338 0.338949 0.443340
0.235163 0.342453 0.447125
0.349318 0.346688 0.451879
0.463070 0.349224 0.455127
0.581457 0.354630 0.461372
0.702049 0.360285 0.467927
0.824696 0.366036 0.474595
0.949195 0.371788 0.481249
0.010475 0.455094 0.450648
0.125204 0.457900 0.453452
0.240292 0.461236 0.456781
0.356218 0.465223 0.460756
0.473329 0.469740 0.465254
0.592152 0.474895 0.470386
0.712738 0.480444 0.475907
0.835103 0.486246 0.481680
0.959181 0.492190 0.487593
0.013340 0.579565 0.461790
0.130209 0.582383 0.464582
0.247305 0.585616 0.467706
0.364943 0.589380 0.471255
0.483258 0.593506 0.475058
0.600310 0.595738 0.476866
0.721306 0.601008 0.481628
0.843754 0.606621 0.486670
0.967683 0.612480 0.491915
0.016261 0.706455 0.471789
0.134965 0.709290 0.474590
0.253823 0.712460 0.477616
0.373053 0.716068 0.480936
0.492698 0.719956 0.484384
0.610628 0.721764 0.485600
0.729696 0.724122 0.487230
0.852538 0.729474 0.491737
0.978275 0.736381 0.497300
0.019228 0.835353 0.480922
0.139533 0.838207 0.483740
0.259948 0.841340 0.486719
0.380631 0.844838 0.489911
0.501563 0.848547 0.493145
0.624019 0.854865 0.496817
0.748535 0.861535 0.500694
0.871912 0.865238 0.502911
0.988598 0.866263 0.504648
0.022448 0.975249 0.494085
0.145317 0.977991 0.496869
0.268074 0.980404 0.499486
0.390471 0.982171 0.501771
0.511773 0.982524 0.503231
0.628574 0.978189 0.501011
0.741868 0.970648 0.497148
0.849303 0.958565 0.490960
0.947974 0.940705 0.481896
0.006393 0.006393 0.277744
0.071438 0.007408 0.321841
0.181766 0.009940 0.431835
0.327835 0.012174 0.528881
0.446642 0.012556 0.545474
0.563160 0.012963 0.553335
0.684552 0.015757 0.563133
0.808065 0.018600 0.572434
0.933382 0.021484 0.581243
0.009235 0.088421 0.401207
0.097463 0.096784 0.432079
0.209900 0.110994 0.495518
0.337183 0.121501 0.542423
0.450421 0.123092 0.549526
0.566824 0.124942 0.556980
0.688104 0.129121 0.566519
0.811523 0.133257 0.575653
0.936763 0.137336 0.584354
0.012434 0.225659 0.540168
0.122565 0.228440 0.543291
0.233653 0.231938 0.548156
0.344278 0.233686 0.552287
0.457492 0.235928 0.557588
0.573564 0.238627 0.563648
0.694441 0.243772 0.572199
0.817464 0.248900 0.580637
0.942353 0.253960 0.588848
0.012727 0.340108 0.552905
0.125392 0.342901 0.555824
0.238627 0.346332 0.559771
0.353076 0.350437 0.564835
0.466793 0.352620 0.568354
0.582819 0.355461 0.572789
0.703372 0.360964 0.580024
0.825941 0.366589 0.587432
0.950349 0.372240 0.594853
0.012994 0.458663 0.564510
0.127992 0.461466 0.567349
0.243331 0.464772 0.570805
0.359467 0.468700 0.575022
0.476752 0.473156 0.579903
0.593225 0.475777 0.583062
0.713839 0.481221 0.589125
0.836196 0.486928 0.595502
0.960241 0.492786 0.602058
0.013360 0.580408 0.574737
0.130398 0.583225 0.577553
0.247654 0.586443 0.580766
0.365434 0.590173 0.584486
0.484057 0.594443 0.588741
0.603664 0.599087 0.593365
0.724721 0.604301 0.598555
0.847205 0.609859 0.604087
0.971150 0.615668 0.609867
0.016277 0.707136 0.586236
0.135095 0.709971 0.589053
0.254063 0.713134 0.592144
0.373394 0.716723 0.595589
0.493323 0.720779 0.599423
0.613828 0.725054 0.603401
0.732955 0.727377 0.605356
0.855842 0.732693 0.610245
0.983947 0.741329 0.617903
0.019241 0.835918 0.596748
0.139627 0.838773 0.599579
0.260122 0.841901 0.602605
0.380879 0.845388 0.605890
0.502649 0.850247 0.610161
0.628287 0.859694 0.617661
0.752289 0.865438 0.621788
0.874835 0.868159 0.623787
0.991359 0.868223 0.624606
0.022433 0.974597 0.611585
0.145216 0.977311 0.614341
0.267857 0.979613 0.616837
0.390070 0.981164 0.618858
0.511281 0.981394 0.620042
0.630200 0.979191 0.619589
0.742886 0.971139 0.614494
0.849545 0.958492 0.606492
0.947285 0.940042 0.594880
0.013124 0.013124 0.570154
0.111110 0.013546 0.588481
0.224957 0.014602 0.634397
0.339089 0.014999 0.651605
0.452257 0.015171 0.659092
0.568244 0.015352 0.666975
0.686972 0.015813 0.674987
0.810180 0.018649 0.684989
0.935237 0.021527 0.694572
0.014302 0.116494 0.621326
0.122194 0.121360 0.636625
0.232302 0.124012 0.650539
0.342675 0.125084 0.656162
0.455863 0.126421 0.663177
0.571799 0.127855 0.670698
0.690454 0.129562 0.678454
0.813592 0.133596 0.688283
0.938588 0.137604 0.697748
0.015051 0.230143 0.653874
0.126120 0.232899 0.656997
0.237967 0.236239 0.661822
0.349015 0.237715 0.665959
0.462356 0.239675 0.671449
0.578136 0.241899 0.677680
0.696507 0.244497 0.684447
0.819342 0.249472 0.693555
0.944046 0.254416 0.702494
0.015348 0.344346 0.666765
0.128562 0.347130 0.669716
0.242285 0.350484 0.673759
0.357095 0.354446 0.679015
0.471014 0.356442 0.682839
0.586876 0.358860 0.687472
0.705031 0.361815 0.692870
0.827520 0.367290 0.700889
0.951824 0.372818 0.708970
0.015638 0.462607 0.679387
0.130969 0.465407 0.682256
0.246620 0.468678 0.685812
0.363019 0.472535 0.690221
0.480496 0.476892 0.695392
0.596846 0.479156 0.698693
0.715104 0.482073 0.702815
0.837456 0.487661 0.709717
0.961464 0.493414 0.716843
0.015901 0.583994 0.690796
0.133153 0.586811 0.693634
0.250617 0.590012 0.696926
0.368582 0.593706 0.700799
0.487359 0.597922 0.705286
0.607109 0.602525 0.710247
0.725805 0.605227 0.713379
0.848323 0.610701 0.719341
0.972273 0.616430 0.725598
0.016297 0.708012 0.701095
0.135262 0.710848 0.703930
0.254372 0.714001 0.707079
0.373834 0.717567 0.710637
0.493877 0.721588 0.714646
0.614720 0.726064 0.719105
0.736381 0.730798 0.723818
0.859323 0.736066 0.729062
0.990097 0.746640 0.739563
0.019258 0.836651 0.712874
0.139749 0.839506 0.715717
0.260347 0.842629 0.718789
0.381202 0.846103 0.722161
0.504656 0.853642 0.729004
0.630262 0.862304 0.736812
0.756079 0.869381 0.743226
0.877528 0.870853 0.744508
0.994106 0.869701 0.743925
0.022407 0.973474 0.728574
0.145043 0.976152 0.731289
0.267502 0.978313 0.733615
0.389444 0.979589 0.735276
0.510245 0.979406 0.735840
0.628826 0.976918 0.734665
0.743199 0.970713 0.730611
0.848841 0.957354 0.720557
0.945371 0.938163 0.706154
0.017450 0.017450 0.758116
0.125311 0.017468 0.758891
0.234107 0.017539 0.761991
0.344840 0.017665 0.767440
0.458074 0.017827 0.774502
0.573883 0.018008 0.782337
0.692063 0.018192 0.790336
0.812665 0.018706 0.798487
0.937452 0.021578 0.808658
0.017508 0.124743 0.760644
0.128247 0.127389 0.763885
0.237331 0.127868 0.766759
0.348235 0.128719 0.771864
0.461531 0.129837 0.778567
0.577333 0.131092 0.786094
0.695473 0.132387 0.793857
0.816027 0.133996 0.801837
0.940770 0.137924 0.811887
0.017713 0.234690 0.769537
0.129735 0.237430 0.772645
0.242384 0.240642 0.777363
0.353934 0.241879 0.781361
0.467486 0.243572 0.786829
0.583267 0.245553 0.793227
0.701238 0.247669 0.800064
0.821566 0.250149 0.807325
0.946079 0.254964 0.816837
0.018003 0.348791 0.782123
0.131825 0.351567 0.785094
0.246096 0.354845 0.789178
0.361327 0.358665 0.794526
0.475496 0.360466 0.798516
0.591466 0.362683 0.803427
0.709339 0.365168 0.808932
0.829409 0.368129 0.815080
0.953606 0.373516 0.823705
0.018306 0.466790 0.795304
0.134025 0.469587 0.798196
0.250040 0.472820 0.801825
0.366749 0.476599 0.806373
0.484459 0.480845 0.811761
0.600953 0.482975 0.815355
0.718992 0.485467 0.819563
0.838980 0.488549 0.824532
0.962954 0.494179 0.832149
0.018592 0.587939 0.807706
0.136102 0.590755 0.810565
0.253813 0.593938 0.813924
0.372003 0.597589 0.817924
0.490967 0.601742 0.822606
0.610859 0.606267 0.827831
0.729355 0.608584 0.830995
0.849522 0.611565 0.834939
0.973484 0.617197 0.841620
0.018851 0.711611 0.818989
0.137995 0.714447 0.821839
0.257280 0.717590 0.825042
0.376906 0.721133 0.828704
0.497094 0.725117 0.832872
0.618057 0.729544 0.837547
0.739845 0.734255 0.842565
0.860426 0.737034 0.845703
0.993812 0.749483 0.859573
0.019279 0.837554 0.829371
0.139900 0.840410 0.832226
0.260660 0.843643 0.835455
0.382903 0.849879 0.841657
0.506783 0.857240 0.848974
0.631996 0.864676 0.856366
0.757219 0.870646 0.862306
0.879770 0.873099 0.864760
0.996449 0.870491 0.862204
0.022365 0.971653 0.844686
0.144766 0.974287 0.847344
0.266945 0.976278 0.849442
0.388504 0.977224 0.850630
0.508756 0.976547 0.850404
0.626572 0.973415 0.848036
0.740234 0.966750 0.842584
0.847012 0.954951 0.832605
0.942035 0.934873 0.815121
0.020184 0.020184 0.876894
0.129316 0.020199 0.877546
0.239155 0.020260 0.880204
0.350518 0.020372 0.885042
0.463977 0.020523 0.891594
0.579735 0.020697 0.899185
0.697725 0.020882 0.907224
0.817755 0.021068 0.915308
0.939989 0.021637 0.923589
0.020234 0.128669 0.879041
0.132183 0.131315 0.882210
0.242250 0.131689 0.884723
0.353771 0.132374 0.889323
0.467310 0.133309 0.895606
0.583090 0.134402 0.902946
0.701067 0.135567 0.910777
0.821069 0.136747 0.918700
0.943270 0.138290 0.926861
0.020416 0.239239 0.886956
0.133374 0.241970 0.890043
0.246839 0.245084 0.894627
0.358948 0.246120 0.898409
0.472791 0.247574 0.903717
0.588642 0.249323 0.910103
0.706545 0.251240 0.917101
0.826396 0.253224 0.924343
0.948419 0.255595 0.931967
0.020693 0.353375 0.898975
0.135160 0.356146 0.901956
0.250019 0.359356 0.906042
0.365716 0.363042 0.911403
0.480184 0.364652 0.915445
0.596304 0.366665 0.920500
0.714209 0.368957 0.926254
0.833898 0.371412 0.932416
0.955674 0.374326 0.939143
0.021000 0.471171 0.912339
0.137152 0.473967 0.915250
0.253575 0.477162 0.918927
0.370635 0.480860 0.923565
0.488616 0.484990 0.929100
0.605282 0.486975 0.932903
0.723415 0.489319 0.937393
0.843091 0.491920 0.942375
0.964698 0.495074 0.948058
0.021301 0.592089 0.925429
0.139108 0.594906 0.928306
0.257104 0.598068 0.931718
0.375553 0.601673 0.935819
0.494734 0.605756 0.940657
0.614794 0.610193 0.946096
0.733401 0.612407 0.949529
0.853291 0.614939 0.953454
0.974912 0.618103 0.958143
0.021583 0.715566 0.937640
0.140936 0.718403 0.940505
0.260426 0.721534 0.943755
0.380243 0.725051 0.947507
0.500602 0.728993 0.951813
0.621708 0.733364 0.956676
0.743607 0.738009 0.961933
0.865440 0.741671 0.966706
0.994289 0.751885 0.979916
0.021913 0.843955 0.951995
0.143138 0.847112 0.955199
0.264823 0.851409 0.959688
0.387489 0.856938 0.965562
0.511377 0.863233 0.972299
0.636067 0.869297 0.978772
0.760190 0.873674 0.983344
0.881122 0.874461 0.983894
0.993265 0.867734 0.976275
0.022301 0.968857 0.959392
0.144343 0.971439 0.961976
0.266113 0.973233 0.963780
0.387143 0.973802 0.964370
0.506677 0.972558 0.963165
0.623529 0.968688 0.959359
0.735948 0.961152 0.951923
0.841543 0.948741 0.939657
0.937063 0.929958 0.921077
