correction_luts/studio_clean_baked.cube
# Baked chain LUT: studio_punch@0.5 + sat_boost@0.5
# Generated by generate_chain_lut.rb
#   studio_punch (Studio Punch - Subtle Contrast Boost) @ 0.5
#   sat_boost (Saturation Boost - +15%) @ 0.5
TITLE "studio_punch@0.5 + sat_boost@0.5"
LUT_3D_SIZE 33
0.000000 0.000000 0.000000
0.007229 0.000000 0.000000
0.018453 0.000000 0.000000
0.031926 0.000000 0.000000
0.047104 0.000000 0.000000
0.066634 0.000000 0.000000
0.098630 0.000000 0.000000
0.142194 0.000000 0.000000
0.193184 0.000000 0.000000
0.245021 0.000000 0.000000
0.289030 0.000000 0.000000
0.320370 0.000000 0.000000
0.350713 0.000000 0.000000
0.381157 0.000000 0.000000
0.411695 0.000000 0.000000
0.442321 0.000000 0.000000
0.473029 0.000000 0.000000
0.503813 0.000000 0.000000
0.534671 0.000000 0.000000
0.565596 0.000000 0.000000
0.596587 0.000000 0.000000
0.627640 0.000000 0.000000
0.658753 0.000000 0.000000
0.689922 0.000000 0.000000
0.721145 0.000000 0.000000
0.752420 0.000000 0.000000
0.783746 0.000000 0.000000
0.815119 0.000000 0.000000
0.846539 0.000000 0.000000
0.878004 0.000000 0.000000
0.909513 0.000000 0.000000
0.941064 0.000000 0.000000
0.972655 0.000000 0.000000
0.000000 0.007229 0.000000
0.007229 0.007229 0.000000
0.018453 0.009227 0.000000
0.031926 0.010642 0.000000
0.047104 0.011776 0.000000
0.066634 0.013327 0.000000
0.098630 0.016438 0.000000
0.142194 0.020313 0.000000
0.193184 0.024148 0.000000
0.245021 0.027225 0.000000
0.289030 0.028903 0.000000
0.320370 0.029125 0.000000
0.350713 0.029226 0.000000
0.381157 0.029320 0.000000
0.411695 0.029407 0.000000
0.442321 0.029488 0.000000
0.473029 0.029564 0.000000
0.503813 0.029636 0.000000
0.534671 0.029704 0.000000
0.565596 0.029768 0.000000
0.596587 0.029829 0.000000
0.627640 0.029888 0.000000
0.658753 0.029943 0.000000
0.689922 0.029997 0.000000
0.721145 0.030048 0.000000
0.752420 0.030097 0.000000
0.783746 0.030144 0.000000
0.815119 0.030190 0.000000
0.846539 0.030234 0.000000
0.878004 0.030276 0.000000
0.909513 0.030317 0.000000
0.941064 0.030357 0.000000
0.972655 0.030395 0.000000
0.000000 0.018453 0.000000
0.009227 0.018453 0.000000
0.018453 0.018453 0.000000
0.031926 0.021284 0.000000
0.047104 0.023552 0.000000
0.066634 0.026653 0.000000
0.098630 0.032877 0.000000
0.142194 0.040627 0.000000
0.193184 0.048296 0.000000
0.245021 0.054449 0.000000
0.289030 0.057806 0.000000
0.320370 0.058249 0.000000
0.350713 0.058452 0.000000
0.381157 0.058640 0.000000
0.411695 0.058814 0.000000
0.442321 0.058976 0.000000
0.473029 0.059129 0.000000
0.503813 0.059272 0.000000
0.534671 0.059408 0.000000
0.565596 0.059536 0.000000
0.596587 0.059659 0.000000
0.627640 0.059775 0.000000
0.658753 0.059887 0.000000
0.689922 0.059993 0.000000
0.721145 0.060095 0.000000
0.752420 0.060194 0.000000
0.783746 0.060288 0.000000
0.815119 0.060379 0.000000
0.846539 0.060467 0.000000
0.878004 0.060552 0.000000
0.909513 0.060634 0.000000
0.941064 0.060714 0.000000
0.972655 0.060791 0.000000
0.000000 0.031926 0.000000
0.010642 0.031926 0.000000
0.021284 0.031926 0.000000
0.031926 0.031926 0.000000
0.047104 0.035328 0.000000
0.066634 0.039980 0.000000
0.098630 0.049315 0.000000
0.142194 0.060940 0.000000
0.193184 0.072444 0.000000
0.245021 0.081674 0.000000
0.289030 0.086709 0.000000
0.320370 0.087374 0.000000
0.350713 0.087678 0.000000
0.381157 0.087959 0.000000
0.411695 0.088220 0.000000
0.442321 0.088464 0.000000
0.473029 0.088693 0.000000
0.503813 0.088908 0.000000
0.534671 0.089112 0.000000
0.565596 0.089305 0.000000
0.596587 0.089488 0.000000
0.627640 0.089663 0.000000
0.658753 0.089830 0.000000
0.689922 0.089990 0.000000
0.721145 0.090143 0.000000
0.752420 0.090290 0.000000
0.783746 0.090432 0.000000
0.815119 0.090569 0.000000
0.846539 0.090701 0.000000
0.878004 0.090828 0.000000
0.909513 0.090951 0.000000
0.941064 0.091071 0.000000
0.972655 0.091186 0.000000
0.000000 0.047104 0.000000
0.011776 0.047104 0.000000
0.023552 0.047104 0.000000
0.035328 0.047104 0.000000
0.047104 0.047104 0.000000
0.066634 0.053307 0.000000
0.098630 0.065753 0.000000
0.142194 0.081253 0.000000
0.193184 0.096592 0.000000
0.245021 0.108898 0.000000
0.289030 0.115612 0.000000
0.320370 0.116498 0.000000
0.350713 0.116904 0.000000
0.381157 0.117279 0.000000
0.411695 0.117627 0.000000
0.442321 0.117952 0.000000
0.473029 0.118257 0.000000
0.503813 0.118544 0.000000
0.534671 0.118816 0.000000
0.565596 0.119073 0.000000
0.596587 0.119317 0.000000
0.627640 0.119551 0.000000
0.658753 0.119773 0.000000
0.689922 0.119986 0.000000
0.721145 0.120191 0.000000
0.752420 0.120387 0.000000
0.783746 0.120576 0.000000
0.815119 0.120758 0.000000
0.846539 0.120934 0.000000
0.878004 0.121104 0.000000
0.909513 0.121268 0.000000
0.941064 0.121428 0.000000
0.972655 0.121582 0.000000
0.000000 0.066634 0.000000
0.013327 0.066634 0.000000
0.026653 0.066634 0.000000
0.039980 0.066634 0.000000
0.053307 0.066634 0.000000
0.066634 0.066634 0.000000
0.098630 0.082192 0.000000
0.142194 0.101567 0.000000
0.193184 0.120740 0.000000
0.245021 0.136123 0.000000
0.289030 0.144515 0.000000
0.320370 0.145623 0.000000
0.350713 0.146130 0.000000
0.381157 0.146599 0.000000
0.411695 0.147034 0.000000
0.442321 0.147440 0.000000
0.473029 0.147822 0.000000
0.503813 0.148180 0.000000
0.534671 0.148520 0.000000
0.565596 0.148841 0.000000
0.596587 0.149147 0.000000
0.627640 0.149438 0.000000
0.658753 0.149717 0.000000
0.689922 0.149983 0.000000
0.721145 0.150239 0.000000
0.752420 0.150484 0.000000
0.783746 0.150720 0.000000
0.815119 0.150948 0.000000
0.846539 0.151168 0.000000
0.878004 0.151380 0.000000
0.909513 0.151586 0.000000
0.941064 0.151784 0.000000
0.972655 0.151977 0.000000
0.000000 0.098630 0.000000
0.016438 0.098630 0.000000
0.032877 0.098630 0.000000
0.049315 0.098630 0.000000
0.065753 0.098630 0.000000
0.082192 0.098630 0.000000
0.098630 0.098630 0.000000
0.142194 0.121880 0.000000
0.193184 0.144888 0.000000
0.245021 0.163347 0.000000
0.289030 0.173418 0.000000
0.320370 0.174747 0.000000
0.350713 0.175356 0.000000
0.381157 0.175919 0.000000
0.411695 0.176441 0.000000
0.442321 0.176928 0.000000
0.473029 0.177386 0.000000
0.503813 0.177816 0.000000
0.534671 0.178224 0.000000
0.565596 0.178609 0.000000
0.596587 0.178976 0.000000
0.627640 0.179326 0.000000
0.658753 0.179660 0.000000
0.689922 0.179980 0.000000
0.721145 0.180286 0.000000
0.752420 0.180581 0.000000
0.783746 0.180864 0.000000
0.815119 0.181138 0.000000
0.846539 0.181401 0.000000
0.878004 0.181656 0.000000
0.909513 0.181903 0.000000
0.941064 0.182141 0.000000
0.972655 0.182373 0.000000
0.000000 0.142194 0.000000
0.020313 0.142194 0.000000
0.040627 0.142194 0.000000
0.060940 0.142194 0.000000
0.081253 0.142194 0.000000
0.101567 0.142194 0.000000
0.121880 0.142194 0.000000
0.142194 0.142194 0.000000
0.193184 0.169036 0.000000
0.245021 0.190572 0.000000
0.289030 0.202321 0.000000
0.320370 0.203872 0.000000
0.350713 0.204582 0.000000
0.381157 0.205238 0.000000
0.411695 0.205848 0.000000
0.442321 0.206417 0.000000
0.473029 0.206950 0.000000
0.503813 0.207453 0.000000
0.534671 0.207927 0.000000
0.565596 0.208378 0.000000
0.596587 0.208806 0.000000
0.627640 0.209213 0.000000
0.658753 0.209603 0.000000
0.689922 0.209976 0.000000
0.721145 0.210334 0.000000
0.752420 0.210678 0.000000
0.783746 0.211008 0.000000
0.815119 0.211327 0.000000
0.846539 0.211635 0.000000
0.878004 0.211932 0.000000
0.909513 0.212220 0.000000
0.941064 0.212498 0.000000
0.972655 0.212768 0.000000
0.000000 0.193184 0.000000
0.024148 0.193184 0.000000
0.048296 0.193184 0.000000
0.072444 0.193184 0.000000
0.096592 0.193184 0.000000
0.120740 0.193184 0.000000
0.144888 0.193184 0.000000
0.169036 0.193184 0.000000
0.193184 0.193184 0.000000
0.245021 0.217796 0.000000
0.289030 0.231224 0.000000
0.320370 0.232996 0.000000
0.350713 0.233808 0.000000
0.381157 0.234558 0.000000
0.411695 0.235254 0.000000
0.442321 0.235905 0.000000
0.473029 0.236514 0.000000
0.503813 0.237089 0.000000
0.534671 0.237631 0.000000
0.565596 0.238146 0.000000
0.596587 0.238635 0.000000
0.627640 0.239101 0.000000
0.658753 0.239546 0.000000
0.689922 0.239973 0.000000
0.721145 0.240382 0.000000
0.752420 0.240774 0.000000
0.783746 0.241152 0.000000
0.815119 0.241517 0.000000
0.846539 0.241868 0.000000
0.878004 0.242208 0.000000
0.909513 0.242537 0.000000
0.941064 0.242855 0.000000
0.972655 0.243164 0.000000
0.000000 0.245021 0.000000
0.027225 0.245021 0.000000
0.054449 0.245021 0.000000
0.081674 0.245021 0.000000
0.108898 0.245021 0.000000
0.136123 0.245021 0.000000
0.163347 0.245021 0.000000
0.190572 0.245021 0.000000
0.217796 0.245021 0.000000
0.245021 0.245021 0.000000
0.289030 0.260127 0.000000
0.320370 0.262121 0.000000
0.350713 0.263034 0.000000
0.381157 0.263878 0.000000
0.411695 0.264661 0.000000
0.442321 0.265393 0.000000
0.473029 0.266079 0.000000
0.503813 0.266725 0.000000
0.534671 0.267335 0.000000
0.565596 0.267914 0.000000
0.596587 0.268464 0.000000
0.627640 0.268989 0.000000
0.658753 0.269490 0.000000
0.689922 0.269969 0.000000
0.721145 0.270429 0.000000
0.752420 0.270871 0.000000
0.783746 0.271297 0.000000
0.815119 0.271706 0.000000
0.846539 0.272102 0.000000
0.878004 0.272484 0.000000
0.909513 0.272854 0.000000
0.941064 0.273212 0.000000
0.972655 0.273559 0.000000
0.000000 0.289030 0.000000
0.028903 0.289030 0.000000
0.057806 0.289030 0.000000
0.086709 0.289030 0.000000
0.115612 0.289030 0.000000
0.144515 0.289030 0.000000
0.173418 0.289030 0.000000
0.202321 0.289030 0.000000
0.231224 0.289030 0.000000
0.260127 0.289030 0.000000
0.289030 0.289030 0.000000
0.320370 0.291245 0.000000
0.350713 0.292260 0.000000
0.381157 0.293198 0.000000
0.411695 0.294068 0.000000
0.442321 0.294881 0.000000
0.473029 0.295643 0.000000
0.503813 0.296361 0.000000
0.534671 0.297039 0.000000
0.565596 0.297682 0.000000
0.596587 0.298294 0.000000
0.627640 0.298876 0.000000
0.658753 0.299433 0.000000
0.689922 0.299966 0.000000
0.721145 0.300477 0.000000
0.752420 0.300968 0.000000
0.783746 0.301441 0.000000
0.815119 0.301896 0.000000
0.846539 0.302335 0.000000
0.878004 0.302760 0.000000
0.909513 0.303171 0.000000
0.941064 0.303569 0.000000
0.972655 0.303955 0.000000
0.000000 0.320370 0.000000
0.029125 0.320370 0.000000
0.058249 0.320370 0.000000
0.087374 0.320370 0.000000
0.116498 0.320370 0.000000
0.145623 0.320370 0.000000
0.174747 0.320370 0.000000
0.203872 0.320370 0.000000
0.232996 0.320370 0.000000
0.262121 0.320370 0.000000
0.291245 0.320370 0.000000
0.320370 0.320370 0.000000
0.350713 0.321487 0.000000
0.381157 0.322517 0.000000
0.411695 0.323475 0.000000
0.442321 0.324369 0.000000
0.473029 0.325207 0.000000
0.503813 0.325997 0.000000
0.534671 0.326743 0.000000
0.565596 0.327450 0.000000
0.596587 0.328123 0.000000
0.627640 0.328764 0.000000
0.658753 0.329376 0.000000
0.689922 0.329963 0.000000
0.721145 0.330525 0.000000
0.752420 0.331065 0.000000
0.783746 0.331585 0.000000
0.815119 0.332086 0.000000
0.846539 0.332569 0.000000
0.878004 0.333036 0.000000
0.909513 0.333488 0.000000
0.941064 0.333926 0.000000
0.972655 0.334350 0.000000
0.000000 0.350713 0.000000
0.029226 0.350713 0.000000
0.058452 0.350713 0.000000
0.087678 0.350713 0.000000
0.116904 0.350713 0.000000
0.146130 0.350713 0.000000
0.175356 0.350713 0.000000
0.204582 0.350713 0.000000
0.233808 0.350713 0.000000
0.263034 0.350713 0.000000
0.292260 0.350713 0.000000
0.321487 0.350713 0.000000
0.350713 0.350713 0.000000
0.381157 0.351837 0.000000
0.411695 0.352882 0.000000
0.442321 0.353857 0.000000
0.473029 0.354772 0.000000
0.503813 0.355633 0.000000
0.534671 0.356447 0.000000
0.565596 0.357219 0.000000
0.596587 0.357952 0.000000
0.627640 0.358652 0.000000
0.658753 0.359320 0.000000
0.689922 0.359959 0.000000
0.721145 0.360572 0.000000
0.752420 0.361162 0.000000
0.783746 0.361729 0.000000
0.815119 0.362275 0.000000
0.846539 0.362803 0.000000
0.878004 0.363312 0.000000
0.909513 0.363805 0.000000
0.941064 0.364283 0.000000
0.972655 0.364746 0.000000
0.000000 0.381157 0.000000
0.029320 0.381157 0.000000
0.058640 0.381157 0.000000
0.087959 0.381157 0.000000
0.117279 0.381157 0.000000
0.146599 0.381157 0.000000
0.175919 0.381157 0.000000
0.205238 0.381157 0.000000
0.234558 0.381157 0.000000
0.263878 0.381157 0.000000
0.293198 0.381157 0.000000
0.322517 0.381157 0.000000
0.351837 0.381157 0.000000
0.381157 0.381157 0.000000
0.411695 0.382289 0.000000
0.442321 0.383345 0.000000
0.473029 0.384336 0.000000
0.503813 0.385269 0.000000
0.534671 0.386151 0.000000
0.565596 0.386987 0.000000
0.596587 0.387782 0.000000
0.627640 0.388539 0.000000
0.658753 0.389263 0.000000
0.689922 0.389956 0.000000
0.721145 0.390620 0.000000
0.752420 0.391258 0.000000
0.783746 0.391873 0.000000
0.815119 0.392465 0.000000
0.846539 0.393036 0.000000
0.878004 0.393588 0.000000
0.909513 0.394122 0.000000
0.941064 0.394640 0.000000
0.972655 0.395141 0.000000
0.000000 0.411695 0.000000
0.029407 0.411695 0.000000
0.058814 0.411695 0.000000
0.088220 0.411695 0.000000
0.117627 0.411695 0.000000
0.147034 0.411695 0.000000
0.176441 0.411695 0.000000
0.205848 0.411695 0.000000
0.235254 0.411695 0.000000
0.264661 0.411695 0.000000
0.294068 0.411695 0.000000
0.323475 0.411695 0.000000
0.352882 0.411695 0.000000
0.382289 0.411695 0.000000
0.411695 0.411695 0.000000
0.442321 0.412833 0.000000
0.473029 0.413900 0.000000
0.503813 0.414905 0.000000
0.534671 0.415855 0.000000
0.565596 0.416755 0.000000
0.596587 0.417611 0.000000
0.627640 0.418427 0.000000
0.658753 0.419206 0.000000
0.689922 0.419952 0.000000
0.721145 0.420668 0.000000
0.752420 0.421355 0.000000
0.783746 0.422017 0.000000
0.815119 0.422654 0.000000
0.846539 0.423270 0.000000
0.878004 0.423864 0.000000
0.909513 0.424439 0.000000
0.941064 0.424996 0.000000
0.972655 0.425537 0.000000
0.000000 0.442321 0.000000
0.029488 0.442321 0.000000
0.058976 0.442321 0.000000
0.088464 0.442321 0.000000
0.117952 0.442321 0.000000
0.147440 0.442321 0.000000
0.176928 0.442321 0.000000
0.206417 0.442321 0.000000
0.235905 0.442321 0.000000
0.265393 0.442321 0.000000
0.294881 0.442321 0.000000
0.324369 0.442321 0.000000
0.353857 0.442321 0.000000
0.383345 0.442321 0.000000
0.412833 0.442321 0.000000
0.442321 0.442321 0.000000
0.473029 0.443465 0.000000
0.503813 0.444541 0.000000
0.534671 0.445559 0.000000
0.565596 0.446523 0.000000
0.596587 0.447440 0.000000
0.627640 0.448315 0.000000
0.658753 0.449150 0.000000
0.689922 0.449949 0.000000
0.721145 0.450716 0.000000
0.752420 0.451452 0.000000
0.783746 0.452161 0.000000
0.815119 0.452844 0.000000
0.846539 0.453503 0.000000
0.878004 0.454140 0.000000
0.909513 0.454757 0.000000
0.941064 0.455353 0.000000
0.972655 0.455932 0.000000
0.000000 0.473029 0.000000
0.029564 0.473029 0.000000
0.059129 0.473029 0.000000
0.088693 0.473029 0.000000
0.118257 0.473029 0.000000
0.147822 0.473029 0.000000
0.177386 0.473029 0.000000
0.206950 0.473029 0.000000
0.236514 0.473029 0.000000
0.266079 0.473029 0.000000
0.295643 0.473029 0.000000
0.325207 0.473029 0.000000
0.354772 0.473029 0.000000
0.384336 0.473029 0.000000
0.413900 0.473029 0.000000
0.443465 0.473029 0.000000
0.473029 0.473029 0.000000
0.503813 0.474177 0.000000
0.534671 0.475263 0.000000
0.565596 0.476292 0.000000
0.596587 0.477270 0.000000
0.627640 0.478202 0.000000
0.658753 0.479093 0.000000
0.689922 0.479945 0.000000
0.721145 0.480763 0.000000
0.752420 0.481549 0.000000
0.783746 0.482305 0.000000
0.815119 0.483034 0.000000
0.846539 0.483737 0.000000
0.878004 0.484416 0.000000
0.909513 0.485074 0.000000
0.941064 0.485710 0.000000
0.972655 0.486327 0.000000
0.000000 0.503813 0.000000
0.029636 0.503813 0.000000
0.059272 0.503813 0.000000
0.088908 0.503813 0.000000
0.118544 0.503813 0.000000
0.148180 0.503813 0.000000
0.177816 0.503813 0.000000
0.207453 0.503813 0.000000
0.237089 0.503813 0.000000
0.266725 0.503813 0.000000
0.296361 0.503813 0.000000
0.325997 0.503813 0.000000
0.355633 0.503813 0.000000
0.385269 0.503813 0.000000
0.414905 0.503813 0.000000
0.444541 0.503813 0.000000
0.474177 0.503813 0.000000
0.503813 0.503813 0.000000
0.534671 0.504967 0.000000
0.565596 0.506060 0.000000
0.596587 0.507099 0.000000
0.627640 0.508090 0.000000
0.658753 0.509036 0.000000
0.689922 0.509942 0.000000
0.721145 0.510811 0.000000
0.752420 0.511646 0.000000
0.783746 0.512449 0.000000
0.815119 0.513223 0.000000
0.846539 0.513970 0.000000
0.878004 0.514692 0.000000
0.909513 0.515391 0.000000
0.941064 0.516067 0.000000
0.972655 0.516723 0.000000
0.000000 0.534671 0.000000
0.029704 0.534671 0.000000
0.059408 0.534671 0.000000
0.089112 0.534671 0.000000
0.118816 0.534671 0.000000
0.148520 0.534671 0.000000
0.178224 0.534671 0.000000
0.207927 0.534671 0.000000
0.237631 0.534671 0.000000
0.267335 0.534671 0.000000
0.297039 0.534671 0.000000
0.326743 0.534671 0.000000
0.356447 0.534671 0.000000
0.386151 0.534671 0.000000
0.415855 0.534671 0.000000
0.445559 0.534671 0.000000
0.475263 0.534671 0.000000
0.504967 0.534671 0.000000
0.534671 0.534671 0.000000
0.565596 0.535828 0.000000
0.596587 0.536929 0.000000
0.627640 0.537977 0.000000
0.658753 0.538979 0.000000
0.689922 0.539939 0.000000
0.721145 0.540859 0.000000
0.752420 0.541743 0.000000
0.783746 0.542593 0.000000
0.815119 0.543413 0.000000
0.846539 0.544204 0.000000
0.878004 0.544968 0.000000
0.909513 0.545708 0.000000
0.941064 0.546424 0.000000
0.972655 0.547118 0.000000
0.000000 0.565596 0.000000
0.029768 0.565596 0.000000
0.059536 0.565596 0.000000
0.089305 0.565596 0.000000
0.119073 0.565596 0.000000
0.148841 0.565596 0.000000
0.178609 0.565596 0.000000
0.208378 0.565596 0.000000
0.238146 0.565596 0.000000
0.267914 0.565596 0.000000
0.297682 0.565596 0.000000
0.327450 0.565596 0.000000
0.357219 0.565596 0.000000
0.386987 0.565596 0.000000
0.416755 0.565596 0.000000
0.446523 0.565596 0.000000
0.476292 0.565596 0.000000
0.506060 0.565596 0.000000
0.535828 0.565596 0.000000
0.565596 0.565596 0.000000
0.596587 0.566758 0.000000
0.627640 0.567865 0.000000
0.658753 0.568923 0.000000
0.689922 0.569935 0.000000
0.721145 0.570906 0.000000
0.752420 0.571839 0.000000
0.783746 0.572737 0.000000
0.815119 0.573602 0.000000
0.846539 0.574437 0.000000
0.878004 0.575244 0.000000
0.909513 0.576025 0.000000
0.941064 0.576781 0.000000
0.972655 0.577514 0.000000
0.000000 0.596587 0.000000
0.029829 0.596587 0.000000
0.059659 0.596587 0.000000
0.089488 0.596587 0.000000
0.119317 0.596587 0.000000
0.149147 0.596587 0.000000
0.178976 0.596587 0.000000
0.208806 0.596587 0.000000
0.238635 0.596587 0.000000
0.268464 0.596587 0.000000
0.298294 0.596587 0.000000
0.328123 0.596587 0.000000
0.357952 0.596587 0.000000
0.387782 0.596587 0.000000
0.417611 0.596587 0.000000
0.447440 0.596587 0.000000
0.477270 0.596587 0.000000
0.507099 0.596587 0.000000
0.536929 0.596587 0.000000
0.566758 0.596587 0.000000
0.596587 0.596587 0.000000
0.627640 0.597753 0.000000
0.658753 0.598866 0.000000
0.689922 0.599932 0.000000
0.721145 0.600954 0.000000
0.752420 0.601936 0.000000
0.783746 0.602881 0.000000
0.815119 0.603792 0.000000
0.846539 0.604671 0.000000
0.878004 0.605520 0.000000
0.909513 0.606342 0.000000
0.941064 0.607138 0.000000
0.972655 0.607909 0.000000
0.000000 0.627640 0.000000
0.029888 0.627640 0.000000
0.059775 0.627640 0.000000
0.089663 0.627640 0.000000
0.119551 0.627640 0.000000
0.149438 0.627640 0.000000
0.179326 0.627640 0.000000
0.209213 0.627640 0.000000
0.239101 0.627640 0.000000
0.268989 0.627640 0.000000
0.298876 0.627640 0.000000
0.328764 0.627640 0.000000
0.358652 0.627640 0.000000
0.388539 0.627640 0.000000
0.418427 0.627640 0.000000
0.448315 0.627640 0.000000
0.478202 0.627640 0.000000
0.508090 0.627640 0.000000
0.537977 0.627640 0.000000
0.567865 0.627640 0.000000
0.597753 0.627640 0.000000
0.627640 0.627640 0.000000
0.658753 0.628809 0.000000
0.689922 0.629928 0.000000
0.721145 0.631002 0.000000
0.752420 0.632033 0.000000
0.783746 0.633025 0.000000
0.815119 0.633982 0.000000
0.846539 0.634905 0.000000
0.878004 0.635796 0.000000
0.909513 0.636659 0.000000
0.941064 0.637495 0.000000
0.972655 0.638305 0.000000
0.000000 0.658753 0.000000
0.029943 0.658753 0.000000
0.059887 0.658753 0.000000
0.089830 0.658753 0.000000
0.119773 0.658753 0.000000
0.149717 0.658753 0.000000
0.179660 0.658753 0.000000
0.209603 0.658753 0.000000
0.239546 0.658753 0.000000
0.269490 0.658753 0.000000
0.299433 0.658753 0.000000
0.329376 0.658753 0.000000
0.359320 0.658753 0.000000
0.389263 0.658753 0.000000
0.419206 0.658753 0.000000
0.449150 0.658753 0.000000
0.479093 0.658753 0.000000
0.509036 0.658753 0.000000
0.538979 0.658753 0.000000
0.568923 0.658753 0.000000
0.598866 0.658753 0.000000
0.628809 0.658753 0.000000
0.658753 0.658753 0.000000
0.689922 0.659925 0.000000
0.721145 0.661049 0.000000
0.752420 0.662130 0.000000
0.783746 0.663169 0.000000
0.815119 0.664171 0.000000
0.846539 0.665138 0.000000
0.878004 0.666072 0.000000
0.909513 0.666976 0.000000
0.941064 0.667852 0.000000
0.972655 0.668700 0.000000
0.000000 0.689922 0.000000
0.029997 0.689922 0.000000
0.059993 0.689922 0.000000
0.089990 0.689922 0.000000
0.119986 0.689922 0.000000
0.149983 0.689922 0.000000
0.179980 0.689922 0.000000
0.209976 0.689922 0.000000
0.239973 0.689922 0.000000
0.269969 0.689922 0.000000
0.299966 0.689922 0.000000
0.329963 0.689922 0.000000
0.359959 0.689922 0.000000
0.389956 0.689922 0.000000
0.419952 0.689922 0.000000
0.449949 0.689922 0.000000
0.479945 0.689922 0.000000
0.509942 0.689922 0.000000
0.539939 0.689922 0.000000
0.569935 0.689922 0.000000
0.599932 0.689922 0.000000
0.629928 0.689922 0.000000
0.659925 0.689922 0.000000
0.689922 0.689922 0.000000
0.721145 0.691097 0.000000
0.752420 0.692227 0.000000
0.783746 0.693313 0.000000
0.815119 0.694361 0.000000
0.846539 0.695372 0.000000
0.878004 0.696348 0.000000
0.909513 0.697293 0.000000
0.941064 0.698208 0.000000
0.972655 0.699096 0.000000
0.000000 0.721145 0.000000
0.030048 0.721145 0.000000
0.060095 0.721145 0.000000
0.090143 0.721145 0.000000
0.120191 0.721145 0.000000
0.150239 0.721145 0.000000
0.180286 0.721145 0.000000
0.210334 0.721145 0.000000
0.240382 0.721145 0.000000
0.270429 0.721145 0.000000
0.300477 0.721145 0.000000
0.330525 0.721145 0.000000
0.360572 0.721145 0.000000
0.390620 0.721145 0.000000
0.420668 0.721145 0.000000
0.450716 0.721145 0.000000
0.480763 0.721145 0.000000
0.510811 0.721145 0.000000
0.540859 0.721145 0.000000
0.570906 0.721145 0.000000
0.600954 0.721145 0.000000
0.631002 0.721145 0.000000
0.661049 0.721145 0.000000
0.691097 0.721145 0.000000
0.721145 0.721145 0.000000
0.752420 0.722323 0.000000
0.783746 0.723457 0.000000
0.815119 0.724550 0.000000
0.846539 0.725605 0.000000
0.878004 0.726624 0.000000
0.909513 0.727610 0.000000
0.941064 0.728565 0.000000
0.972655 0.729491 0.000000
0.000000 0.752420 0.000000
0.030097 0.752420 0.000000
0.060194 0.752420 0.000000
0.090290 0.752420 0.000000
0.120387 0.752420 0.000000
0.150484 0.752420 0.000000
0.180581 0.752420 0.000000
0.210678 0.752420 0.000000
0.240774 0.752420 0.000000
0.270871 0.752420 0.000000
0.300968 0.752420 0.000000
0.331065 0.752420 0.000000
0.361162 0.752420 0.000000
0.391258 0.752420 0.000000
0.421355 0.752420 0.000000
0.451452 0.752420 0.000000
0.481549 0.752420 0.000000
0.511646 0.752420 0.000000
0.541743 0.752420 0.000000
0.571839 0.752420 0.000000
0.601936 0.752420 0.000000
0.632033 0.752420 0.000000
0.662130 0.752420 0.000000
0.692227 0.752420 0.000000
0.722323 0.752420 0.000000
0.752420 0.752420 0.000000
0.783746 0.753602 0.000000
0.815119 0.754740 0.000000
0.846539 0.755839 0.000000
0.878004 0.756900 0.000000
0.909513 0.757928 0.000000
0.941064 0.758922 0.000000
0.972655 0.759887 0.000000
0.000000 0.783746 0.000000
0.030144 0.783746 0.000000
0.060288 0.783746 0.000000
0.090432 0.783746 0.000000
0.120576 0.783746 0.000000
0.150720 0.783746 0.000000
0.180864 0.783746 0.000000
0.211008 0.783746 0.000000
0.241152 0.783746 0.000000
0.271297 0.783746 0.000000
0.301441 0.783746 0.000000
0.331585 0.783746 0.000000
0.361729 0.783746 0.000000
0.391873 0.783746 0.000000
0.422017 0.783746 0.000000
0.452161 0.783746 0.000000
0.482305 0.783746 0.000000
0.512449 0.783746 0.000000
0.542593 0.783746 0.000000
0.572737 0.783746 0.000000
0.602881 0.783746 0.000000
