correction_luts/studio_dance_baked.cube
# Baked chain LUT: studio_punch@1.0 + warm_shift@0.4 + sat_boost@0.6 + black_crush@0.25
# Generated by generate_chain_lut.rb
#   studio_punch (Studio Punch - Subtle Contrast Boost) @ 1.0
#   warm_shift (Warm Shift - Add Warmth) @ 0.4
#   sat_boost (Saturation Boost - +15%) @ 0.6
#   black_crush (Black Crush - Shadow Floor) @ 0.25
TITLE "studio_punch@1.0 + warm_shift@0.4 + sat_boost@0.6 + black_crush@0.25"
LUT_3D_SIZE 9
0.000000 0.000000 0.000000
0.002775 0.000000 0.000000
0.050494 0.000000 0.000000
0.218059 0.000000 0.000000
0.439057 0.000000 0.000000
0.578578 0.000000 0.000000
0.704494 0.000000 0.000000
0.832109 0.000000 0.000000
0.961195 0.000000 0.000000
0.000000 0.002754 0.000000
0.002775 0.002760 0.000000
0.050494 0.024849 0.000000
0.218059 0.071542 0.000000
0.439057 0.108036 0.000000
0.578578 0.113893 0.000000
0.704494 0.115567 0.000000
0.832109 0.117001 0.000000
0.961195 0.118257 0.000000
0.000000 0.049404 0.000000
0.025097 0.049404 0.000000
0.050494 0.049699 0.000000
0.218059 0.143084 0.000000
0.439057 0.216071 0.000000
0.578578 0.227787 0.000000
0.704494 0.231133 0.000000
0.832109 0.234001 0.000000
0.961195 0.236514 0.000000
0.000000 0.209483 0.000000
0.070945 0.209483 0.000000
0.141890 0.209483 0.000000
0.218059 0.214625 0.000000
0.439057 0.324107 0.000000
0.578578 0.341680 0.000000
0.704494 0.346700 0.000000
0.832109 0.351002 0.000000
0.961195 0.354772 0.000000
0.000000 0.427170 0.000000
0.108501 0.427170 0.000000
0.217003 0.427170 0.000000
0.325504 0.427170 0.000000
0.439057 0.432143 0.000000
0.578578 0.455573 0.000000
0.704494 0.462267 0.000000
0.832109 0.468003 0.000000
0.961195 0.473029 0.000000
0.000000 0.569466 0.000000
0.115716 0.569466 0.000000
0.231431 0.569466 0.000000
0.347147 0.569466 0.000000
0.462862 0.569466 0.000000
0.578578 0.569466 0.000000
0.704494 0.577833 0.000000
0.832109 0.585003 0.000000
0.961195 0.591286 0.000000
0.000000 0.693400 0.000000
0.117416 0.693400 0.000000
0.234831 0.693400 0.000000
0.352247 0.693400 0.000000
0.469663 0.693400 0.000000
0.587079 0.693400 0.000000
0.704494 0.693400 0.000000
0.832109 0.702004 0.000000
0.961195 0.709543 0.000000
0.000000 0.819005 0.000000
0.118873 0.819005 0.000000
0.237745 0.819005 0.000000
0.356618 0.819005 0.000000
0.475491 0.819005 0.000000
0.594363 0.819005 0.000000
0.713236 0.819005 0.000000
0.832109 0.819005 0.000000
0.961195 0.827800 0.000000
0.000000 0.946058 0.000000
0.120149 0.946058 0.000000
0.240299 0.946058 0.000000
0.360448 0.946058 0.000000
0.480597 0.946058 0.000000
0.600747 0.946058 0.000000
0.720896 0.946058 0.000000
0.841045 0.946058 0.000000
0.961195 0.946058 0.000000
0.000000 0.000000 0.002729
0.002775 0.000000 0.002742
0.050494 0.000000 0.024352
0.218059 0.000000 0.070111
0.439057 0.000000 0.105875
0.578578 0.000000 0.111615
0.704494 0.000000 0.113255
0.832109 0.000000 0.114661
0.961195 0.000000 0.115892
0.000000 0.002754 0.002736
0.025118 0.024688 0.024150
0.146083 0.067055 0.065523
0.337210 0.097558 0.095218
0.478668 0.098292 0.095809
0.608401 0.094453 0.091933
0.740172 0.090275 0.087725
0.873677 0.085838 0.083260
1.000000 0.074391 0.072903
0.000000 0.049404 0.024208
0.067277 0.141412 0.064565
0.146083 0.143632 0.065523
0.337210 0.214576 0.095218
0.478668 0.222436 0.095809
0.608401 0.220420 0.091933
0.740172 0.217806 0.087725
0.873677 0.214739 0.083260
1.000000 0.206621 0.072903
0.000000 0.209483 0.068431
0.098750 0.328787 0.094576
0.216551 0.328787 0.094576
0.337210 0.331593 0.095218
0.478668 0.346579 0.095809
0.608401 0.346388 0.091933
0.740172 0.345337 0.087725
0.873677 0.343639 0.083260
1.000000 0.338851 0.072903
0.000000 0.427170 0.104657
0.100606 0.471051 0.096137
0.226736 0.471051 0.096137
0.352866 0.471051 0.096137
0.478668 0.470723 0.095809
0.608401 0.472356 0.091933
0.740172 0.472867 0.087725
0.873677 0.472539 0.083260
1.000000 0.471081 0.072903
0.000000 0.569466 0.111615
0.096884 0.598739 0.092349
0.224867 0.598739 0.092349
0.352850 0.598739 0.092349
0.480834 0.598739 0.092349
0.608401 0.598323 0.091933
0.740172 0.600398 0.087725
0.873677 0.601440 0.083260
1.000000 0.603310 0.072903
0.000000 0.693400 0.113255
0.092821 0.728434 0.088230
0.222392 0.728434 0.088230
0.351964 0.728434 0.088230
0.481535 0.728434 0.088230
0.611106 0.728434 0.088230
0.740172 0.727929 0.087725
0.873677 0.730340 0.083260
1.000000 0.735540 0.072903
0.000000 0.819005 0.114661
0.088497 0.859836 0.083856
0.219459 0.859836 0.083856
0.350422 0.859836 0.083856
0.481385 0.859836 0.083856
0.612348 0.859836 0.083856
0.743310 0.859836 0.083856
0.873677 0.859240 0.083260
1.000000 0.867770 0.072903
0.000000 0.946058 0.115892
0.075581 1.000000 0.072903
0.209927 1.000000 0.072903
0.344272 1.000000 0.072903
0.478618 1.000000 0.072903
0.612963 1.000000 0.072903
0.747309 1.000000 0.072903
0.881654 1.000000 0.072903
1.000000 1.000000 0.072903
0.000000 0.000000 0.048051
0.024908 0.000000 0.048051
0.050494 0.000000 0.048705
0.218059 0.000000 0.140222
0.439057 0.000000 0.211750
0.578578 0.000000 0.223231
0.704494 0.000000 0.226511
0.832109 0.000000 0.229321
0.961195 0.000000 0.231784
0.000000 0.024516 0.048051
0.066653 0.065460 0.137051
0.147503 0.067673 0.141934
0.338319 0.097810 0.210549
0.478566 0.098190 0.217368
0.608297 0.094349 0.215278
0.740067 0.090170 0.212600
0.873571 0.085732 0.209476
1.000000 0.074391 0.202488
0.000000 0.049404 0.048416
0.068406 0.143911 0.140842
0.217010 0.213291 0.208642
0.352723 0.222620 0.217655
0.480605 0.220607 0.215569
0.610790 0.217996 0.212894
0.742906 0.214930 0.209774
0.912217 0.176430 0.171926
1.000000 0.203872 0.199795
0.000000 0.209483 0.136862
0.099268 0.330917 0.209488
0.226839 0.347010 0.217901
0.352723 0.346764 0.217655
0.480605 0.346575 0.215569
0.610790 0.345526 0.212894
0.742906 0.343830 0.209774
0.912217 0.320561 0.171926
1.000000 0.336560 0.199795
0.000000 0.427170 0.209313
0.100422 0.470867 0.217614
0.224971 0.472876 0.215902
0.352954 0.472876 0.215902
0.480605 0.472543 0.215569
0.610790 0.473057 0.212894
0.742906 0.472731 0.209774
0.912217 0.464691 0.171926
1.000000 0.469248 0.199795
0.000000 0.569466 0.223231
0.096697 0.598552 0.215610
0.222498 0.601009 0.213316
0.352069 0.601009 0.213316
0.481640 0.601009 0.213316
0.610790 0.600588 0.212894
0.742906 0.601631 0.209774
0.912217 0.608822 0.171926
1.000000 0.601936 0.199795
0.000000 0.693400 0.226511
0.092632 0.728245 0.213021
0.219566 0.731042 0.210285
0.350529 0.731042 0.210285
0.481491 0.731042 0.210285
0.612454 0.731042 0.210285
0.742906 0.730532 0.209774
0.912217 0.752952 0.171926
1.000000 0.734624 0.199795
0.000000 0.819005 0.229321
0.088305 0.859645 0.209987
0.180658 0.897708 0.172551
0.327095 0.897708 0.172551
0.473532 0.897708 0.172551
0.619968 0.897708 0.172551
0.766405 0.897708 0.172551
0.912217 0.897083 0.171926
1.000000 0.867312 0.199795
0.000000 0.946058 0.231784
0.075581 1.000000 0.202488
0.207134 1.000000 0.199795
0.341945 1.000000 0.199795
0.476756 1.000000 0.199795
0.611567 1.000000 0.199795
0.746378 1.000000 0.199795
0.881189 1.000000 0.199795
1.000000 1.000000 0.199795
0.000000 0.000000 0.199087
0.068800 0.000000 0.199087
0.137600 0.000000 0.199087
0.218059 0.000000 0.210333
0.439057 0.000000 0.317625
0.578578 0.000000 0.334846
0.704494 0.000000 0.339766
0.832109 0.000000 0.343982
0.961195 0.000000 0.347676
0.000000 0.067717 0.199087
0.098120 0.096280 0.319349
0.214944 0.096280 0.319349
0.338319 0.097810 0.325636
0.478566 0.098190 0.339028
0.608297 0.094349 0.338726
0.740067 0.090170 0.337580
0.873571 0.085732 0.335798
1.000000 0.074391 0.332074
0.000000 0.135433 0.199087
0.098379 0.211909 0.320363
0.226941 0.222969 0.339664
0.352518 0.222415 0.339110
0.480397 0.220399 0.338809
0.610580 0.217785 0.337664
0.742693 0.214717 0.335884
0.912031 0.176244 0.312988
1.000000 0.203872 0.329829
0.000000 0.209483 0.205293
0.099268 0.330917 0.323912
0.226470 0.346641 0.339192
0.352809 0.346762 0.339204
0.481409 0.345716 0.338064
0.612135 0.344022 0.336288
0.765994 0.320775 0.313388
0.906000 0.312355 0.305018
1.000000 0.334395 0.327707
0.000000 0.427170 0.313970
0.100422 0.470867 0.339274
0.224597 0.472501 0.338975
0.352174 0.473584 0.338401
0.481409 0.473247 0.338064
0.612135 0.472922 0.336288
0.765994 0.464906 0.313388
0.906000 0.456985 0.305018
1.000000 0.467516 0.327707
0.000000 0.569466 0.334846
0.096697 0.598552 0.339059
0.222119 0.600630 0.337917
0.350635 0.602248 0.336714
0.481598 0.602248 0.336714
0.612135 0.601823 0.336288
0.765994 0.609036 0.313388
0.906000 0.601615 0.305018
1.000000 0.600637 0.327707
0.000000 0.693400 0.339766
0.092632 0.728245 0.338001
0.219183 0.730659 0.336224
0.327214 0.753696 0.313918
0.473651 0.753696 0.313918
0.620087 0.753696 0.313918
0.765994 0.753167 0.313388
0.906000 0.746244 0.305018
1.000000 0.733758 0.327707
0.000000 0.819005 0.343982
0.088305 0.859645 0.336309
0.180324 0.897373 0.313464
0.318849 0.891499 0.305642
0.465793 0.891499 0.305642
0.612737 0.891499 0.305642
0.759681 0.891499 0.305642
0.906000 0.890874 0.305018
1.000000 0.866879 0.327707
0.000000 0.946058 0.347676
0.075581 1.000000 0.332074
0.207134 1.000000 0.329829
0.339746 1.000000 0.327707
0.474997 1.000000 0.327707
0.610247 1.000000 0.327707
0.745498 1.000000 0.327707
0.880749 1.000000 0.327707
1.000000 1.000000 0.327707
0.000000 0.000000 0.411706
0.106708 0.000000 0.411706
0.213415 0.000000 0.411706
0.320123 0.000000 0.411706
0.439057 0.000000 0.423500
0.578578 0.000000 0.446462
0.704494 0.000000 0.453021
0.832109 0.000000 0.458643
0.961195 0.000000 0.463568
0.000000 0.105027 0.411706
0.100914 0.098928 0.461427
0.227044 0.098928 0.461427
0.353174 0.098928 0.461427
0.478566 0.098190 0.460689
0.608297 0.094349 0.462174
0.740067 0.090170 0.462560
0.873571 0.085732 0.462121
1.000000 0.074391 0.461659
0.000000 0.210054 0.411706
0.100832 0.222989 0.461345
0.225179 0.221148 0.463006
0.353162 0.221148 0.463006
0.480397 0.220399 0.462257
0.610580 0.217785 0.462644
0.742693 0.214717 0.462206
0.912031 0.176244 0.454236
1.000000 0.203872 0.459863
0.000000 0.315081 0.411706
0.100832 0.347133 0.461345
0.225013 0.346950 0.462840
0.352280 0.346158 0.463486
0.481093 0.345400 0.462728
0.611815 0.343703 0.462291
0.765690 0.320470 0.454331
0.905697 0.312052 0.446452
1.000000 0.334395 0.458166
0.000000 0.427170 0.418627
0.100422 0.470867 0.460935
0.224597 0.472501 0.462424
0.351606 0.473015 0.462812
0.481364 0.473114 0.462802
0.619772 0.465120 0.454850
0.759271 0.457200 0.446970
0.899765 0.449342 0.439150
1.000000 0.465872 0.456555
0.000000 0.569466 0.446462
0.096697 0.598552 0.462507
0.222119 0.600630 0.462897
0.350060 0.601674 0.462461
0.473770 0.609685 0.455285
0.619772 0.609250 0.454850
0.759271 0.601830 0.446970
0.899765 0.594443 0.439150
1.000000 0.599404 0.456555
0.000000 0.693400 0.453021
0.092632 0.728245 0.462981
0.219183 0.730659 0.462547
0.326665 0.753147 0.454617
0.465912 0.746988 0.447499
0.612856 0.746988 0.447499
0.759271 0.746459 0.446970
0.899765 0.739545 0.439150
1.000000 0.732936 0.456555
0.000000 0.819005 0.458643
0.088305 0.859645 0.462632
0.180324 0.897373 0.454712
0.318304 0.890954 0.446834
0.458119 0.885271 0.439774
0.605543 0.885271 0.439774
0.752966 0.885271 0.439774
0.899765 0.884647 0.439150
1.000000 0.866468 0.456555
0.000000 0.946058 0.463568
0.075581 1.000000 0.461659
0.207134 1.000000 0.459863
0.339746 1.000000 0.458166
0.473326 1.000000 0.456555
0.608995 1.000000 0.456555
0.744663 1.000000 0.456555
0.880332 1.000000 0.456555
1.000000 1.000000 0.456555
0.000000 0.000000 0.558077
0.115716 0.000000 0.558077
0.231431 0.000000 0.558077
0.347147 0.000000 0.558077
0.462862 0.000000 0.558077
0.578578 0.000000 0.558077
0.704494 0.000000 0.566277
0.832109 0.000000 0.573303
0.961195 0.000000 0.579460
0.000000 0.113893 0.558077
0.097300 0.095285 0.586559
0.225283 0.095285 0.586559
0.353266 0.095285 0.586559
0.481250 0.095285 0.586559
0.608297 0.094349 0.585622
0.740067 0.090170 0.587540
0.873571 0.085732 0.588443
1.000000 0.074391 0.591244
0.000000 0.227787 0.558077
0.097217 0.221169 0.586475
0.222814 0.218733 0.588572
0.352385 0.218733 0.588572
0.481956 0.218733 0.588572
0.610580 0.217785 0.587624
0.742693 0.214717 0.588528
0.912031 0.176244 0.595484
1.000000 0.203872 0.589897
0.000000 0.341680 0.558077
0.097217 0.347137 0.586475
0.222645 0.346095 0.588403
0.350848 0.344661 0.589571
0.481811 0.344661 0.589571
0.611815 0.343703 0.588613
0.765690 0.320470 0.595579
0.905697 0.312052 0.588189
1.000000 0.334395 0.588624
0.000000 0.455573 0.558077
0.097217 0.473104 0.586475
0.222645 0.473626 0.588403
0.350592 0.473306 0.589316
0.473889 0.465673 0.596652
0.619348 0.464696 0.595674
0.758849 0.456777 0.588285
0.899345 0.448921 0.580929
1.000000 0.465872 0.587416
0.000000 0.569466 0.558077
0.096697 0.598552 0.585955
0.222119 0.600630 0.587877
0.350060 0.601674 0.588784
0.473007 0.608922 0.595769
0.612542 0.602044 0.588922
0.752558 0.594659 0.581565
0.893513 0.587302 0.574235
1.000000 0.598230 0.586265
0.000000 0.693400 0.566277
0.092632 0.728245 0.587961
0.219183 0.730659 0.588869
0.326665 0.753147 0.595865
0.465152 0.746228 0.588476
0.605662 0.740289 0.582093
0.752558 0.739761 0.581565
0.893513 0.732852 0.574235
1.000000 0.732153 0.586265
0.000000 0.819005 0.573303
0.088305 0.859645 0.588954
0.180324 0.897373 0.595960
0.318304 0.890954 0.588572
0.457362 0.884514 0.581216
0.598379 0.879025 0.574859
0.746258 0.879025 0.574859
0.893513 0.878402 0.574235
1.000000 0.866077 0.586265
0.000000 0.946058 0.579460
0.075581 1.000000 0.591244
0.207134 1.000000 0.589897
0.339746 1.000000 0.588624
0.473326 1.000000 0.587416
0.607802 1.000000 0.586265
0.743868 1.000000 0.586265
0.879934 1.000000 0.586265
1.000000 1.000000 0.586265
0.000000 0.000000 0.679532
0.117416 0.000000 0.679532
0.234831 0.000000 0.679532
0.352247 0.000000 0.679532
0.469663 0.000000 0.679532
0.587079 0.000000 0.679532
0.704494 0.000000 0.679532
0.832109 0.000000 0.687964
0.961195 0.000000 0.695352
0.000000 0.115567 0.679532
0.093348 0.091307 0.713657
0.222919 0.091307 0.713657
0.352490 0.091307 0.713657
0.482061 0.091307 0.713657
0.611633 0.091307 0.713657
0.740067 0.090170 0.712520
0.873571 0.085732 0.714765
1.000000 0.074391 0.720829
0.000000 0.231133 0.679532
0.093264 0.218754 0.713573
0.219992 0.215867 0.716000
0.350954 0.215867 0.716000
0.481917 0.215867 0.716000
0.612880 0.215867 0.716000
0.742693 0.214717 0.714851
0.912031 0.176244 0.736732
1.000000 0.203872 0.719932
0.000000 0.346700 0.679532
0.093264 0.346284 0.713573
0.219821 0.344597 0.715830
0.327571 0.321662 0.738019
0.474008 0.321662 0.738019
0.620444 0.321662 0.738019
0.765690 0.320470 0.736827
0.905697 0.312052 0.729927
1.000000 0.334395 0.719083
0.000000 0.462267 0.679532
0.093264 0.473815 0.713573
0.219821 0.473497 0.715830
0.327327 0.465548 0.737775
0.466151 0.457967 0.731212
0.613095 0.457967 0.731212
0.758849 0.456777 0.730022
0.899345 0.448921 0.723128
1.000000 0.465872 0.718277
0.000000 0.577833 0.679532
0.093264 0.601346 0.713573
0.219821 0.602397 0.715830
0.327327 0.609679 0.737775
0.465813 0.602259 0.730875
0.605782 0.595307 0.724413
0.752017 0.594118 0.723224
0.892973 0.586763 0.716334
1.000000 0.598230 0.717510
0.000000 0.693400 0.679532
0.092632 0.728245 0.712941
0.219183 0.730659 0.715191
0.326665 0.753147 0.737113
0.465152 0.746228 0.730213
0.604689 0.739316 0.723320
0.745851 0.733068 0.717090
0.887243 0.726162 0.710201
1.000000 0.743650 0.728777
0.000000 0.819005 0.687964
0.088305 0.859645 0.715276
0.180324 0.897373 0.737208
0.318304 0.890954 0.730309
0.457362 0.884514 0.723416
0.597408 0.878054 0.716527
0.739554 0.872762 0.710825
0.887243 0.872139 0.710201
1.000000 0.871825 0.728777
0.000000 0.946058 0.695352
0.075581 1.000000 0.720829
0.207134 1.000000 0.719932
0.339746 1.000000 0.719083
0.473326 1.000000 0.718277
0.607802 1.000000 0.717510
0.755548 1.000000 0.728777
0.885774 1.000000 0.728777
1.000000 1.000000 0.728777
0.000000 0.000000 0.802624
0.118873 0.000000 0.802624
0.237745 0.000000 0.802624
0.356618 0.000000 0.802624
0.475491 0.000000 0.802624
0.594363 0.000000 0.802624
0.713236 0.000000 0.802624
0.832109 0.000000 0.802624
0.961195 0.000000 0.811244
0.000000 0.117001 0.802624
0.089135 0.087073 0.842429
0.220098 0.087073 0.842429
0.351061 0.087073 0.842429
0.482023 0.087073 0.842429
0.612986 0.087073 0.842429
0.743949 0.087073 0.842429
0.873571 0.085732 0.841088
1.000000 0.074391 0.850415
0.000000 0.234001 0.802624
0.089050 0.215888 0.842344
0.181254 0.177650 0.879385
0.327690 0.177650 0.879385
0.474127 0.177650 0.879385
0.620563 0.177650 0.879385
0.767000 0.177650 0.879385
0.912031 0.176244 0.877980
1.000000 0.203872 0.849966
0.000000 0.351002 0.802624
0.089050 0.344788 0.842344
0.181105 0.321632 0.879237
0.319327 0.313457 0.873069
0.466271 0.313457 0.873069
0.613214 0.313457 0.873069
0.760158 0.313457 0.873069
0.905697 0.312052 0.871664
1.000000 0.334395 0.849541
0.000000 0.468003 0.802624
0.089050 0.473689 0.842344
0.181105 0.465762 0.879237
0.319084 0.457845 0.872827
0.458479 0.450325 0.866733
0.605902 0.450325 0.866733
0.753326 0.450325 0.866733
0.899345 0.448921 0.865328
1.000000 0.465872 0.849139
0.000000 0.585003 0.802624
0.089050 0.602589 0.842344
0.181105 0.609893 0.879237
0.319084 0.602474 0.872827
0.458142 0.595090 0.866396
0.598620 0.588166 0.860377
0.746498 0.588166 0.860377
0.892973 0.586763 0.858973
1.000000 0.598230 0.848755
0.000000 0.702004 0.802624
0.089050 0.731489 0.842344
0.181105 0.754024 0.879237
0.319084 0.747104 0.872827
0.458142 0.740192 0.866396
0.598188 0.733284 0.859945
0.739675 0.726906 0.854002
0.886584 0.725503 0.852599
1.000000 0.743650 0.854388
0.000000 0.819005 0.802624
0.088305 0.859645 0.841599
0.180324 0.897373 0.878456
0.318304 0.890954 0.872046
0.457362 0.884514 0.865616
0.597408 0.878054 0.859165
0.738368 0.871576 0.852696
0.887187 0.871982 0.852976
1.000000 0.875677 0.858163
0.000000 0.946058 0.811244
0.075581 1.000000 0.850415
0.207134 1.000000 0.849966
0.339746 1.000000 0.849541
0.473326 1.000000 0.849139
0.607802 1.000000 0.848755
0.755548 1.000000 0.854388
0.889688 1.000000 0.858163
1.000000 1.000000 0.858163
0.000000 0.000000 0.927136
0.120149 0.000000 0.927136
0.240299 0.000000 0.927136
0.360448 0.000000 0.927136
0.480597 0.000000 0.927136
0.600747 0.000000 0.927136
0.720896 0.000000 0.927136
0.841045 0.000000 0.927136
0.961195 0.000000 0.927136
0.000000 0.118257 0.927136
0.055634 0.054391 1.000000
0.195913 0.054391 1.000000
0.336193 0.054391 1.000000
0.476472 0.054391 1.000000
0.616752 0.054391 1.000000
0.757031 0.054391 1.000000
0.897311 0.054391 1.000000
1.000000 0.074391 0.980000
0.000000 0.236514 0.927136
0.055581 0.192416 1.000000
0.187302 0.183872 1.000000
0.329061 0.183872 1.000000
0.470820 0.183872 1.000000
0.612579 0.183872 1.000000
0.754338 0.183872 1.000000
0.896097 0.183872 1.000000
1.000000 0.203872 0.980000
0.000000 0.354772 0.927136
0.055581 0.330494 1.000000
0.187134 0.323259 1.000000
0.320077 0.314395 1.000000
0.463708 0.314395 1.000000
0.607338 0.314395 1.000000
0.750969 0.314395 1.000000
0.894600 0.314395 1.000000
1.000000 0.334395 0.980000
0.000000 0.473029 0.927136
0.055581 0.468572 1.000000
0.187134 0.462814 1.000000
0.319746 0.455499 1.000000
0.453906 0.445872 1.000000
0.600130 0.445872 1.000000
0.746354 0.445872 1.000000
0.892577 0.445872 1.000000
1.000000 0.465872 0.980000
0.000000 0.591286 0.927136
0.055581 0.606650 1.000000
0.187134 0.602369 1.000000
0.319746 0.596936 1.000000
0.453326 0.589358 1.000000
0.591483 0.581050 0.997180
0.739795 0.581050 0.997180
0.888108 0.581050 0.997180
1.000000 0.598230 0.980000
0.000000 0.709543 0.927136
0.055581 0.744728 1.000000
0.187134 0.741925 1.000000
0.319746 0.738374 1.000000
0.453326 0.733431 1.000000
0.591053 0.726596 0.996749
0.745983 0.733014 0.990636
0.887930 0.733014 0.990636
1.000000 0.743650 0.980000
0.000000 0.827800 0.927136
0.055581 0.882807 1.000000
0.187134 0.881480 1.000000
0.319746 0.879812 1.000000
0.453326 0.877505 1.000000
0.591053 0.872572 0.996749
0.745448 0.872190 0.990100
0.886254 0.870982 0.984695
1.000000 0.875677 0.980000
0.000000 0.946058 0.927136
0.075581 1.000000 0.980000
0.207134 1.000000 0.980000
0.339746 1.000000 0.980000
0.473326 1.000000 0.980000
0.607802 1.000000 0.980000
0.755548 1.000000 0.980000
0.889688 1.000000 0.980000
0.976915 0.960173 0.939245
