correction_luts/studio_clean_baked.cube
# Baked chain LUT: studio_punch@0.5 + sat_boost@0.5
# Generated by generate_chain_lut.rb
#   studio_punch (Studio Punch - Subtle Contrast Boost) @ 0.5
#   sat_boost (Saturation Boost - +15%) @ 0.5
TITLE "studio_punch@0.5 + sat_boost@0.5"
LUT_3D_SIZE 9
0.000000 0.000000 0.000000
0.047104 0.000000 0.000000
0.193184 0.000000 0.000000
0.350713 0.000000 0.000000
0.473029 0.000000 0.000000
0.596587 0.000000 0.000000
0.721145 0.000000 0.000000
0.846539 0.000000 0.000000
0.972655 0.000000 0.000000
0.000000 0.047104 0.000000
0.047104 0.047104 0.000000
0.193184 0.096592 0.000000
0.350713 0.116904 0.000000
0.473029 0.118257 0.000000
0.596587 0.119317 0.000000
0.721145 0.120191 0.000000
0.846539 0.120934 0.000000
0.972655 0.121582 0.000000
0.000000 0.193184 0.000000
0.096592 0.193184 0.000000
0.193184 0.193184 0.000000
0.350713 0.233808 0.000000
0.473029 0.236514 0.000000
0.596587 0.238635 0.000000
0.721145 0.240382 0.000000
0.846539 0.241868 0.000000
0.972655 0.243164 0.000000
0.000000 0.350713 0.000000
0.116904 0.350713 0.000000
0.233808 0.350713 0.000000
0.350713 0.350713 0.000000
0.473029 0.354772 0.000000
0.596587 0.357952 0.000000
0.721145 0.360572 0.000000
0.846539 0.362803 0.000000
0.972655 0.364746 0.000000
0.000000 0.473029 0.000000
0.118257 0.473029 0.000000
0.236514 0.473029 0.000000
0.354772 0.473029 0.000000
0.473029 0.473029 0.000000
0.596587 0.477270 0.000000
0.721145 0.480763 0.000000
0.846539 0.483737 0.000000
0.972655 0.486327 0.000000
0.000000 0.596587 0.000000
0.119317 0.596587 0.000000
0.238635 0.596587 0.000000
0.357952 0.596587 0.000000
0.477270 0.596587 0.000000
0.596587 0.596587 0.000000
0.721145 0.600954 0.000000
0.846539 0.604671 0.000000
0.972655 0.607909 0.000000
0.000000 0.721145 0.000000
0.120191 0.721145 0.000000
0.240382 0.721145 0.000000
0.360572 0.721145 0.000000
0.480763 0.721145 0.000000
0.600954 0.721145 0.000000
0.721145 0.721145 0.000000
0.846539 0.725605 0.000000
0.972655 0.729491 0.000000
0.000000 0.846539 0.000000
0.120934 0.846539 0.000000
0.241868 0.846539 0.000000
0.362803 0.846539 0.000000
0.483737 0.846539 0.000000
0.604671 0.846539 0.000000
0.725605 0.846539 0.000000
0.846539 0.846539 0.000000
0.972655 0.851073 0.000000
0.000000 0.972655 0.000000
0.121582 0.972655 0.000000
0.243164 0.972655 0.000000
0.364746 0.972655 0.000000
0.486327 0.972655 0.000000
0.607909 0.972655 0.000000
0.729491 0.972655 0.000000
0.851073 0.972655 0.000000
0.972655 0.972655 0.000000
0.000000 0.000000 0.047104
0.047104 0.000000 0.047104
0.193184 0.000000 0.096592
0.350713 0.000000 0.116904
0.473029 0.000000 0.118257
0.596587 0.000000 0.119317
0.721145 0.000000 0.120191
0.846539 0.000000 0.120934
0.972655 0.000000 0.121582
0.000000 0.047104 0.047104
0.096592 0.096592 0.096592
0.238192 0.112520 0.112520
0.363641 0.109388 0.109388
0.490693 0.105894 0.105894
0.618983 0.102162 0.102162
0.748280 0.098259 0.098259
0.878429 0.094226 0.094226
1.000000 0.099404 0.099404
0.000000 0.193184 0.096592
0.112520 0.238192 0.112520
0.238192 0.238192 0.112520
0.363641 0.236514 0.109388
0.490693 0.234161 0.105894
0.618983 0.231367 0.102162
0.748280 0.228263 0.098259
0.878429 0.224926 0.094226
1.000000 0.228061 0.099404
0.000000 0.350713 0.116904
0.109388 0.363641 0.109388
0.236514 0.363641 0.109388
0.363641 0.363641 0.109388
0.490693 0.362427 0.105894
0.618983 0.360572 0.102162
0.748280 0.358268 0.098259
0.878429 0.355627 0.094226
1.000000 0.356717 0.099404
0.000000 0.473029 0.118257
0.105894 0.490693 0.105894
0.234161 0.490693 0.105894
0.362427 0.490693 0.105894
0.490693 0.490693 0.105894
0.618983 0.489778 0.102162
0.748280 0.488272 0.098259
0.878429 0.486327 0.094226
1.000000 0.485374 0.099404
0.000000 0.596587 0.119317
0.102162 0.618983 0.102162
0.231367 0.618983 0.102162
0.360572 0.618983 0.102162
0.489778 0.618983 0.102162
0.618983 0.618983 0.102162
0.748280 0.618276 0.098259
0.878429 0.617028 0.094226
1.000000 0.614030 0.099404
0.000000 0.721145 0.120191
0.098259 0.748280 0.098259
0.228263 0.748280 0.098259
0.358268 0.748280 0.098259
0.488272 0.748280 0.098259
0.618276 0.748280 0.098259
0.748280 0.748280 0.098259
0.878429 0.747728 0.094226
1.000000 0.742687 0.099404
0.000000 0.846539 0.120934
0.094226 0.878429 0.094226
0.224926 0.878429 0.094226
0.355627 0.878429 0.094226
0.486327 0.878429 0.094226
0.617028 0.878429 0.094226
0.747728 0.878429 0.094226
0.878429 0.878429 0.094226
1.000000 0.871343 0.099404
0.000000 0.972655 0.121582
0.099404 1.000000 0.099404
0.228061 1.000000 0.099404
0.356717 1.000000 0.099404
0.485374 1.000000 0.099404
0.614030 1.000000 0.099404
0.742687 1.000000 0.099404
0.871343 1.000000 0.099404
1.000000 1.000000 0.099404
0.000000 0.000000 0.193184
0.096592 0.000000 0.193184
0.193184 0.000000 0.193184
0.350713 0.000000 0.233808
0.473029 0.000000 0.236514
0.596587 0.000000 0.238635
0.721145 0.000000 0.240382
0.846539 0.000000 0.241868
0.972655 0.000000 0.243164
0.000000 0.096592 0.193184
0.112520 0.112520 0.238192
0.238192 0.112520 0.238192
0.363641 0.109388 0.236514
0.490693 0.105894 0.234161
0.618983 0.102162 0.231367
0.748280 0.098259 0.228263
0.878429 0.094226 0.224926
1.000000 0.099404 0.228061
0.000000 0.193184 0.193184
0.112520 0.238192 0.238192
0.236514 0.236514 0.236514
0.362427 0.234161 0.234161
0.489778 0.231367 0.231367
0.618276 0.228263 0.228263
0.747728 0.224926 0.224926
0.895467 0.203938 0.203938
1.000000 0.226719 0.226719
0.000000 0.350713 0.233808
0.109388 0.363641 0.236514
0.234161 0.362427 0.234161
0.362427 0.362427 0.234161
0.489778 0.360572 0.231367
0.618276 0.358268 0.228263
0.747728 0.355627 0.224926
0.895467 0.342243 0.203938
1.000000 0.355599 0.226719
0.000000 0.473029 0.236514
0.105894 0.490693 0.234161
0.231367 0.489778 0.231367
0.360572 0.489778 0.231367
0.489778 0.489778 0.231367
0.618276 0.488272 0.228263
0.747728 0.486327 0.224926
0.895467 0.480549 0.203938
1.000000 0.484480 0.226719
0.000000 0.596587 0.238635
0.102162 0.618983 0.231367
0.228263 0.618276 0.228263
0.358268 0.618276 0.228263
0.488272 0.618276 0.228263
0.618276 0.618276 0.228263
0.747728 0.617028 0.224926
0.895467 0.618855 0.203938
1.000000 0.613360 0.226719
0.000000 0.721145 0.240382
0.098259 0.748280 0.228263
0.224926 0.747728 0.224926
0.355627 0.747728 0.224926
0.486327 0.747728 0.224926
0.617028 0.747728 0.224926
0.747728 0.747728 0.224926
0.895467 0.757161 0.203938
1.000000 0.742240 0.226719
0.000000 0.846539 0.241868
0.094226 0.878429 0.224926
0.203938 0.895467 0.203938
0.342243 0.895467 0.203938
0.480549 0.895467 0.203938
0.618855 0.895467 0.203938
0.757161 0.895467 0.203938
0.895467 0.895467 0.203938
1.000000 0.871120 0.226719
0.000000 0.972655 0.243164
0.099404 1.000000 0.228061
0.226719 1.000000 0.226719
0.355599 1.000000 0.226719
0.484480 1.000000 0.226719
0.613360 1.000000 0.226719
0.742240 1.000000 0.226719
0.871120 1.000000 0.226719
1.000000 1.000000 0.226719
0.000000 0.000000 0.350713
0.116904 0.000000 0.350713
0.233808 0.000000 0.350713
0.350713 0.000000 0.350713
0.473029 0.000000 0.354772
0.596587 0.000000 0.357952
0.721145 0.000000 0.360572
0.846539 0.000000 0.362803
0.972655 0.000000 0.364746
0.000000 0.116904 0.350713
0.109388 0.109388 0.363641
0.236514 0.109388 0.363641
0.363641 0.109388 0.363641
0.490693 0.105894 0.362427
0.618983 0.102162 0.360572
0.748280 0.098259 0.358268
0.878429 0.094226 0.355627
1.000000 0.099404 0.356717
0.000000 0.233808 0.350713
0.109388 0.236514 0.363641
0.234161 0.234161 0.362427
0.362427 0.234161 0.362427
0.489778 0.231367 0.360572
0.618276 0.228263 0.358268
0.747728 0.224926 0.355627
0.895467 0.203938 0.342243
1.000000 0.226719 0.355599
0.000000 0.350713 0.350713
0.109388 0.363641 0.363641
0.234161 0.362427 0.362427
0.360572 0.360572 0.360572
0.488272 0.358268 0.358268
0.617028 0.355627 0.355627
0.757161 0.342243 0.342243
0.890452 0.336267 0.336267
1.000000 0.354546 0.354546
0.000000 0.473029 0.354772
0.105894 0.490693 0.362427
0.231367 0.489778 0.360572
0.358268 0.488272 0.358268
0.488272 0.488272 0.358268
0.617028 0.486327 0.355627
0.757161 0.480549 0.342243
0.890452 0.474814 0.336267
1.000000 0.483636 0.354546
0.000000 0.596587 0.357952
0.102162 0.618983 0.360572
0.228263 0.618276 0.358268
0.355627 0.617028 0.355627
0.486327 0.617028 0.355627
0.617028 0.617028 0.355627
0.757161 0.618855 0.342243
0.890452 0.613360 0.336267
1.000000 0.612727 0.354546
0.000000 0.721145 0.360572
0.098259 0.748280 0.358268
0.224926 0.747728 0.355627
0.342243 0.757161 0.342243
0.480549 0.757161 0.342243
0.618855 0.757161 0.342243
0.757161 0.757161 0.342243
0.890452 0.751906 0.336267
1.000000 0.741818 0.354546
0.000000 0.846539 0.362803
0.094226 0.878429 0.355627
0.203938 0.895467 0.342243
0.336267 0.890452 0.336267
0.474814 0.890452 0.336267
0.613360 0.890452 0.336267
0.751906 0.890452 0.336267
0.890452 0.890452 0.336267
1.000000 0.870909 0.354546
0.000000 0.972655 0.364746
0.099404 1.000000 0.356717
0.226719 1.000000 0.355599
0.354546 1.000000 0.354546
0.483636 1.000000 0.354546
0.612727 1.000000 0.354546
0.741818 1.000000 0.354546
0.870909 1.000000 0.354546
1.000000 1.000000 0.354546
0.000000 0.000000 0.473029
0.118257 0.000000 0.473029
0.236514 0.000000 0.473029
0.354772 0.000000 0.473029
0.473029 0.000000 0.473029
0.596587 0.000000 0.477270
0.721145 0.000000 0.480763
0.846539 0.000000 0.483737
0.972655 0.000000 0.486327
0.000000 0.118257 0.473029
0.105894 0.105894 0.490693
0.234161 0.105894 0.490693
0.362427 0.105894 0.490693
0.490693 0.105894 0.490693
0.618983 0.102162 0.489778
0.748280 0.098259 0.488272
0.878429 0.094226 0.486327
1.000000 0.099404 0.485374
0.000000 0.236514 0.473029
0.105894 0.234161 0.490693
0.231367 0.231367 0.489778
0.360572 0.231367 0.489778
0.489778 0.231367 0.489778
0.618276 0.228263 0.488272
0.747728 0.224926 0.486327
0.895467 0.203938 0.480549
1.000000 0.226719 0.484480
0.000000 0.354772 0.473029
0.105894 0.362427 0.490693
0.231367 0.360572 0.489778
0.358268 0.358268 0.488272
0.488272 0.358268 0.488272
0.617028 0.355627 0.486327
0.757161 0.342243 0.480549
0.890452 0.336267 0.474814
1.000000 0.354546 0.483636
0.000000 0.473029 0.473029
0.105894 0.490693 0.490693
0.231367 0.489778 0.489778
0.358268 0.488272 0.488272
0.486327 0.486327 0.486327
0.618855 0.480549 0.480549
0.751906 0.474814 0.474814
0.885432 0.469114 0.469114
1.000000 0.482838 0.482838
0.000000 0.596587 0.477270
0.102162 0.618983 0.489778
0.228263 0.618276 0.488272
0.355627 0.617028 0.486327
0.480549 0.618855 0.480549
0.618855 0.618855 0.480549
0.751906 0.613360 0.474814
0.885432 0.607886 0.469114
1.000000 0.612129 0.482838
0.000000 0.721145 0.480763
0.098259 0.748280 0.488272
0.224926 0.747728 0.486327
0.342243 0.757161 0.480549
0.474814 0.751906 0.474814
0.613360 0.751906 0.474814
0.751906 0.751906 0.474814
0.885432 0.746659 0.469114
1.000000 0.741419 0.482838
0.000000 0.846539 0.483737
0.094226 0.878429 0.486327
0.203938 0.895467 0.480549
0.336267 0.890452 0.474814
0.469114 0.885432 0.469114
0.607886 0.885432 0.469114
0.746659 0.885432 0.469114
0.885432 0.885432 0.469114
1.000000 0.870710 0.482838
0.000000 0.972655 0.486327
0.099404 1.000000 0.485374
0.226719 1.000000 0.484480
0.354546 1.000000 0.483636
0.482838 1.000000 0.482838
0.612129 1.000000 0.482838
0.741419 1.000000 0.482838
0.870710 1.000000 0.482838
1.000000 1.000000 0.482838
0.000000 0.000000 0.596587
0.119317 0.000000 0.596587
0.238635 0.000000 0.596587
0.357952 0.000000 0.596587
0.477270 0.000000 0.596587
0.596587 0.000000 0.596587
0.721145 0.000000 0.600954
0.846539 0.000000 0.604671
0.972655 0.000000 0.607909
0.000000 0.119317 0.596587
0.102162 0.102162 0.618983
0.231367 0.102162 0.618983
0.360572 0.102162 0.618983
0.489778 0.102162 0.618983
0.618983 0.102162 0.618983
0.748280 0.098259 0.618276
0.878429 0.094226 0.617028
1.000000 0.099404 0.614030
0.000000 0.238635 0.596587
0.102162 0.231367 0.618983
0.228263 0.228263 0.618276
0.358268 0.228263 0.618276
0.488272 0.228263 0.618276
0.618276 0.228263 0.618276
0.747728 0.224926 0.617028
0.895467 0.203938 0.618855
1.000000 0.226719 0.613360
0.000000 0.357952 0.596587
0.102162 0.360572 0.618983
0.228263 0.358268 0.618276
0.355627 0.355627 0.617028
0.486327 0.355627 0.617028
0.617028 0.355627 0.617028
0.757161 0.342243 0.618855
0.890452 0.336267 0.613360
1.000000 0.354546 0.612727
0.000000 0.477270 0.596587
0.102162 0.489778 0.618983
0.228263 0.488272 0.618276
0.355627 0.486327 0.617028
0.480549 0.480549 0.618855
0.618855 0.480549 0.618855
0.751906 0.474814 0.613360
0.885432 0.469114 0.607886
1.000000 0.482838 0.612129
0.000000 0.596587 0.596587
0.102162 0.618983 0.618983
0.228263 0.618276 0.618276
0.355627 0.617028 0.617028
0.480549 0.618855 0.618855
0.613360 0.613360 0.613360
0.746659 0.607886 0.607886
0.880406 0.602432 0.602432
1.000000 0.611559 0.611559
0.000000 0.721145 0.600954
0.098259 0.748280 0.618276
0.224926 0.747728 0.617028
0.342243 0.757161 0.618855
0.474814 0.751906 0.613360
0.607886 0.746659 0.607886
0.746659 0.746659 0.607886
0.880406 0.741419 0.602432
1.000000 0.741040 0.611559
0.000000 0.846539 0.604671
0.094226 0.878429 0.617028
0.203938 0.895467 0.618855
0.336267 0.890452 0.613360
0.469114 0.885432 0.607886
0.602432 0.880406 0.602432
0.741419 0.880406 0.602432
0.880406 0.880406 0.602432
1.000000 0.870520 0.611559
0.000000 0.972655 0.607909
0.099404 1.000000 0.614030
0.226719 1.000000 0.613360
0.354546 1.000000 0.612727
0.482838 1.000000 0.612129
0.611559 1.000000 0.611559
0.741040 1.000000 0.611559
0.870520 1.000000 0.611559
1.000000 1.000000 0.611559
0.000000 0.000000 0.721145
0.120191 0.000000 0.721145
0.240382 0.000000 0.721145
0.360572 0.000000 0.721145
0.480763 0.000000 0.721145
0.600954 0.000000 0.721145
0.721145 0.000000 0.721145
0.846539 0.000000 0.725605
0.972655 0.000000 0.729491
0.000000 0.120191 0.721145
0.098259 0.098259 0.748280
0.228263 0.098259 0.748280
0.358268 0.098259 0.748280
0.488272 0.098259 0.748280
0.618276 0.098259 0.748280
0.748280 0.098259 0.748280
0.878429 0.094226 0.747728
1.000000 0.099404 0.742687
0.000000 0.240382 0.721145
0.098259 0.228263 0.748280
0.224926 0.224926 0.747728
0.355627 0.224926 0.747728
0.486327 0.224926 0.747728
0.617028 0.224926 0.747728
0.747728 0.224926 0.747728
0.895467 0.203938 0.757161
1.000000 0.226719 0.742240
0.000000 0.360572 0.721145
0.098259 0.358268 0.748280
0.224926 0.355627 0.747728
0.342243 0.342243 0.757161
0.480549 0.342243 0.757161
0.618855 0.342243 0.757161
0.757161 0.342243 0.757161
0.890452 0.336267 0.751906
1.000000 0.354546 0.741818
0.000000 0.480763 0.721145
0.098259 0.488272 0.748280
0.224926 0.486327 0.747728
0.342243 0.480549 0.757161
0.474814 0.474814 0.751906
0.613360 0.474814 0.751906
0.751906 0.474814 0.751906
0.885432 0.469114 0.746659
1.000000 0.482838 0.741419
0.000000 0.600954 0.721145
0.098259 0.618276 0.748280
0.224926 0.617028 0.747728
0.342243 0.618855 0.757161
0.474814 0.613360 0.751906
0.607886 0.607886 0.746659
0.746659 0.607886 0.746659
0.880406 0.602432 0.741419
1.000000 0.611559 0.741040
0.000000 0.721145 0.721145
0.098259 0.748280 0.748280
0.224926 0.747728 0.747728
0.342243 0.757161 0.757161
0.474814 0.751906 0.751906
0.607886 0.746659 0.746659
0.741419 0.741419 0.741419
0.875375 0.736184 0.736184
1.000000 0.755616 0.755616
0.000000 0.846539 0.725605
0.094226 0.878429 0.747728
0.203938 0.895467 0.757161
0.336267 0.890452 0.751906
0.469114 0.885432 0.746659
0.602432 0.880406 0.741419
0.736184 0.875375 0.736184
0.875375 0.875375 0.736184
1.000000 0.877808 0.755616
0.000000 0.972655 0.729491
0.099404 1.000000 0.742687
0.226719 1.000000 0.742240
0.354546 1.000000 0.741818
0.482838 1.000000 0.741419
0.611559 1.000000 0.741040
0.755616 1.000000 0.755616
0.877808 1.000000 0.755616
1.000000 1.000000 0.755616
0.000000 0.000000 0.846539
0.120934 0.000000 0.846539
0.241868 0.000000 0.846539
0.362803 0.000000 0.846539
0.483737 0.000000 0.846539
0.604671 0.000000 0.846539
0.725605 0.000000 0.846539
0.846539 0.000000 0.846539
0.972655 0.000000 0.851073
0.000000 0.120934 0.846539
0.094226 0.094226 0.878429
0.224926 0.094226 0.878429
0.355627 0.094226 0.878429
0.486327 0.094226 0.878429
0.617028 0.094226 0.878429
0.747728 0.094226 0.878429
0.878429 0.094226 0.878429
1.000000 0.099404 0.871343
0.000000 0.241868 0.846539
0.094226 0.224926 0.878429
0.203938 0.203938 0.895467
0.342243 0.203938 0.895467
0.480549 0.203938 0.895467
0.618855 0.203938 0.895467
0.757161 0.203938 0.895467
0.895467 0.203938 0.895467
1.000000 0.226719 0.871120
0.000000 0.362803 0.846539
0.094226 0.355627 0.878429
0.203938 0.342243 0.895467
0.336267 0.336267 0.890452
0.474814 0.336267 0.890452
0.613360 0.336267 0.890452
0.751906 0.336267 0.890452
0.890452 0.336267 0.890452
1.000000 0.354546 0.870909
0.000000 0.483737 0.846539
0.094226 0.486327 0.878429
0.203938 0.480549 0.895467
0.336267 0.474814 0.890452
0.469114 0.469114 0.885432
0.607886 0.469114 0.885432
0.746659 0.469114 0.885432
0.885432 0.469114 0.885432
1.000000 0.482838 0.870710
0.000000 0.604671 0.846539
0.094226 0.617028 0.878429
0.203938 0.618855 0.895467
0.336267 0.613360 0.890452
0.469114 0.607886 0.885432
0.602432 0.602432 0.880406
0.741419 0.602432 0.880406
0.880406 0.602432 0.880406
1.000000 0.611559 0.870520
0.000000 0.725605 0.846539
0.094226 0.747728 0.878429
0.203938 0.757161 0.895467
0.336267 0.751906 0.890452
0.469114 0.746659 0.885432
0.602432 0.741419 0.880406
0.736184 0.736184 0.875375
0.875375 0.736184 0.875375
1.000000 0.755616 0.877808
0.000000 0.846539 0.846539
0.094226 0.878429 0.878429
0.203938 0.895467 0.895467
0.336267 0.890452 0.890452
0.469114 0.885432 0.885432
0.602432 0.880406 0.880406
0.736184 0.875375 0.875375
0.877808 0.877808 0.877808
1.000000 0.878794 0.878794
0.000000 0.972655 0.851073
0.099404 1.000000 0.871343
0.226719 1.000000 0.871120
0.354546 1.000000 0.870909
0.482838 1.000000 0.870710
0.611559 1.000000 0.870520
0.755616 1.000000 0.877808
0.878794 1.000000 0.878794
1.000000 1.000000 0.878794
0.000000 0.000000 0.972655
0.121582 0.000000 0.972655
0.243164 0.000000 0.972655
0.364746 0.000000 0.972655
0.486327 0.000000 0.972655
0.607909 0.000000 0.972655
0.729491 0.000000 0.972655
0.851073 0.000000 0.972655
0.972655 0.000000 0.972655
0.000000 0.121582 0.972655
0.099404 0.099404 1.000000
0.228061 0.099404 1.000000
0.356717 0.099404 1.000000
0.485374 0.099404 1.000000
0.614030 0.099404 1.000000
0.742687 0.099404 1.000000
0.871343 0.099404 1.000000
1.000000 0.099404 1.000000
0.000000 0.243164 0.972655
0.099404 0.228061 1.000000
0.226719 0.226719 1.000000
0.355599 0.226719 1.000000
0.484480 0.226719 1.000000
0.613360 0.226719 1.000000
0.742240 0.226719 1.000000
0.871120 0.226719 1.000000
1.000000 0.226719 1.000000
0.000000 0.364746 0.972655
0.099404 0.356717 1.000000
0.226719 0.355599 1.000000
0.354546 0.354546 1.000000
0.483636 0.354546 1.000000
0.612727 0.354546 1.000000
0.741818 0.354546 1.000000
0.870909 0.354546 1.000000
1.000000 0.354546 1.000000
0.000000 0.486327 0.972655
0.099404 0.485374 1.000000
0.226719 0.484480 1.000000
0.354546 0.483636 1.000000
0.482838 0.482838 1.000000
0.612129 0.482838 1.000000
0.741419 0.482838 1.000000
0.870710 0.482838 1.000000
1.000000 0.482838 1.000000
0.000000 0.607909 0.972655
0.099404 0.614030 1.000000
0.226719 0.613360 1.000000
0.354546 0.612727 1.000000
0.482838 0.612129 1.000000
0.611559 0.611559 1.000000
0.741040 0.611559 1.000000
0.870520 0.611559 1.000000
1.000000 0.611559 1.000000
0.000000 0.729491 0.972655
0.099404 0.742687 1.000000
0.226719 0.742240 1.000000
0.354546 0.741818 1.000000
0.482838 0.741419 1.000000
0.611559 0.741040 1.000000
0.755616 0.755616 1.000000
0.877808 0.755616 1.000000
1.000000 0.755616 1.000000
0.000000 0.851073 0.972655
0.099404 0.871343 1.000000
0.226719 0.871120 1.000000
0.354546 0.870909 1.000000
0.482838 0.870710 1.000000
0.611559 0.870520 1.000000
0.755616 0.877808 1.000000
0.878794 0.878794 1.000000
1.000000 0.878794 1.000000
0.000000 0.972655 0.972655
0.099404 1.000000 1.000000
0.226719 1.000000 1.000000
0.354546 1.000000 1.000000
0.482838 1.000000 1.000000
0.611559 1.000000 1.000000
0.755616 1.000000 1.000000
0.878794 1.000000 1.000000
0.960000 0.960000 0.960000
