correction_luts/studio_punch.cube
# Gentle contrast boost for well-lit interiors
# Slight gamma pull + highlight protection + mild black crush
# Strength: 1.0
# Color model: linear-light tone (v2)
TITLE "Studio Punch - Subtle Contrast Boost"
LUT_3D_SIZE 9
0.000000 0.000000 0.000000
0.017198 0.000000 0.000000
0.151406 0.000000 0.000000
0.329260 0.000000 0.000000
0.449234 0.000000 0.000000
0.571657 0.000000 0.000000
0.696068 0.000000 0.000000
0.822156 0.000000 0.000000
0.949698 0.000000 0.000000
0.000000 0.046763 0.000000
0.062741 0.062741 0.000000
0.210035 0.105017 0.000000
0.331637 0.110546 0.000000
0.450945 0.112736 0.000000
0.572960 0.114592 0.000000
0.697104 0.116184 0.000000
0.823007 0.117572 0.000000
0.950414 0.118802 0.000000
0.000000 0.221270 0.000000
0.110837 0.221675 0.000000
0.223198 0.223198 0.000000
0.338388 0.225592 0.000000
0.456679 0.228340 0.000000
0.577731 0.231092 0.000000
0.701093 0.233698 0.000000
0.826384 0.236110 0.000000
0.953314 0.238328 0.000000
0.000000 0.342848 0.000000
0.114363 0.343089 0.000000
0.229378 0.344067 0.000000
0.345835 0.345835 0.000000
0.464280 0.348210 0.000000
0.584895 0.350937 0.000000
0.707603 0.353802 0.000000
0.832215 0.356664 0.000000
0.958517 0.359444 0.000000
0.000000 0.467773 0.000000
0.116985 0.467939 0.000000
0.234314 0.468628 0.000000
0.352458 0.469944 0.000000
0.471849 0.471849 0.000000
0.592776 0.474220 0.000000
0.715364 0.476910 0.000000
0.839612 0.479778 0.000000
0.965436 0.482718 0.000000
0.000000 0.595248 0.000000
0.119074 0.595372 0.000000
0.238357 0.595892 0.000000
0.358146 0.596910 0.000000
0.478752 0.598440 0.000000
0.600434 0.600434 0.000000
0.723373 0.602810 0.000000
0.847657 0.605469 0.000000
0.973305 0.608316 0.000000
0.000000 0.724793 0.000000
0.120815 0.724890 0.000000
0.241767 0.725302 0.000000
0.363059 0.726118 0.000000
0.484913 0.727369 0.000000
0.607539 0.729046 0.000000
0.731108 0.731108 0.000000
0.855740 0.733491 0.000000
0.981504 0.736128 0.000000
0.000000 0.856084 0.000000
0.122309 0.856163 0.000000
0.244714 0.856500 0.000000
0.367360 0.857174 0.000000
0.490411 0.858219 0.000000
0.614031 0.859644 0.000000
0.738368 0.861430 0.000000
0.863543 0.863543 0.000000
0.997684 0.872974 0.000000
0.000000 0.993688 0.000000
0.124260 0.994079 0.000000
0.248915 0.995661 0.000000
0.374417 0.998446 0.000000
0.511452 1.000000 0.164026
0.644700 1.000000 0.253191
0.763270 1.000000 0.270116
0.873530 0.998320 0.000000
0.984902 0.984902 0.000000
0.000000 0.000000 0.012394
0.018794 0.000000 0.018794
0.160025 0.000000 0.080012
0.329524 0.000000 0.109841
0.449416 0.000000 0.112354
0.571793 0.000000 0.114359
0.696175 0.000000 0.116029
0.822243 0.000000 0.117463
0.949771 0.000000 0.118721
0.000000 0.052338 0.052338
0.067776 0.067776 0.067776
0.212644 0.106322 0.106322
0.331852 0.110617 0.110617
0.451108 0.112777 0.112777
0.573087 0.114617 0.114617
0.697206 0.116201 0.116201
0.823091 0.117584 0.117584
0.950486 0.118811 0.118811
0.000000 0.221410 0.110705
0.110904 0.221807 0.110904
0.223307 0.223307 0.111653
0.338508 0.225672 0.112836
0.456792 0.228396 0.114198
0.577831 0.231132 0.115566
0.701180 0.233727 0.116863
0.826460 0.236131 0.118066
0.953379 0.238345 0.119172
0.000000 0.342930 0.114310
0.114390 0.343169 0.114390
0.229427 0.344141 0.114714
0.345899 0.345899 0.115300
0.464350 0.348262 0.116087
0.584964 0.350979 0.116993
0.707670 0.353835 0.117945
0.832276 0.356690 0.118897
0.958572 0.359465 0.119822
0.000000 0.467829 0.116957
0.116999 0.467994 0.116999
0.234341 0.468682 0.117170
0.352495 0.469994 0.117498
0.471893 0.471893 0.117973
0.592823 0.474258 0.118565
0.715413 0.476942 0.119235
0.839659 0.479805 0.119951
0.965482 0.482741 0.120685
0.000000 0.595290 0.119058
0.119083 0.595413 0.119083
0.238373 0.595933 0.119187
0.358169 0.596949 0.119390
0.478780 0.598476 0.119695
0.600467 0.600467 0.120093
0.723408 0.602840 0.120568
0.847693 0.605495 0.121099
0.973341 0.608338 0.121668
0.000000 0.724826 0.120804
0.120820 0.724923 0.120820
0.241778 0.725334 0.120889
0.363074 0.726149 0.121025
0.484933 0.727399 0.121233
0.607562 0.729074 0.121512
0.731133 0.731133 0.121856
0.855767 0.733515 0.122252
0.981532 0.736149 0.122692
0.000000 0.856111 0.122302
0.122313 0.856190 0.122313
0.244722 0.856527 0.122361
0.367371 0.857200 0.122457
0.490425 0.858244 0.122606
0.614048 0.859667 0.122810
0.738388 0.861452 0.123065
0.863564 0.863564 0.123366
0.997788 0.873065 0.124724
0.000000 0.993822 0.124228
0.124276 0.994209 0.124276
0.248945 0.995781 0.124473
0.374454 0.998543 0.124818
0.511894 1.000000 0.197056
0.644853 1.000000 0.271731
0.763214 1.000000 0.285932
0.873456 0.998236 0.124779
0.984762 0.984762 0.123095
0.000000 0.000000 0.045231
0.037304 0.000000 0.074607
0.190112 0.000000 0.190112
0.330588 0.000000 0.220392
0.450169 0.000000 0.225085
0.572362 0.000000 0.228945
0.696626 0.000000 0.232209
0.822612 0.000000 0.235032
0.950081 0.000000 0.237520
0.000000 0.074091 0.148182
0.086243 0.086243 0.172486
0.217384 0.108692 0.217384
0.332727 0.110909 0.221818
0.451785 0.112946 0.225892
0.573621 0.114724 0.229448
0.697638 0.116273 0.232546
0.823450 0.117636 0.235271
0.950790 0.118849 0.237697
0.000000 0.221981 0.221981
0.111175 0.222350 0.222350
0.223756 0.223756 0.223756
0.339009 0.226006 0.226006
0.457266 0.228633 0.228633
0.578252 0.231301 0.231301
0.701547 0.233849 0.233849
0.826778 0.236222 0.236222
0.953658 0.238414 0.238414
0.000000 0.343276 0.228851
0.114503 0.343508 0.229005
0.229636 0.344454 0.229636
0.346169 0.346169 0.230780
0.464646 0.348485 0.232323
0.585261 0.351156 0.234104
0.707951 0.353976 0.235984
0.832537 0.356802 0.237868
0.958810 0.359554 0.239703
0.000000 0.468069 0.234034
0.117058 0.468231 0.234116
0.234454 0.468909 0.234454
0.352652 0.470203 0.235101
0.472079 0.472079 0.236039
0.593025 0.474420 0.237210
0.715618 0.477079 0.238539
0.839861 0.479921 0.239960
0.965675 0.482838 0.241419
0.000000 0.595469 0.238188
0.119118 0.595591 0.238237
0.238442 0.596106 0.238442
0.358268 0.597114 0.238846
0.478903 0.598629 0.239452
0.600606 0.600606 0.240243
0.723557 0.602964 0.241186
0.847846 0.605604 0.242242
0.973494 0.608434 0.243374
0.000000 0.724967 0.241656
0.120844 0.725063 0.241688
0.241824 0.725472 0.241824
0.363141 0.726283 0.242094
0.485018 0.727526 0.242509
0.607661 0.729193 0.243064
0.731243 0.731243 0.243748
0.855884 0.733615 0.244538
0.981652 0.736239 0.245413
0.000000 0.856226 0.244636
0.122329 0.856305 0.244659
0.244754 0.856641 0.244754
0.367419 0.857311 0.244946
0.490486 0.858351 0.245243
0.614121 0.859770 0.245648
0.738470 0.861548 0.246157
0.863653 0.863653 0.246758
0.998223 0.873445 0.249556
0.000000 0.994383 0.248596
0.124345 0.994759 0.248690
0.249071 0.996282 0.249071
0.374606 0.998950 0.249738
0.513752 1.000000 0.289536
0.645477 1.000000 0.336063
0.762947 1.000000 0.342740
0.873136 0.997869 0.249467
0.984156 0.984156 0.246039
0.000000 0.000000 0.205036
0.081531 0.000000 0.244592
0.217007 0.000000 0.325511
0.332485 0.000000 0.332485
0.451595 0.000000 0.338696
0.573471 0.000000 0.344082
0.697516 0.000000 0.348758
0.823348 0.000000 0.352864
0.950703 0.000000 0.356514
0.000000 0.102357 0.307072
0.106729 0.106729 0.320188
0.219196 0.109598 0.328794
0.334322 0.111441 0.334322
0.453076 0.113269 0.339807
0.574663 0.114933 0.344798
0.698493 0.116416 0.349247
0.824165 0.117738 0.353214
0.951398 0.118925 0.356774
0.000000 0.223023 0.334535
0.111673 0.223347 0.335020
0.224595 0.224595 0.336893
0.339963 0.226642 0.339963
0.458188 0.229094 0.343641
0.579082 0.231633 0.347449
0.702276 0.234092 0.351138
0.827415 0.236404 0.354607
0.954216 0.238554 0.357831
0.000000 0.343949 0.343949
0.114723 0.344168 0.344168
0.230043 0.345064 0.345064
0.346700 0.346700 0.346700
0.465232 0.348924 0.348924
0.585849 0.351510 0.351510
0.708513 0.354257 0.354257
0.833059 0.357025 0.357025
0.959289 0.359733 0.359733
0.000000 0.468544 0.351408
0.117175 0.468701 0.351526
0.234680 0.469360 0.352020
0.352965 0.470620 0.352965
0.472451 0.472451 0.354338
0.593428 0.474743 0.356057
0.716031 0.477354 0.358015
0.840267 0.480152 0.360114
0.966064 0.483032 0.362274
0.000000 0.595828 0.357497
0.119190 0.595948 0.357569
0.238582 0.596454 0.357872
0.358467 0.597445 0.358467
0.479150 0.598937 0.359362
0.600887 0.600887 0.360532
0.723857 0.603214 0.361928
0.848155 0.605825 0.363495
0.973803 0.608627 0.365176
0.000000 0.725250 0.362625
0.120891 0.725346 0.362673
0.241917 0.725750 0.362875
0.363276 0.726552 0.363276
0.485188 0.727783 0.363891
0.607861 0.729433 0.364717
0.731464 0.731464 0.365732
0.856119 0.733816 0.366908
0.981895 0.736421 0.368211
0.000000 0.856458 0.367054
0.122362 0.856537 0.367087
0.244820 0.856870 0.367230
0.367515 0.857535 0.367515
0.490610 0.858568 0.367958
0.614269 0.859976 0.368561
0.738637 0.861743 0.369318
0.863834 0.863834 0.370215
0.999057 0.874175 0.374647
0.000000 0.995471 0.373302
0.124478 0.995825 0.373434
0.249313 0.997251 0.373969
0.374899 0.999730 0.374899
0.517343 1.000000 0.403178
0.646603 1.000000 0.429823
0.762257 1.000000 0.428863
0.872459 0.997096 0.373911
0.982903 0.982903 0.368589
0.000000 0.000000 0.430651
0.108701 0.000000 0.434804
0.219901 0.000000 0.439802
0.334986 0.000000 0.446648
0.453634 0.000000 0.453634
0.575123 0.000000 0.460098
0.698875 0.000000 0.465917
0.824487 0.000000 0.471135
0.951674 0.000000 0.475837
0.000000 0.109442 0.437767
0.109716 0.109716 0.438864
0.221413 0.110706 0.442826
0.336488 0.112163 0.448650
0.454941 0.113735 0.454941
0.576222 0.115244 0.460978
0.699799 0.116633 0.466533
0.825272 0.117896 0.471584
0.952349 0.119044 0.476174
0.000000 0.224443 0.448886
0.112357 0.224713 0.449426
0.225773 0.225773 0.451546
0.341345 0.227563 0.455126
0.459557 0.229779 0.459557
0.580341 0.232136 0.464273
0.703397 0.234466 0.468931
0.828405 0.236687 0.473374
0.955089 0.238772 0.477545
0.000000 0.344951 0.459934
0.115051 0.345153 0.460204
0.230653 0.345980 0.461307
0.347502 0.347502 0.463336
0.466126 0.349594 0.466126
0.586756 0.352054 0.469405
0.709385 0.354693 0.472924
0.833874 0.357374 0.476499
0.960039 0.360015 0.480019
0.000000 0.469275 0.469275
0.117356 0.469426 0.469426
0.235028 0.470056 0.470056
0.353449 0.471265 0.471265
0.473029 0.473029 0.473029
0.594057 0.475246 0.475246
0.716676 0.477784 0.477784
0.840904 0.480516 0.480516
0.966678 0.483339 0.483339
0.000000 0.596388 0.477111
0.119301 0.596505 0.477204
0.238799 0.596998 0.477598
0.358778 0.597964 0.478371
0.479536 0.599420 0.479536
0.601327 0.601327 0.481061
0.724330 0.603608 0.482886
0.848642 0.606173 0.484938
0.974290 0.608931 0.487145
0.000000 0.725698 0.483798
0.120965 0.725791 0.483861
0.242063 0.726189 0.484126
0.363488 0.726977 0.484651
0.485458 0.728187 0.485458
0.608177 0.729813 0.486542
0.731814 0.731814 0.487876
0.856491 0.734135 0.489423
0.982279 0.736709 0.491139
0.000000 0.856826 0.489615
0.122415 0.856904 0.489659
0.244924 0.857233 0.489847
0.367667 0.857890 0.490223
0.490806 0.858911 0.490806
0.614502 0.860303 0.491602
0.738901 0.862051 0.492601
0.864122 0.864122 0.493784
1.000000 0.875253 0.501635
0.000000 0.997072 0.498536
0.124674 0.997390 0.498695
0.249666 0.998666 0.499333
0.383911 1.000000 0.505384
0.522562 1.000000 0.522562
0.647982 1.000000 0.536711
0.760705 1.000000 0.529755
0.871307 0.995779 0.497890
0.980834 0.980834 0.490417
0.000000 0.000000 0.551444
0.110510 0.000000 0.552549
0.222665 0.000000 0.556663
0.337807 0.000000 0.563012
0.456138 0.000000 0.570173
0.577256 0.000000 0.577256
0.700683 0.000000 0.583902
0.826030 0.000000 0.590021
0.953005 0.000000 0.595628
0.000000 0.110986 0.554931
0.111171 0.111171 0.555856
0.223750 0.111875 0.559374
0.339001 0.113000 0.565002
0.457259 0.114315 0.571574
0.578246 0.115649 0.578246
0.701541 0.116924 0.584618
0.826774 0.118111 0.590553
0.953653 0.119207 0.596033
0.000000 0.226096 0.565240
0.113157 0.226315 0.565787
0.227188 0.227188 0.567971
0.343065 0.228710 0.571774
0.461320 0.230660 0.576650
0.582003 0.232801 0.582003
0.704906 0.234969 0.587422
0.829754 0.237073 0.592682
0.956292 0.239073 0.597682
0.000000 0.346243 0.577072
0.115475 0.346425 0.577374
0.231447 0.347171 0.578618
0.348557 0.348557 0.580928
0.467316 0.350487 0.584145
0.587979 0.352787 0.587979
0.710574 0.355287 0.592145
0.834993 0.357854 0.596424
0.961077 0.360404 0.600673
0.000000 0.470260 0.587826
0.117601 0.470403 0.588003
0.235498 0.470997 0.588746
0.354105 0.472140 0.590175
0.473816 0.473816 0.592270
0.594919 0.475935 0.594919
0.717565 0.478377 0.597971
0.841785 0.481020 0.601275
0.967530 0.483765 0.604706
0.000000 0.597159 0.597159
0.119454 0.597272 0.597272
0.239099 0.597747 0.597747
0.359208 0.598679 0.598679
0.480070 0.600087 0.600087
0.601936 0.601936 0.601936
0.724986 0.604155 0.604155
0.849320 0.606657 0.606657
0.974971 0.609357 0.609357
0.000000 0.726320 0.605266
0.121069 0.726411 0.605343
0.242266 0.726799 0.605666
0.363784 0.727568 0.606307
0.485834 0.728751 0.607293
0.608618 0.730341 0.608618
0.732303 0.732303 0.610253
0.857012 0.734582 0.612151
0.982817 0.737113 0.614261
0.000000 0.857341 0.612387
0.122488 0.857417 0.612441
0.245069 0.857741 0.612672
0.367880 0.858387 0.613133
0.491080 0.859391 0.613851
0.614829 0.860761 0.614829
0.739271 0.862483 0.616060
0.864525 0.864525 0.617518
1.000000 0.876736 0.631814
0.000000 0.999061 0.624413
0.124916 0.999329 0.624581
0.257672 1.000000 0.626522
0.398423 1.000000 0.633851
0.528823 1.000000 0.642950
0.648960 1.000000 0.648960
0.757416 1.000000 0.637887
0.869527 0.993745 0.621091
0.977758 0.977758 0.611099
0.000000 0.000000 0.671456
0.112055 0.000000 0.672333
0.225250 0.000000 0.675751
0.340726 0.000000 0.681452
0.458939 0.000000 0.688408
0.579768 0.000000 0.695722
0.702885 0.000000 0.702885
0.827951 0.000000 0.709673
0.954688 0.000000 0.716016
0.000000 0.112381 0.674284
0.112510 0.112510 0.675062
0.226042 0.113021 0.678126
0.341667 0.113889 0.683334
0.459883 0.114971 0.689824
0.580644 0.116129 0.696773
0.703670 0.117278 0.703670
0.828648 0.118378 0.710269
0.955305 0.119413 0.716478
0.000000 0.227854 0.683561
0.114015 0.228029 0.684088
0.228739 0.228739 0.686217
0.345014 0.230009 0.690028
0.463388 0.231694 0.695082
0.584011 0.233604 0.700813
0.706770 0.235590 0.706770
0.831448 0.237557 0.712670
0.957819 0.239455 0.718364
0.000000 0.347764 0.695528
0.115975 0.347924 0.695847
0.232390 0.348585 0.697169
0.349825 0.349825 0.699649
0.468767 0.351575 0.703151
0.589491 0.353695 0.707389
0.712063 0.356031 0.712063
0.836412 0.358462 0.716924
0.962402 0.360901 0.721801
0.000000 0.471479 0.707219
0.117903 0.471611 0.707417
0.236082 0.472163 0.708245
0.354923 0.473230 0.709845
0.474803 0.474803 0.712204
0.596007 0.476806 0.715209
0.718695 0.479130 0.718695
0.842912 0.481664 0.722496
0.968625 0.484313 0.726469
0.000000 0.598138 0.717765
0.119649 0.598245 0.717894
0.239479 0.598698 0.718438
0.359754 0.599590 0.719507
0.480751 0.600939 0.721127
0.602717 0.602717 0.723260
0.725829 0.604858 0.725829
0.850195 0.607282 0.728738
0.975851 0.609907 0.731888
0.000000 0.727120 0.727120
0.121201 0.727208 0.727208
0.242528 0.727584 0.727584
0.364165 0.728330 0.728330
0.486319 0.729479 0.729479
0.609187 0.731025 0.731025
0.732936 0.732936 0.732936
0.857688 0.735161 0.735161
0.983517 0.737638 0.737638
0.000000 0.858010 0.735437
0.122583 0.858084 0.735501
0.245257 0.858400 0.735771
0.368156 0.859032 0.736313
0.491437 0.860015 0.737155
0.615255 0.861357 0.738306
0.739754 0.863046 0.739754
0.868087 0.868087 0.744075
1.000000 0.878437 0.757722
0.138320 1.000000 0.752689
0.183009 1.000000 0.753176
0.291724 1.000000 0.755164
0.414031 1.000000 0.758680
0.534856 1.000000 0.762605
0.648204 1.000000 0.763431
0.750665 1.000000 0.750665
0.866919 0.990765 0.743074
0.973450 0.973450 0.730087
0.000000 0.000000 0.793085
0.113401 0.000000 0.793805
0.227625 0.000000 0.796688
0.343607 0.000000 0.801750
0.461888 0.000000 0.808304
0.582549 0.000000 0.815568
0.705408 0.000000 0.822976
0.830208 0.000000 0.830208
0.956698 0.000000 0.837111
0.000000 0.113634 0.795435
0.113728 0.113728 0.796097
0.228217 0.114108 0.798759
0.344351 0.114784 0.803485
0.462676 0.115669 0.809683
0.583313 0.116663 0.816638
0.706117 0.117686 0.823803
0.830851 0.118693 0.830851
0.957279 0.119660 0.837619
0.000000 0.229628 0.803696
0.114884 0.229768 0.804188
0.230342 0.230342 0.806199
0.347093 0.231395 0.809883
0.465668 0.232834 0.814919
0.586291 0.234516 0.820807
0.708937 0.236312 0.827093
0.833454 0.238130 0.833454
0.959652 0.239913 0.839695
0.000000 0.349444 0.815370
0.116528 0.349584 0.815695
0.233441 0.350161 0.817043
0.351256 0.351256 0.819598
0.470432 0.352824 0.823256
0.591254 0.354752 0.827755
0.713824 0.356912 0.832794
0.838109 0.359190 0.838109
0.964004 0.361502 0.843504
0.000000 0.472899 0.827573
0.118255 0.473020 0.827784
0.236763 0.473527 0.828672
0.355883 0.474511 0.830394
0.475970 0.475970 0.832948
0.597304 0.477843 0.836226
0.720052 0.480035 0.840061
0.844276 0.482444 0.844276
0.969960 0.484980 0.848715
0.000000 0.599311 0.839035
0.119882 0.599412 0.839177
0.239936 0.599841 0.839777
0.360411 0.600685 0.840959
0.481574 0.601967 0.842754
0.603662 0.603662 0.845127
0.726856 0.605713 0.847998
0.851263 0.608045 0.851263
0.976931 0.610582 0.854815
0.000000 0.728096 0.849445
0.121363 0.728181 0.849544
0.242847 0.728542 0.849966
0.364630 0.729261 0.850804
0.486912 0.730368 0.852096
0.609886 0.731863 0.853840
0.733714 0.733714 0.855999
0.858519 0.735874 0.858519
0.984380 0.738285 0.861333
0.000000 0.858833 0.858833
0.122701 0.858905 0.858905
0.245489 0.859212 0.859212
0.368497 0.859827 0.859827
0.491877 0.860785 0.860785
0.615781 0.862094 0.862094
0.740351 0.863742 0.863742
0.871825 0.871825 0.871825
1.000000 0.880083 0.880083
0.214186 1.000000 0.878402
0.240313 1.000000 0.878574
0.321824 1.000000 0.879259
0.427942 1.000000 0.880368
0.538261 1.000000 0.881202
0.643092 1.000000 0.879655
0.748121 0.997494 0.872808
0.863234 0.986553 0.863234
0.967636 0.967636 0.846682
0.000000 0.000000 0.916118
0.114590 0.000000 0.916723
0.229798 0.000000 0.919191
0.346380 0.000000 0.923680
0.464878 0.000000 0.929756
0.585493 0.000000 0.936790
0.708173 0.000000 0.944230
0.832742 0.000000 0.951706
0.958999 0.000000 0.958999
0.000000 0.114764 0.918111
0.114835 0.114835 0.918680
0.230251 0.115126 0.921005
0.346973 0.115658 0.925261
0.465535 0.116384 0.931069
0.586156 0.117231 0.937849
0.708807 0.118134 0.945076
0.833332 0.119047 0.952380
0.959540 0.119943 0.959540
0.000000 0.231364 0.925455
0.115738 0.231477 0.925908
0.231944 0.231944 0.927775
0.349223 0.232815 0.931260
0.468075 0.234037 0.936150
0.588767 0.235507 0.942027
0.711347 0.237116 0.948463
0.835728 0.238779 0.955118
0.961762 0.240440 0.961762
0.000000 0.351223 0.936595
0.117114 0.351343 0.936915
0.234563 0.351844 0.938252
0.352803 0.352803 0.940807
0.472258 0.354193 0.944516
0.593219 0.355931 0.949150
0.715816 0.357908 0.954422
0.840056 0.360024 0.960064
0.965862 0.362198 0.965862
0.000000 0.474480 0.948961
0.118648 0.474590 0.949180
0.237526 0.475051 0.950103
0.356963 0.475950 0.951900
0.477292 0.477292 0.954584
0.598785 0.479028 0.958056
0.721615 0.481077 0.962154
0.845861 0.483349 0.966698
0.971521 0.485760 0.971521
0.000000 0.600659 0.961054
0.120151 0.600754 0.961206
0.240462 0.601156 0.961850
0.361170 0.601949 0.963119
0.482526 0.603158 0.965052
0.604762 0.604762 0.967619
0.728055 0.606712 0.970740
0.852518 0.608941 0.974306
0.978205 0.611378 0.978205
0.000000 0.729238 0.972318
0.121553 0.729320 0.972426
0.243222 0.729665 0.972887
0.365176 0.730353 0.973804
0.487610 0.731414 0.975219
0.610708 0.732850 0.977133
0.734632 0.734632 0.979510
0.859505 0.736719 0.982292
0.985406 0.739055 0.985406
0.000000 0.859808 0.982638
0.122840 0.859878 0.982718
0.245764 0.860176 0.983058
0.368902 0.860771 0.983738
0.492399 0.861699 0.984799
0.616406 0.862969 0.986250
0.741285 0.864833 0.988381
0.875290 0.875290 1.000000
1.000000 0.881142 1.000000
0.258597 1.000000 1.000000
0.277754 1.000000 1.000000
0.343191 1.000000 1.000000
0.435389 1.000000 1.000000
0.534392 1.000000 1.000000
0.628122 1.000000 1.000000
0.745124 0.993499 0.993499
0.858168 0.980764 0.980764
0.960000 0.960000 0.960000
