correction_luts/studio_film_baked.cube
# Baked chain LUT: film_contrast@0.6 + warm_shift@0.2 + sat_reduce@0.3 + black_crush@0.4
# Generated by regenerate_luts.rb
# Color model: linear-light tone (v2)
#   film_contrast (Film Contrast - Stronger Filmic Look) @ 0.6
#   warm_shift (Warm Shift - Add Warmth) @ 0.2
#   sat_reduce (Saturation Reduce - -15%) @ 0.3
#   black_crush (Black Crush - Shadow Floor) @ 0.4
TITLE "film_contrast@0.6 + warm_shift@0.2 + sat_reduce@0.3 + black_crush@0.4"
LUT_3D_SIZE 5
0.000000 0.000000 0.000000
0.011190 0.000258 0.000258
0.419103 0.009647 0.009647
0.679482 0.015640 0.015640
0.929739 0.021401 0.021401
0.003209 0.139428 0.003209
0.185575 0.184136 0.004272
0.444906 0.225849 0.010241
0.685003 0.237075 0.015767
0.933722 0.247740 0.021492
0.010438 0.453456 0.010438
0.234200 0.454389 0.010459
0.461566 0.457987 0.010624
0.700709 0.468894 0.016129
0.947090 0.480773 0.021800
0.016238 0.705464 0.016238
0.248014 0.706021 0.016251
0.481315 0.708286 0.016303
0.718081 0.712513 0.016529
0.964842 0.723572 0.022209
0.022462 0.975869 0.022462
0.262640 0.975568 0.022456
0.501530 0.973057 0.022398
0.733157 0.962633 0.022158
0.941884 0.934581 0.021680
0.000064 0.000064 0.002801
0.020050 0.000462 0.019700
0.429371 0.009883 0.215882
0.680094 0.015654 0.233179
0.930161 0.021410 0.244541
0.003668 0.159367 0.157810
0.205380 0.203823 0.201876
0.450586 0.231212 0.229053
0.690667 0.242414 0.240199
0.939380 0.253120 0.250856
0.010445 0.453778 0.229895
0.239538 0.459875 0.235540
0.467040 0.463459 0.237417
0.706272 0.474363 0.245626
0.952708 0.486261 0.254415
0.016243 0.705654 0.243748
0.253444 0.711572 0.249304
0.486814 0.713839 0.250098
0.723643 0.718074 0.251667
0.970459 0.729149 0.259156
0.022460 0.975780 0.258407
0.268162 0.980997 0.263874
0.506928 0.978319 0.263154
0.738230 0.967579 0.260265
0.946362 0.939065 0.252721
0.001543 0.001543 0.067023
0.093978 0.004157 0.180591
0.441570 0.010164 0.433867
0.682565 0.015711 0.452342
0.931915 0.021451 0.468554
0.009403 0.210964 0.408495
0.229533 0.227830 0.436455
0.453178 0.232567 0.445361
0.692769 0.243185 0.460869
0.941020 0.253601 0.475788
0.010475 0.455094 0.450648
0.240292 0.461236 0.456781
0.473329 0.469740 0.465254
0.712738 0.480444 0.475907
0.959181 0.492190 0.487593
0.016261 0.706455 0.471789
0.253823 0.712460 0.477616
0.492698 0.719956 0.484384
0.729696 0.724122 0.487230
0.978275 0.736381 0.497300
0.022448 0.975249 0.494085
0.268074 0.980404 0.499486
0.511773 0.982524 0.503231
0.741868 0.970648 0.497148
0.947974 0.940705 0.481896
0.013124 0.013124 0.570154
0.224957 0.014602 0.634397
0.452257 0.015171 0.659092
0.686972 0.015813 0.674987
0.935237 0.021527 0.694572
0.015051 0.230143 0.653874
0.237967 0.236239 0.661822
0.462356 0.239675 0.671449
0.696507 0.244497 0.684447
0.944046 0.254416 0.702494
0.015638 0.462607 0.679387
0.246620 0.468678 0.685812
0.480496 0.476892 0.695392
0.715104 0.482073 0.702815
0.961464 0.493414 0.716843
0.016297 0.708012 0.701095
0.254372 0.714001 0.707079
0.493877 0.721588 0.714646
0.736381 0.730798 0.723818
0.990097 0.746640 0.739563
0.022407 0.973474 0.728574
0.267502 0.978313 0.733615
0.510245 0.979406 0.735840
0.743199 0.970713 0.730611
0.945371 0.938163 0.706154
0.020184 0.020184 0.876894
0.239155 0.020260 0.880204
0.463977 0.020523 0.891594
0.697725 0.020882 0.907224
0.939989 0.021637 0.923589
0.020416 0.239239 0.886956
0.246839 0.245084 0.894627
0.472791 0.247574 0.903717
0.706545 0.251240 0.917101
0.948419 0.255595 0.931967
0.021000 0.471171 0.912339
0.253575 0.477162 0.918927
0.488616 0.484990 0.929100
0.723415 0.489319 0.937393
0.964698 0.495074 0.948058
0.021583 0.715566 0.937640
0.260426 0.721534 0.943755
0.500602 0.728993 0.951813
0.743607 0.738009 0.961933
0.994289 0.751885 0.979916
0.022301 0.968857 0.959392
0.266113 0.973233 0.963780
0.506677 0.972558 0.963165
0.735948 0.961152 0.951923
0.937063 0.929958 0.921077
