correction_luts/warm_shift_50.cube
# Subtle warm shift via RGB rebalance
# Strength: 0.5
# Color model: linear-light tone (v2)
TITLE "Warm Shift - Add Warmth"
LUT_3D_SIZE 5
0.000000 0.000000 0.000000
0.255000 0.000000 0.000000
0.510000 0.000000 0.000000
0.765000 0.000000 0.000000
1.000000 0.000000 0.000000
0.000000 0.250000 0.000000
0.255000 0.250000 0.000000
0.510000 0.250000 0.000000
0.765000 0.250000 0.000000
1.000000 0.250000 0.000000
0.000000 0.500000 0.000000
0.255000 0.500000 0.000000
0.510000 0.500000 0.000000
0.765000 0.500000 0.000000
1.000000 0.500000 0.000000
0.000000 0.750000 0.000000
0.255000 0.750000 0.000000
0.510000 0.750000 0.000000
0.765000 0.750000 0.000000
1.000000 0.750000 0.000000
0.000000 1.000000 0.000000
0.255000 1.000000 0.000000
0.510000 1.000000 0.000000
0.765000 1.000000 0.000000
1.000000 1.000000 0.000000
0.000000 0.000000 0.243750
0.255000 0.000000 0.243750
0.510000 0.000000 0.243750
0.765000 0.000000 0.243750
1.000000 0.000000 0.243750
0.000000 0.250000 0.243750
0.255000 0.250000 0.243750
0.510000 0.250000 0.243750
0.765000 0.250000 0.243750
1.000000 0.250000 0.243750
0.000000 0.500000 0.243750
0.255000 0.500000 0.243750
0.510000 0.500000 0.243750
0.765000 0.500000 0.243750
1.000000 0.500000 0.243750
0.000000 0.750000 0.243750
0.255000 0.750000 0.243750
0.510000 0.750000 0.243750
0.765000 0.750000 0.243750
1.000000 0.750000 0.243750
0.000000 1.000000 0.243750
0.255000 1.000000 0.243750
0.510000 1.000000 0.243750
0.765000 1.000000 0.243750
1.000000 1.000000 0.243750
0.000000 0.000000 0.487500
0.255000 0.000000 0.487500
0.510000 0.000000 0.487500
0.765000 0.000000 0.487500
1.000000 0.000000 0.487500
0.000000 0.250000 0.487500
0.255000 0.250000 0.487500
0.510000 0.250000 0.487500
0.765000 0.250000 0.487500
1.000000 0.250000 0.487500
0.000000 0.500000 0.487500
0.255000 0.500000 0.487500
0.510000 0.500000 0.487500
0.765000 0.500000 0.487500
1.000000 0.500000 0.487500
0.000000 0.750000 0.487500
0.255000 0.750000 0.487500
0.510000 0.750000 0.487500
0.765000 0.750000 0.487500
1.000000 0.750000 0.487500
0.000000 1.000000 0.487500
0.255000 1.000000 0.487500
0.510000 1.000000 0.487500
0.765000 1.000000 0.487500
1.000000 1.000000 0.487500
0.000000 0.000000 0.731250
0.255000 0.000000 0.731250
0.510000 0.000000 0.731250
0.765000 0.000000 0.731250
1.000000 0.000000 0.731250
0.000000 0.250000 0.731250
0.255000 0.250000 0.731250
0.510000 0.250000 0.731250
0.765000 0.250000 0.731250
1.000000 0.250000 0.731250
0.000000 0.500000 0.731250
0.255000 0.500000 0.731250
0.510000 0.500000 0.731250
0.765000 0.500000 0.731250
1.000000 0.500000 0.731250
0.000000 0.750000 0.731250
0.255000 0.750000 0.731250
0.510000 0.750000 0.731250
0.765000 0.750000 0.731250
1.000000 0.750000 0.731250
0.000000 1.000000 0.731250
0.255000 1.000000 0.731250
0.510000 1.000000 0.731250
0.765000 1.000000 0.731250
1.000000 1.000000 0.731250
0.000000 0.000000 0.975000
0.255000 0.000000 0.975000
0.510000 0.000000 0.975000
0.765000 0.000000 0.975000
1.000000 0.000000 0.975000
0.000000 0.250000 0.975000
0.255000 0.250000 0.975000
0.510000 0.250000 0.975000
0.765000 0.250000 0.975000
1.000000 0.250000 0.975000
0.000000 0.500000 0.975000
0.255000 0.500000 0.975000
0.510000 0.500000 0.975000
0.765000 0.500000 0.975000
1.000000 0.500000 0.975000
0.000000 0.750000 0.975000
0.255000 0.750000 0.975000
0.510000 0.750000 0.975000
0.765000 0.750000 0.975000
1.000000 0.750000 0.975000
0.000000 1.000000 0.975000
0.255000 1.000000 0.975000
0.510000 1.000000 0.975000
0.765000 1.000000 0.975000
1.000000 1.000000 0.975000
