correction_luts/warm_shift_30.cube
# Subtle warm shift via RGB rebalance
# Strength: 0.3
# Color model: linear-light tone (v2)
TITLE "Warm Shift - Add Warmth"
LUT_3D_SIZE 9
0.000000 0.000000 0.000000
0.126500 0.000000 0.000000
0.253000 0.000000 0.000000
0.379500 0.000000 0.000000
0.506000 0.000000 0.000000
0.632500 0.000000 0.000000
0.759000 0.000000 0.000000
0.885500 0.000000 0.000000
1.000000 0.000000 0.000000
0.000000 0.125000 0.000000
0.126500 0.125000 0.000000
0.253000 0.125000 0.000000
0.379500 0.125000 0.000000
0.506000 0.125000 0.000000
0.632500 0.125000 0.000000
0.759000 0.125000 0.000000
0.885500 0.125000 0.000000
1.000000 0.125000 0.000000
0.000000 0.250000 0.000000
0.126500 0.250000 0.000000
0.253000 0.250000 0.000000
0.379500 0.250000 0.000000
0.506000 0.250000 0.000000
0.632500 0.250000 0.000000
0.759000 0.250000 0.000000
0.885500 0.250000 0.000000
1.000000 0.250000 0.000000
0.000000 0.375000 0.000000
0.126500 0.375000 0.000000
0.253000 0.375000 0.000000
0.379500 0.375000 0.000000
0.506000 0.375000 0.000000
0.632500 0.375000 0.000000
0.759000 0.375000 0.000000
0.885500 0.375000 0.000000
1.000000 0.375000 0.000000
0.000000 0.500000 0.000000
0.126500 0.500000 0.000000
0.253000 0.500000 0.000000
0.379500 0.500000 0.000000
0.506000 0.500000 0.000000
0.632500 0.500000 0.000000
0.759000 0.500000 0.000000
0.885500 0.500000 0.000000
1.000000 0.500000 0.000000
0.000000 0.625000 0.000000
0.126500 0.625000 0.000000
0.253000 0.625000 0.000000
0.379500 0.625000 0.000000
0.506000 0.625000 0.000000
0.632500 0.625000 0.000000
0.759000 0.625000 0.000000
0.885500 0.625000 0.000000
1.000000 0.625000 0.000000
0.000000 0.750000 0.000000
0.126500 0.750000 0.000000
0.253000 0.750000 0.000000
0.379500 0.750000 0.000000
0.506000 0.750000 0.000000
0.632500 0.750000 0.000000
0.759000 0.750000 0.000000
0.885500 0.750000 0.000000
1.000000 0.750000 0.000000
0.000000 0.875000 0.000000
0.126500 0.875000 0.000000
0.253000 0.875000 0.000000
0.379500 0.875000 0.000000
0.506000 0.875000 0.000000
0.632500 0.875000 0.000000
0.759000 0.875000 0.000000
0.885500 0.875000 0.000000
1.000000 0.875000 0.000000
0.000000 1.000000 0.000000
0.126500 1.000000 0.000000
0.253000 1.000000 0.000000
0.379500 1.000000 0.000000
0.506000 1.000000 0.000000
0.632500 1.000000 0.000000
0.759000 1.000000 0.000000
0.885500 1.000000 0.000000
1.000000 1.000000 0.000000
0.000000 0.000000 0.123125
0.126500 0.000000 0.123125
0.253000 0.000000 0.123125
0.379500 0.000000 0.123125
0.506000 0.000000 0.123125
0.632500 0.000000 0.123125
0.759000 0.000000 0.123125
0.885500 0.000000 0.123125
1.000000 0.000000 0.123125
0.000000 0.125000 0.123125
0.126500 0.125000 0.123125
0.253000 0.125000 0.123125
0.379500 0.125000 0.123125
0.506000 0.125000 0.123125
0.632500 0.125000 0.123125
0.759000 0.125000 0.123125
0.885500 0.125000 0.123125
1.000000 0.125000 0.123125
0.000000 0.250000 0.123125
0.126500 0.250000 0.123125
0.253000 0.250000 0.123125
0.379500 0.250000 0.123125
0.506000 0.250000 0.123125
0.632500 0.250000 0.123125
0.759000 0.250000 0.123125
0.885500 0.250000 0.123125
1.000000 0.250000 0.123125
0.000000 0.375000 0.123125
0.126500 0.375000 0.123125
0.253000 0.375000 0.123125
0.379500 0.375000 0.123125
0.506000 0.375000 0.123125
0.632500 0.375000 0.123125
0.759000 0.375000 0.123125
0.885500 0.375000 0.123125
1.000000 0.375000 0.123125
0.000000 0.500000 0.123125
0.126500 0.500000 0.123125
0.253000 0.500000 0.123125
0.379500 0.500000 0.123125
0.506000 0.500000 0.123125
0.632500 0.500000 0.123125
0.759000 0.500000 0.123125
0.885500 0.500000 0.123125
1.000000 0.500000 0.123125
0.000000 0.625000 0.123125
0.126500 0.625000 0.123125
0.253000 0.625000 0.123125
0.379500 0.625000 0.123125
0.506000 0.625000 0.123125
0.632500 0.625000 0.123125
0.759000 0.625000 0.123125
0.885500 0.625000 0.123125
1.000000 0.625000 0.123125
0.000000 0.750000 0.123125
0.126500 0.750000 0.123125
0.253000 0.750000 0.123125
0.379500 0.750000 0.123125
0.506000 0.750000 0.123125
0.632500 0.750000 0.123125
0.759000 0.750000 0.123125
0.885500 0.750000 0.123125
1.000000 0.750000 0.123125
0.000000 0.875000 0.123125
0.126500 0.875000 0.123125
0.253000 0.875000 0.123125
0.379500 0.875000 0.123125
0.506000 0.875000 0.123125
0.632500 0.875000 0.123125
0.759000 0.875000 0.123125
0.885500 0.875000 0.123125
1.000000 0.875000 0.123125
0.000000 1.000000 0.123125
0.126500 1.000000 0.123125
0.253000 1.000000 0.123125
0.379500 1.000000 0.123125
0.506000 1.000000 0.123125
0.632500 1.000000 0.123125
0.759000 1.000000 0.123125
0.885500 1.000000 0.123125
1.000000 1.000000 0.123125
0.000000 0.000000 0.246250
0.126500 0.000000 0.246250
0.253000 0.000000 0.246250
0.379500 0.000000 0.246250
0.506000 0.000000 0.246250
0.632500 0.000000 0.246250
0.759000 0.000000 0.246250
0.885500 0.000000 0.246250
1.000000 0.000000 0.246250
0.000000 0.125000 0.246250
0.126500 0.125000 0.246250
0.253000 0.125000 0.246250
0.379500 0.125000 0.246250
0.506000 0.125000 0.246250
0.632500 0.125000 0.246250
0.759000 0.125000 0.246250
0.885500 0.125000 0.246250
1.000000 0.125000 0.246250
0.000000 0.250000 0.246250
0.126500 0.250000 0.246250
0.253000 0.250000 0.246250
0.379500 0.250000 0.246250
0.506000 0.250000 0.246250
0.632500 0.250000 0.246250
0.759000 0.250000 0.246250
0.885500 0.250000 0.246250
1.000000 0.250000 0.246250
0.000000 0.375000 0.246250
0.126500 0.375000 0.246250
0.253000 0.375000 0.246250
0.379500 0.375000 0.246250
0.506000 0.375000 0.246250
0.632500 0.375000 0.246250
0.759000 0.375000 0.246250
0.885500 0.375000 0.246250
1.000000 0.375000 0.246250
0.000000 0.500000 0.246250
0.126500 0.500000 0.246250
0.253000 0.500000 0.246250
0.379500 0.500000 0.246250
0.506000 0.500000 0.246250
0.632500 0.500000 0.246250
0.759000 0.500000 0.246250
0.885500 0.500000 0.246250
1.000000 0.500000 0.246250
0.000000 0.625000 0.246250
0.126500 0.625000 0.246250
0.253000 0.625000 0.246250
0.379500 0.625000 0.246250
0.506000 0.625000 0.246250
0.632500 0.625000 0.246250
0.759000 0.625000 0.246250
0.885500 0.625000 0.246250
1.000000 0.625000 0.246250
0.000000 0.750000 0.246250
0.126500 0.750000 0.246250
0.253000 0.750000 0.246250
0.379500 0.750000 0.246250
0.506000 0.750000 0.246250
0.632500 0.750000 0.246250
0.759000 0.750000 0.246250
0.885500 0.750000 0.246250
1.000000 0.750000 0.246250
0.000000 0.875000 0.246250
0.126500 0.875000 0.246250
0.253000 0.875000 0.246250
0.379500 0.875000 0.246250
0.506000 0.875000 0.246250
0.632500 0.875000 0.246250
0.759000 0.875000 0.246250
0.885500 0.875000 0.246250
1.000000 0.875000 0.246250
0.000000 1.000000 0.246250
0.126500 1.000000 0.246250
0.253000 1.000000 0.246250
0.379500 1.000000 0.246250
0.506000 1.000000 0.246250
0.632500 1.000000 0.246250
0.759000 1.000000 0.246250
0.885500 1.000000 0.246250
1.000000 1.000000 0.246250
0.000000 0.000000 0.369375
0.126500 0.000000 0.369375
0.253000 0.000000 0.369375
0.379500 0.000000 0.369375
0.506000 0.000000 0.369375
0.632500 0.000000 0.369375
0.759000 0.000000 0.369375
0.885500 0.000000 0.369375
1.000000 0.000000 0.369375
0.000000 0.125000 0.369375
0.126500 0.125000 0.369375
0.253000 0.125000 0.369375
0.379500 0.125000 0.369375
0.506000 0.125000 0.369375
0.632500 0.125000 0.369375
0.759000 0.125000 0.369375
0.885500 0.125000 0.369375
1.000000 0.125000 0.369375
0.000000 0.250000 0.369375
0.126500 0.250000 0.369375
0.253000 0.250000 0.369375
0.379500 0.250000 0.369375
0.506000 0.250000 0.369375
0.632500 0.250000 0.369375
0.759000 0.250000 0.369375
0.885500 0.250000 0.369375
1.000000 0.250000 0.369375
0.000000 0.375000 0.369375
0.126500 0.375000 0.369375
0.253000 0.375000 0.369375
0.379500 0.375000 0.369375
0.506000 0.375000 0.369375
0.632500 0.375000 0.369375
0.759000 0.375000 0.369375
0.885500 0.375000 0.369375
1.000000 0.375000 0.369375
0.000000 0.500000 0.369375
0.126500 0.500000 0.369375
0.253000 0.500000 0.369375
0.379500 0.500000 0.369375
0.506000 0.500000 0.369375
0.632500 0.500000 0.369375
0.759000 0.500000 0.369375
0.885500 0.500000 0.369375
1.000000 0.500000 0.369375
0.000000 0.625000 0.369375
0.126500 0.625000 0.369375
0.253000 0.625000 0.369375
0.379500 0.625000 0.369375
0.506000 0.625000 0.369375
0.632500 0.625000 0.369375
0.759000 0.625000 0.369375
0.885500 0.625000 0.369375
1.000000 0.625000 0.369375
0.000000 0.750000 0.369375
0.126500 0.750000 0.369375
0.253000 0.750000 0.369375
0.379500 0.750000 0.369375
0.506000 0.750000 0.369375
0.632500 0.750000 0.369375
0.759000 0.750000 0.369375
0.885500 0.750000 0.369375
1.000000 0.750000 0.369375
0.000000 0.875000 0.369375
0.126500 0.875000 0.369375
0.253000 0.875000 0.369375
0.379500 0.875000 0.369375
0.506000 0.875000 0.369375
0.632500 0.875000 0.369375
0.759000 0.875000 0.369375
0.885500 0.875000 0.369375
1.000000 0.875000 0.369375
0.000000 1.000000 0.369375
0.126500 1.000000 0.369375
0.253000 1.000000 0.369375
0.379500 1.000000 0.369375
0.506000 1.000000 0.369375
0.632500 1.000000 0.369375
0.759000 1.000000 0.369375
0.885500 1.000000 0.369375
1.000000 1.000000 0.369375
0.000000 0.000000 0.492500
0.126500 0.000000 0.492500
0.253000 0.000000 0.492500
0.379500 0.000000 0.492500
0.506000 0.000000 0.492500
0.632500 0.000000 0.492500
0.759000 0.000000 0.492500
0.885500 0.000000 0.492500
1.000000 0.000000 0.492500
0.000000 0.125000 0.492500
0.126500 0.125000 0.492500
0.253000 0.125000 0.492500
0.379500 0.125000 0.492500
0.506000 0.125000 0.492500
0.632500 0.125000 0.492500
0.759000 0.125000 0.492500
0.885500 0.125000 0.492500
1.000000 0.125000 0.492500
0.000000 0.250000 0.492500
0.126500 0.250000 0.492500
0.253000 0.250000 0.492500
0.379500 0.250000 0.492500
0.506000 0.250000 0.492500
0.632500 0.250000 0.492500
0.759000 0.250000 0.492500
0.885500 0.250000 0.492500
1.000000 0.250000 0.492500
0.000000 0.375000 0.492500
0.126500 0.375000 0.492500
0.253000 0.375000 0.492500
0.379500 0.375000 0.492500
0.506000 0.375000 0.492500
0.632500 0.375000 0.492500
0.759000 0.375000 0.492500
0.885500 0.375000 0.492500
1.000000 0.375000 0.492500
0.000000 0.500000 0.492500
0.126500 0.500000 0.492500
0.253000 0.500000 0.492500
0.379500 0.500000 0.492500
0.506000 0.500000 0.492500
0.632500 0.500000 0.492500
0.759000 0.500000 0.492500
0.885500 0.500000 0.492500
1.000000 0.500000 0.492500
0.000000 0.625000 0.492500
0.126500 0.625000 0.492500
0.253000 0.625000 0.492500
0.379500 0.625000 0.492500
0.506000 0.625000 0.492500
0.632500 0.625000 0.492500
0.759000 0.625000 0.492500
0.885500 0.625000 0.492500
1.000000 0.625000 0.492500
0.000000 0.750000 0.492500
0.126500 0.750000 0.492500
0.253000 0.750000 0.492500
0.379500 0.750000 0.492500
0.506000 0.750000 0.492500
0.632500 0.750000 0.492500
0.759000 0.750000 0.492500
0.885500 0.750000 0.492500
1.000000 0.750000 0.492500
0.000000 0.875000 0.492500
0.126500 0.875000 0.492500
0.253000 0.875000 0.492500
0.379500 0.875000 0.492500
0.506000 0.875000 0.492500
0.632500 0.875000 0.492500
0.759000 0.875000 0.492500
0.885500 0.875000 0.492500
1.000000 0.875000 0.492500
0.000000 1.000000 0.492500
0.126500 1.000000 0.492500
0.253000 1.000000 0.492500
0.379500 1.000000 0.492500
0.506000 1.000000 0.492500
0.632500 1.000000 0.492500
0.759000 1.000000 0.492500
0.885500 1.000000 0.492500
1.000000 1.000000 0.492500
0.000000 0.000000 0.615625
0.126500 0.000000 0.615625
0.253000 0.000000 0.615625
0.379500 0.000000 0.615625
0.506000 0.000000 0.615625
0.632500 0.000000 0.615625
0.759000 0.000000 0.615625
0.885500 0.000000 0.615625
1.000000 0.000000 0.615625
0.000000 0.125000 0.615625
0.126500 0.125000 0.615625
0.253000 0.125000 0.615625
0.379500 0.125000 0.615625
0.506000 0.125000 0.615625
0.632500 0.125000 0.615625
0.759000 0.125000 0.615625
0.885500 0.125000 0.615625
1.000000 0.125000 0.615625
0.000000 0.250000 0.615625
0.126500 0.250000 0.615625
0.253000 0.250000 0.615625
0.379500 0.250000 0.615625
0.506000 0.250000 0.615625
0.632500 0.250000 0.615625
0.759000 0.250000 0.615625
0.885500 0.250000 0.615625
1.000000 0.250000 0.615625
0.000000 0.375000 0.615625
0.126500 0.375000 0.615625
0.253000 0.375000 0.615625
0.379500 0.375000 0.615625
0.506000 0.375000 0.615625
0.632500 0.375000 0.615625
0.759000 0.375000 0.615625
0.885500 0.375000 0.615625
1.000000 0.375000 0.615625
0.000000 0.500000 0.615625
0.126500 0.500000 0.615625
0.253000 0.500000 0.615625
0.379500 0.500000 0.615625
0.506000 0.500000 0.615625
0.632500 0.500000 0.615625
0.759000 0.500000 0.615625
0.885500 0.500000 0.615625
1.000000 0.500000 0.615625
0.000000 0.625000 0.615625
0.126500 0.625000 0.615625
0.253000 0.625000 0.615625
0.379500 0.625000 0.615625
0.506000 0.625000 0.615625
0.632500 0.625000 0.615625
0.759000 0.625000 0.615625
0.885500 0.625000 0.615625
1.000000 0.625000 0.615625
0.000000 0.750000 0.615625
0.126500 0.750000 0.615625
0.253000 0.750000 0.615625
0.379500 0.750000 0.615625
0.506000 0.750000 0.615625
0.632500 0.750000 0.615625
0.759000 0.750000 0.615625
0.885500 0.750000 0.615625
1.000000 0.750000 0.615625
0.000000 0.875000 0.615625
0.126500 0.875000 0.615625
0.253000 0.875000 0.615625
0.379500 0.875000 0.615625
0.506000 0.875000 0.615625
0.632500 0.875000 0.615625
0.759000 0.875000 0.615625
0.885500 0.875000 0.615625
1.000000 0.875000 0.615625
0.000000 1.000000 0.615625
0.126500 1.000000 0.615625
0.253000 1.000000 0.615625
0.379500 1.000000 0.615625
0.506000 1.000000 0.615625
0.632500 1.000000 0.615625
0.759000 1.000000 0.615625
0.885500 1.000000 0.615625
1.000000 1.000000 0.615625
0.000000 0.000000 0.738750
0.126500 0.000000 0.738750
0.253000 0.000000 0.738750
0.379500 0.000000 0.738750
0.506000 0.000000 0.738750
0.632500 0.000000 0.738750
0.759000 0.000000 0.738750
0.885500 0.000000 0.738750
1.000000 0.000000 0.738750
0.000000 0.125000 0.738750
0.126500 0.125000 0.738750
0.253000 0.125000 0.738750
0.379500 0.125000 0.738750
0.506000 0.125000 0.738750
0.632500 0.125000 0.738750
0.759000 0.125000 0.738750
0.885500 0.125000 0.738750
1.000000 0.125000 0.738750
0.000000 0.250000 0.738750
0.126500 0.250000 0.738750
0.253000 0.250000 0.738750
0.379500 0.250000 0.738750
0.506000 0.250000 0.738750
0.632500 0.250000 0.738750
0.759000 0.250000 0.738750
0.885500 0.250000 0.738750
1.000000 0.250000 0.738750
0.000000 0.375000 0.738750
0.126500 0.375000 0.738750
0.253000 0.375000 0.738750
0.379500 0.375000 0.738750
0.506000 0.375000 0.738750
0.632500 0.375000 0.738750
0.759000 0.375000 0.738750
0.885500 0.375000 0.738750
1.000000 0.375000 0.738750
0.000000 0.500000 0.738750
0.126500 0.500000 0.738750
0.253000 0.500000 0.738750
0.379500 0.500000 0.738750
0.506000 0.500000 0.738750
0.632500 0.500000 0.738750
0.759000 0.500000 0.738750
0.885500 0.500000 0.738750
1.000000 0.500000 0.738750
0.000000 0.625000 0.738750
0.126500 0.625000 0.738750
0.253000 0.625000 0.738750
0.379500 0.625000 0.738750
0.506000 0.625000 0.738750
0.632500 0.625000 0.738750
0.759000 0.625000 0.738750
0.885500 0.625000 0.738750
1.000000 0.625000 0.738750
0.000000 0.750000 0.738750
0.126500 0.750000 0.738750
0.253000 0.750000 0.738750
0.379500 0.750000 0.738750
0.506000 0.750000 0.738750
0.632500 0.750000 0.738750
0.759000 0.750000 0.738750
0.885500 0.750000 0.738750
1.000000 0.750000 0.738750
0.000000 0.875000 0.738750
0.126500 0.875000 0.738750
0.253000 0.875000 0.738750
0.379500 0.875000 0.738750
0.506000 0.875000 0.738750
0.632500 0.875000 0.738750
0.759000 0.875000 0.738750
0.885500 0.875000 0.738750
1.000000 0.875000 0.738750
0.000000 1.000000 0.738750
0.126500 1.000000 0.738750
0.253000 1.000000 0.738750
0.379500 1.000000 0.738750
0.506000 1.000000 0.738750
0.632500 1.000000 0.738750
0.759000 1.000000 0.738750
0.885500 1.000000 0.738750
1.000000 1.000000 0.738750
0.000000 0.000000 0.861875
0.126500 0.000000 0.861875
0.253000 0.000000 0.861875
0.379500 0.000000 0.861875
0.506000 0.000000 0.861875
0.632500 0.000000 0.861875
0.759000 0.000000 0.861875
0.885500 0.000000 0.861875
1.000000 0.000000 0.861875
0.000000 0.125000 0.861875
0.126500 0.125000 0.861875
0.253000 0.125000 0.861875
0.379500 0.125000 0.861875
0.506000 0.125000 0.861875
0.632500 0.125000 0.861875
0.759000 0.125000 0.861875
0.885500 0.125000 0.861875
1.000000 0.125000 0.861875
0.000000 0.250000 0.861875
0.126500 0.250000 0.861875
0.253000 0.250000 0.861875
0.379500 0.250000 0.861875
0.506000 0.250000 0.861875
0.632500 0.250000 0.861875
0.759000 0.250000 0.861875
0.885500 0.250000 0.861875
1.000000 0.250000 0.861875
0.000000 0.375000 0.861875
0.126500 0.375000 0.861875
0.253000 0.375000 0.861875
0.379500 0.375000 0.861875
0.506000 0.375000 0.861875
0.632500 0.375000 0.861875
0.759000 0.375000 0.861875
0.885500 0.375000 0.861875
1.000000 0.375000 0.861875
0.000000 0.500000 0.861875
0.126500 0.500000 0.861875
0.253000 0.500000 0.861875
0.379500 0.500000 0.861875
0.506000 0.500000 0.861875
0.632500 0.500000 0.861875
0.759000 0.500000 0.861875
0.885500 0.500000 0.861875
1.000000 0.500000 0.861875
0.000000 0.625000 0.861875
0.126500 0.625000 0.861875
0.253000 0.625000 0.861875
0.379500 0.625000 0.861875
0.506000 0.625000 0.861875
0.632500 0.625000 0.861875
0.759000 0.625000 0.861875
0.885500 0.625000 0.861875
1.000000 0.625000 0.861875
0.000000 0.750000 0.861875
0.126500 0.750000 0.861875
0.253000 0.750000 0.861875
0.379500 0.750000 0.861875
0.506000 0.750000 0.861875
0.632500 0.750000 0.861875
0.759000 0.750000 0.861875
0.885500 0.750000 0.861875
1.000000 0.750000 0.861875
0.000000 0.875000 0.861875
0.126500 0.875000 0.861875
0.253000 0.875000 0.861875
0.379500 0.875000 0.861875
0.506000 0.875000 0.861875
0.632500 0.875000 0.861875
0.759000 0.875000 0.861875
0.885500 0.875000 0.861875
1.000000 0.875000 0.861875
0.000000 1.000000 0.861875
0.126500 1.000000 0.861875
0.253000 1.000000 0.861875
0.379500 1.000000 0.861875
0.506000 1.000000 0.861875
0.632500 1.000000 0.861875
0.759000 1.000000 0.861875
0.885500 1.000000 0.861875
1.000000 1.000000 0.861875
0.000000 0.000000 0.985000
0.126500 0.000000 0.985000
0.253000 0.000000 0.985000
0.379500 0.000000 0.985000
0.506000 0.000000 0.985000
0.632500 0.000000 0.985000
0.759000 0.000000 0.985000
0.885500 0.000000 0.985000
1.000000 0.000000 0.985000
0.000000 0.125000 0.985000
0.126500 0.125000 0.985000
0.253000 0.125000 0.985000
0.379500 0.125000 0.985000
0.506000 0.125000 0.985000
0.632500 0.125000 0.985000
0.759000 0.125000 0.985000
0.885500 0.125000 0.985000
1.000000 0.125000 0.985000
0.000000 0.250000 0.985000
0.126500 0.250000 0.985000
0.253000 0.250000 0.985000
0.379500 0.250000 0.985000
0.506000 0.250000 0.985000
0.632500 0.250000 0.985000
0.759000 0.250000 0.985000
0.885500 0.250000 0.985000
1.000000 0.250000 0.985000
0.000000 0.375000 0.985000
0.126500 0.375000 0.985000
0.253000 0.375000 0.985000
0.379500 0.375000 0.985000
0.506000 0.375000 0.985000
0.632500 0.375000 0.985000
0.759000 0.375000 0.985000
0.885500 0.375000 0.985000
1.000000 0.375000 0.985000
0.000000 0.500000 0.985000
0.126500 0.500000 0.985000
0.253000 0.500000 0.985000
0.379500 0.500000 0.985000
0.506000 0.500000 0.985000
0.632500 0.500000 0.985000
0.759000 0.500000 0.985000
0.885500 0.500000 0.985000
1.000000 0.500000 0.985000
0.000000 0.625000 0.985000
0.126500 0.625000 0.985000
0.253000 0.625000 0.985000
0.379500 0.625000 0.985000
0.506000 0.625000 0.985000
0.632500 0.625000 0.985000
0.759000 0.625000 0.985000
0.885500 0.625000 0.985000
1.000000 0.625000 0.985000
0.000000 0.750000 0.985000
0.126500 0.750000 0.985000
0.253000 0.750000 0.985000
0.379500 0.750000 0.985000
0.506000 0.750000 0.985000
0.632500 0.750000 0.985000
0.759000 0.750000 0.985000
0.885500 0.750000 0.985000
1.000000 0.750000 0.985000
0.000000 0.875000 0.985000
0.126500 0.875000 0.985000
0.253000 0.875000 0.985000
0.379500 0.875000 0.985000
0.506000 0.875000 0.985000
0.632500 0.875000 0.985000
0.759000 0.875000 0.985000
0.885500 0.875000 0.985000
1.000000 0.875000 0.985000
0.000000 1.000000 0.985000
0.126500 1.000000 0.985000
0.253000 1.000000 0.985000
0.379500 1.000000 0.985000
0.506000 1.000000 0.985000
0.632500 1.000000 0.985000
0.759000 1.000000 0.985000
0.885500 1.000000 0.985000
1.000000 1.000000 0.985000
