correction_luts/warm_shift_30.cube
# Subtle warm shift via RGB rebalance
# Strength: 0.3
# Color model: linear-light tone (v2)
TITLE "Warm Shift - Add Warmth"
LUT_3D_SIZE 33
0.000000 0.000000 0.000000
0.031484 0.000000 0.000000
0.063250 0.000000 0.000000
0.094875 0.000000 0.000000
0.126500 0.000000 0.000000
0.158125 0.000000 0.000000
0.189750 0.000000 0.000000
0.221375 0.000000 0.000000
0.253000 0.000000 0.000000
0.284625 0.000000 0.000000
0.316250 0.000000 0.000000
0.347875 0.000000 0.000000
0.379500 0.000000 0.000000
0.411125 0.000000 0.000000
0.442750 0.000000 0.000000
0.474375 0.000000 0.000000
0.506000 0.000000 0.000000
0.537625 0.000000 0.000000
0.569250 0.000000 0.000000
0.600875 0.000000 0.000000
0.632500 0.000000 0.000000
0.664125 0.000000 0.000000
0.695750 0.000000 0.000000
0.727375 0.000000 0.000000
0.759000 0.000000 0.000000
0.790625 0.000000 0.000000
0.822250 0.000000 0.000000
0.853875 0.000000 0.000000
0.885500 0.000000 0.000000
0.917125 0.000000 0.000000
0.948750 0.000000 0.000000
0.980375 0.000000 0.000000
1.000000 0.000000 0.000000
0.000000 0.031250 0.000000
0.031484 0.031250 0.000000
0.063250 0.031250 0.000000
0.094875 0.031250 0.000000
0.126500 0.031250 0.000000
0.158125 0.031250 0.000000
0.189750 0.031250 0.000000
0.221375 0.031250 0.000000
0.253000 0.031250 0.000000
0.284625 0.031250 0.000000
0.316250 0.031250 0.000000
0.347875 0.031250 0.000000
0.379500 0.031250 0.000000
0.411125 0.031250 0.000000
0.442750 0.031250 0.000000
0.474375 0.031250 0.000000
0.506000 0.031250 0.000000
0.537625 0.031250 0.000000
0.569250 0.031250 0.000000
0.600875 0.031250 0.000000
0.632500 0.031250 0.000000
0.664125 0.031250 0.000000
0.695750 0.031250 0.000000
0.727375 0.031250 0.000000
0.759000 0.031250 0.000000
0.790625 0.031250 0.000000
0.822250 0.031250 0.000000
0.853875 0.031250 0.000000
0.885500 0.031250 0.000000
0.917125 0.031250 0.000000
0.948750 0.031250 0.000000
0.980375 0.031250 0.000000
1.000000 0.031250 0.000000
0.000000 0.062500 0.000000
0.031625 0.062500 0.000000
0.063250 0.062500 0.000000
0.094875 0.062500 0.000000
0.126500 0.062500 0.000000
0.158125 0.062500 0.000000
0.189750 0.062500 0.000000
0.221375 0.062500 0.000000
0.253000 0.062500 0.000000
0.284625 0.062500 0.000000
0.316250 0.062500 0.000000
0.347875 0.062500 0.000000
0.379500 0.062500 0.000000
0.411125 0.062500 0.000000
0.442750 0.062500 0.000000
0.474375 0.062500 0.000000
0.506000 0.062500 0.000000
0.537625 0.062500 0.000000
0.569250 0.062500 0.000000
0.600875 0.062500 0.000000
0.632500 0.062500 0.000000
0.664125 0.062500 0.000000
0.695750 0.062500 0.000000
0.727375 0.062500 0.000000
0.759000 0.062500 0.000000
0.790625 0.062500 0.000000
0.822250 0.062500 0.000000
0.853875 0.062500 0.000000
0.885500 0.062500 0.000000
0.917125 0.062500 0.000000
0.948750 0.062500 0.000000
0.980375 0.062500 0.000000
1.000000 0.062500 0.000000
0.000000 0.093750 0.000000
0.031625 0.093750 0.000000
0.063250 0.093750 0.000000
0.094875 0.093750 0.000000
0.126500 0.093750 0.000000
0.158125 0.093750 0.000000
0.189750 0.093750 0.000000
0.221375 0.093750 0.000000
0.253000 0.093750 0.000000
0.284625 0.093750 0.000000
0.316250 0.093750 0.000000
0.347875 0.093750 0.000000
0.379500 0.093750 0.000000
0.411125 0.093750 0.000000
0.442750 0.093750 0.000000
0.474375 0.093750 0.000000
0.506000 0.093750 0.000000
0.537625 0.093750 0.000000
0.569250 0.093750 0.000000
0.600875 0.093750 0.000000
0.632500 0.093750 0.000000
0.664125 0.093750 0.000000
0.695750 0.093750 0.000000
0.727375 0.093750 0.000000
0.759000 0.093750 0.000000
0.790625 0.093750 0.000000
0.822250 0.093750 0.000000
0.853875 0.093750 0.000000
0.885500 0.093750 0.000000
0.917125 0.093750 0.000000
0.948750 0.093750 0.000000
0.980375 0.093750 0.000000
1.000000 0.093750 0.000000
0.000000 0.125000 0.000000
0.031625 0.125000 0.000000
0.063250 0.125000 0.000000
0.094875 0.125000 0.000000
0.126500 0.125000 0.000000
0.158125 0.125000 0.000000
0.189750 0.125000 0.000000
0.221375 0.125000 0.000000
0.253000 0.125000 0.000000
0.284625 0.125000 0.000000
0.316250 0.125000 0.000000
0.347875 0.125000 0.000000
0.379500 0.125000 0.000000
0.411125 0.125000 0.000000
0.442750 0.125000 0.000000
0.474375 0.125000 0.000000
0.506000 0.125000 0.000000
0.537625 0.125000 0.000000
0.569250 0.125000 0.000000
0.600875 0.125000 0.000000
0.632500 0.125000 0.000000
0.664125 0.125000 0.000000
0.695750 0.125000 0.000000
0.727375 0.125000 0.000000
0.759000 0.125000 0.000000
0.790625 0.125000 0.000000
0.822250 0.125000 0.000000
0.853875 0.125000 0.000000
0.885500 0.125000 0.000000
0.917125 0.125000 0.000000
0.948750 0.125000 0.000000
0.980375 0.125000 0.000000
1.000000 0.125000 0.000000
0.000000 0.156250 0.000000
0.031625 0.156250 0.000000
0.063250 0.156250 0.000000
0.094875 0.156250 0.000000
0.126500 0.156250 0.000000
0.158125 0.156250 0.000000
0.189750 0.156250 0.000000
0.221375 0.156250 0.000000
0.253000 0.156250 0.000000
0.284625 0.156250 0.000000
0.316250 0.156250 0.000000
0.347875 0.156250 0.000000
0.379500 0.156250 0.000000
0.411125 0.156250 0.000000
0.442750 0.156250 0.000000
0.474375 0.156250 0.000000
0.506000 0.156250 0.000000
0.537625 0.156250 0.000000
0.569250 0.156250 0.000000
0.600875 0.156250 0.000000
0.632500 0.156250 0.000000
0.664125 0.156250 0.000000
0.695750 0.156250 0.000000
0.727375 0.156250 0.000000
0.759000 0.156250 0.000000
0.790625 0.156250 0.000000
0.822250 0.156250 0.000000
0.853875 0.156250 0.000000
0.885500 0.156250 0.000000
0.917125 0.156250 0.000000
0.948750 0.156250 0.000000
0.980375 0.156250 0.000000
1.000000 0.156250 0.000000
0.000000 0.187500 0.000000
0.031625 0.187500 0.000000
0.063250 0.187500 0.000000
0.094875 0.187500 0.000000
0.126500 0.187500 0.000000
0.158125 0.187500 0.000000
0.189750 0.187500 0.000000
0.221375 0.187500 0.000000
0.253000 0.187500 0.000000
0.284625 0.187500 0.000000
0.316250 0.187500 0.000000
0.347875 0.187500 0.000000
0.379500 0.187500 0.000000
0.411125 0.187500 0.000000
0.442750 0.187500 0.000000
0.474375 0.187500 0.000000
0.506000 0.187500 0.000000
0.537625 0.187500 0.000000
0.569250 0.187500 0.000000
0.600875 0.187500 0.000000
0.632500 0.187500 0.000000
0.664125 0.187500 0.000000
0.695750 0.187500 0.000000
0.727375 0.187500 0.000000
0.759000 0.187500 0.000000
0.790625 0.187500 0.000000
0.822250 0.187500 0.000000
0.853875 0.187500 0.000000
0.885500 0.187500 0.000000
0.917125 0.187500 0.000000
0.948750 0.187500 0.000000
0.980375 0.187500 0.000000
1.000000 0.187500 0.000000
0.000000 0.218750 0.000000
0.031625 0.218750 0.000000
0.063250 0.218750 0.000000
0.094875 0.218750 0.000000
0.126500 0.218750 0.000000
0.158125 0.218750 0.000000
0.189750 0.218750 0.000000
0.221375 0.218750 0.000000
0.253000 0.218750 0.000000
0.284625 0.218750 0.000000
0.316250 0.218750 0.000000
0.347875 0.218750 0.000000
0.379500 0.218750 0.000000
0.411125 0.218750 0.000000
0.442750 0.218750 0.000000
0.474375 0.218750 0.000000
0.506000 0.218750 0.000000
0.537625 0.218750 0.000000
0.569250 0.218750 0.000000
0.600875 0.218750 0.000000
0.632500 0.218750 0.000000
0.664125 0.218750 0.000000
0.695750 0.218750 0.000000
0.727375 0.218750 0.000000
0.759000 0.218750 0.000000
0.790625 0.218750 0.000000
0.822250 0.218750 0.000000
0.853875 0.218750 0.000000
0.885500 0.218750 0.000000
0.917125 0.218750 0.000000
0.948750 0.218750 0.000000
0.980375 0.218750 0.000000
1.000000 0.218750 0.000000
0.000000 0.250000 0.000000
0.031625 0.250000 0.000000
0.063250 0.250000 0.000000
0.094875 0.250000 0.000000
0.126500 0.250000 0.000000
0.158125 0.250000 0.000000
0.189750 0.250000 0.000000
0.221375 0.250000 0.000000
0.253000 0.250000 0.000000
0.284625 0.250000 0.000000
0.316250 0.250000 0.000000
0.347875 0.250000 0.000000
0.379500 0.250000 0.000000
0.411125 0.250000 0.000000
0.442750 0.250000 0.000000
0.474375 0.250000 0.000000
0.506000 0.250000 0.000000
0.537625 0.250000 0.000000
0.569250 0.250000 0.000000
0.600875 0.250000 0.000000
0.632500 0.250000 0.000000
0.664125 0.250000 0.000000
0.695750 0.250000 0.000000
0.727375 0.250000 0.000000
0.759000 0.250000 0.000000
0.790625 0.250000 0.000000
0.822250 0.250000 0.000000
0.853875 0.250000 0.000000
0.885500 0.250000 0.000000
0.917125 0.250000 0.000000
0.948750 0.250000 0.000000
0.980375 0.250000 0.000000
1.000000 0.250000 0.000000
0.000000 0.281250 0.000000
0.031625 0.281250 0.000000
0.063250 0.281250 0.000000
0.094875 0.281250 0.000000
0.126500 0.281250 0.000000
0.158125 0.281250 0.000000
0.189750 0.281250 0.000000
0.221375 0.281250 0.000000
0.253000 0.281250 0.000000
0.284625 0.281250 0.000000
0.316250 0.281250 0.000000
0.347875 0.281250 0.000000
0.379500 0.281250 0.000000
0.411125 0.281250 0.000000
0.442750 0.281250 0.000000
0.474375 0.281250 0.000000
0.506000 0.281250 0.000000
0.537625 0.281250 0.000000
0.569250 0.281250 0.000000
0.600875 0.281250 0.000000
0.632500 0.281250 0.000000
0.664125 0.281250 0.000000
0.695750 0.281250 0.000000
0.727375 0.281250 0.000000
0.759000 0.281250 0.000000
0.790625 0.281250 0.000000
0.822250 0.281250 0.000000
0.853875 0.281250 0.000000
0.885500 0.281250 0.000000
0.917125 0.281250 0.000000
0.948750 0.281250 0.000000
0.980375 0.281250 0.000000
1.000000 0.281250 0.000000
0.000000 0.312500 0.000000
0.031625 0.312500 0.000000
0.063250 0.312500 0.000000
0.094875 0.312500 0.000000
0.126500 0.312500 0.000000
0.158125 0.312500 0.000000
0.189750 0.312500 0.000000
0.221375 0.312500 0.000000
0.253000 0.312500 0.000000
0.284625 0.312500 0.000000
0.316250 0.312500 0.000000
0.347875 0.312500 0.000000
0.379500 0.312500 0.000000
0.411125 0.312500 0.000000
0.442750 0.312500 0.000000
0.474375 0.312500 0.000000
0.506000 0.312500 0.000000
0.537625 0.312500 0.000000
0.569250 0.312500 0.000000
0.600875 0.312500 0.000000
0.632500 0.312500 0.000000
0.664125 0.312500 0.000000
0.695750 0.312500 0.000000
0.727375 0.312500 0.000000
0.759000 0.312500 0.000000
0.790625 0.312500 0.000000
0.822250 0.312500 0.000000
0.853875 0.312500 0.000000
0.885500 0.312500 0.000000
0.917125 0.312500 0.000000
0.948750 0.312500 0.000000
0.980375 0.312500 0.000000
1.000000 0.312500 0.000000
0.000000 0.343750 0.000000
0.031625 0.343750 0.000000
0.063250 0.343750 0.000000
0.094875 0.343750 0.000000
0.126500 0.343750 0.000000
0.158125 0.343750 0.000000
0.189750 0.343750 0.000000
0.221375 0.343750 0.000000
0.253000 0.343750 0.000000
0.284625 0.343750 0.000000
0.316250 0.343750 0.000000
0.347875 0.343750 0.000000
0.379500 0.343750 0.000000
0.411125 0.343750 0.000000
0.442750 0.343750 0.000000
0.474375 0.343750 0.000000
0.506000 0.343750 0.000000
0.537625 0.343750 0.000000
0.569250 0.343750 0.000000
0.600875 0.343750 0.000000
0.632500 0.343750 0.000000
0.664125 0.343750 0.000000
0.695750 0.343750 0.000000
0.727375 0.343750 0.000000
0.759000 0.343750 0.000000
0.790625 0.343750 0.000000
0.822250 0.343750 0.000000
0.853875 0.343750 0.000000
0.885500 0.343750 0.000000
0.917125 0.343750 0.000000
0.948750 0.343750 0.000000
0.980375 0.343750 0.000000
1.000000 0.343750 0.000000
0.000000 0.375000 0.000000
0.031625 0.375000 0.000000
0.063250 0.375000 0.000000
0.094875 0.375000 0.000000
0.126500 0.375000 0.000000
0.158125 0.375000 0.000000
0.189750 0.375000 0.000000
0.221375 0.375000 0.000000
0.253000 0.375000 0.000000
0.284625 0.375000 0.000000
0.316250 0.375000 0.000000
0.347875 0.375000 0.000000
0.379500 0.375000 0.000000
0.411125 0.375000 0.000000
0.442750 0.375000 0.000000
0.474375 0.375000 0.000000
0.506000 0.375000 0.000000
0.537625 0.375000 0.000000
0.569250 0.375000 0.000000
0.600875 0.375000 0.000000
0.632500 0.375000 0.000000
0.664125 0.375000 0.000000
0.695750 0.375000 0.000000
0.727375 0.375000 0.000000
0.759000 0.375000 0.000000
0.790625 0.375000 0.000000
0.822250 0.375000 0.000000
0.853875 0.375000 0.000000
0.885500 0.375000 0.000000
0.917125 0.375000 0.000000
0.948750 0.375000 0.000000
0.980375 0.375000 0.000000
1.000000 0.375000 0.000000
0.000000 0.406250 0.000000
0.031625 0.406250 0.000000
0.063250 0.406250 0.000000
0.094875 0.406250 0.000000
0.126500 0.406250 0.000000
0.158125 0.406250 0.000000
0.189750 0.406250 0.000000
0.221375 0.406250 0.000000
0.253000 0.406250 0.000000
0.284625 0.406250 0.000000
0.316250 0.406250 0.000000
0.347875 0.406250 0.000000
0.379500 0.406250 0.000000
0.411125 0.406250 0.000000
0.442750 0.406250 0.000000
0.474375 0.406250 0.000000
0.506000 0.406250 0.000000
0.537625 0.406250 0.000000
0.569250 0.406250 0.000000
0.600875 0.406250 0.000000
0.632500 0.406250 0.000000
0.664125 0.406250 0.000000
0.695750 0.406250 0.000000
0.727375 0.406250 0.000000
0.759000 0.406250 0.000000
0.790625 0.406250 0.000000
0.822250 0.406250 0.000000
0.853875 0.406250 0.000000
0.885500 0.406250 0.000000
0.917125 0.406250 0.000000
0.948750 0.406250 0.000000
0.980375 0.406250 0.000000
1.000000 0.406250 0.000000
0.000000 0.437500 0.000000
0.031625 0.437500 0.000000
0.063250 0.437500 0.000000
0.094875 0.437500 0.000000
0.126500 0.437500 0.000000
0.158125 0.437500 0.000000
0.189750 0.437500 0.000000
0.221375 0.437500 0.000000
0.253000 0.437500 0.000000
0.284625 0.437500 0.000000
0.316250 0.437500 0.000000
0.347875 0.437500 0.000000
0.379500 0.437500 0.000000
0.411125 0.437500 0.000000
0.442750 0.437500 0.000000
0.474375 0.437500 0.000000
0.506000 0.437500 0.000000
0.537625 0.437500 0.000000
0.569250 0.437500 0.000000
0.600875 0.437500 0.000000
0.632500 0.437500 0.000000
0.664125 0.437500 0.000000
0.695750 0.437500 0.000000
0.727375 0.437500 0.000000
0.759000 0.437500 0.000000
0.790625 0.437500 0.000000
0.822250 0.437500 0.000000
0.853875 0.437500 0.000000
0.885500 0.437500 0.000000
0.917125 0.437500 0.000000
0.948750 0.437500 0.000000
0.980375 0.437500 0.000000
1.000000 0.437500 0.000000
0.000000 0.468750 0.000000
0.031625 0.468750 0.000000
0.063250 0.468750 0.000000
0.094875 0.468750 0.000000
0.126500 0.468750 0.000000
0.158125 0.468750 0.000000
0.189750 0.468750 0.000000
0.221375 0.468750 0.000000
0.253000 0.468750 0.000000
0.284625 0.468750 0.000000
0.316250 0.468750 0.000000
0.347875 0.468750 0.000000
0.379500 0.468750 0.000000
0.411125 0.468750 0.000000
0.442750 0.468750 0.000000
0.474375 0.468750 0.000000
0.506000 0.468750 0.000000
0.537625 0.468750 0.000000
0.569250 0.468750 0.000000
0.600875 0.468750 0.000000
0.632500 0.468750 0.000000
0.664125 0.468750 0.000000
0.695750 0.468750 0.000000
0.727375 0.468750 0.000000
0.759000 0.468750 0.000000
0.790625 0.468750 0.000000
0.822250 0.468750 0.000000
0.853875 0.468750 0.000000
0.885500 0.468750 0.000000
0.917125 0.468750 0.000000
0.948750 0.468750 0.000000
0.980375 0.468750 0.000000
1.000000 0.468750 0.000000
0.000000 0.500000 0.000000
0.031625 0.500000 0.000000
0.063250 0.500000 0.000000
0.094875 0.500000 0.000000
0.126500 0.500000 0.000000
0.158125 0.500000 0.000000
0.189750 0.500000 0.000000
0.221375 0.500000 0.000000
0.253000 0.500000 0.000000
0.284625 0.500000 0.000000
0.316250 0.500000 0.000000
0.347875 0.500000 0.000000
0.379500 0.500000 0.000000
0.411125 0.500000 0.000000
0.442750 0.500000 0.000000
0.474375 0.500000 0.000000
0.506000 0.500000 0.000000
0.537625 0.500000 0.000000
0.569250 0.500000 0.000000
0.600875 0.500000 0.000000
0.632500 0.500000 0.000000
0.664125 0.500000 0.000000
0.695750 0.500000 0.000000
0.727375 0.500000 0.000000
0.759000 0.500000 0.000000
0.790625 0.500000 0.000000
0.822250 0.500000 0.000000
0.853875 0.500000 0.000000
0.885500 0.500000 0.000000
0.917125 0.500000 0.000000
0.948750 0.500000 0.000000
0.980375 0.500000 0.000000
1.000000 0.500000 0.000000
0.000000 0.531250 0.000000
0.031625 0.531250 0.000000
0.063250 0.531250 0.000000
0.094875 0.531250 0.000000
0.126500 0.531250 0.000000
0.158125 0.531250 0.000000
0.189750 0.531250 0.000000
0.221375 0.531250 0.000000
0.253000 0.531250 0.000000
0.284625 0.531250 0.000000
0.316250 0.531250 0.000000
0.347875 0.531250 0.000000
0.379500 0.531250 0.000000
0.411125 0.531250 0.000000
0.442750 0.531250 0.000000
0.474375 0.531250 0.000000
0.506000 0.531250 0.000000
0.537625 0.531250 0.000000
0.569250 0.531250 0.000000
0.600875 0.531250 0.000000
0.632500 0.531250 0.000000
0.664125 0.531250 0.000000
0.695750 0.531250 0.000000
0.727375 0.531250 0.000000
0.759000 0.531250 0.000000
0.790625 0.531250 0.000000
0.822250 0.531250 0.000000
0.853875 0.531250 0.000000
0.885500 0.531250 0.000000
0.917125 0.531250 0.000000
0.948750 0.531250 0.000000
0.980375 0.531250 0.000000
1.000000 0.531250 0.000000
0.000000 0.562500 0.000000
0.031625 0.562500 0.000000
0.063250 0.562500 0.000000
0.094875 0.562500 0.000000
0.126500 0.562500 0.000000
0.158125 0.562500 0.000000
0.189750 0.562500 0.000000
0.221375 0.562500 0.000000
0.253000 0.562500 0.000000
0.284625 0.562500 0.000000
0.316250 0.562500 0.000000
0.347875 0.562500 0.000000
0.379500 0.562500 0.000000
0.411125 0.562500 0.000000
0.442750 0.562500 0.000000
0.474375 0.562500 0.000000
0.506000 0.562500 0.000000
0.537625 0.562500 0.000000
0.569250 0.562500 0.000000
0.600875 0.562500 0.000000
0.632500 0.562500 0.000000
0.664125 0.562500 0.000000
0.695750 0.562500 0.000000
0.727375 0.562500 0.000000
0.759000 0.562500 0.000000
0.790625 0.562500 0.000000
0.822250 0.562500 0.000000
0.853875 0.562500 0.000000
0.885500 0.562500 0.000000
0.917125 0.562500 0.000000
0.948750 0.562500 0.000000
0.980375 0.562500 0.000000
1.000000 0.562500 0.000000
0.000000 0.593750 0.000000
0.031625 0.593750 0.000000
0.063250 0.593750 0.000000
0.094875 0.593750 0.000000
0.126500 0.593750 0.000000
0.158125 0.593750 0.000000
0.189750 0.593750 0.000000
0.221375 0.593750 0.000000
0.253000 0.593750 0.000000
0.284625 0.593750 0.000000
0.316250 0.593750 0.000000
0.347875 0.593750 0.000000
0.379500 0.593750 0.000000
0.411125 0.593750 0.000000
0.442750 0.593750 0.000000
0.474375 0.593750 0.000000
0.506000 0.593750 0.000000
0.537625 0.593750 0.000000
0.569250 0.593750 0.000000
0.600875 0.593750 0.000000
0.632500 0.593750 0.000000
0.664125 0.593750 0.000000
0.695750 0.593750 0.000000
0.727375 0.593750 0.000000
0.759000 0.593750 0.000000
0.790625 0.593750 0.000000
0.822250 0.593750 0.000000
0.853875 0.593750 0.000000
0.885500 0.593750 0.000000
0.917125 0.593750 0.000000
0.948750 0.593750 0.000000
0.980375 0.593750 0.000000
1.000000 0.593750 0.000000
0.000000 0.625000 0.000000
0.031625 0.625000 0.000000
0.063250 0.625000 0.000000
0.094875 0.625000 0.000000
0.126500 0.625000 0.000000
0.158125 0.625000 0.000000
0.189750 0.625000 0.000000
0.221375 0.625000 0.000000
0.253000 0.625000 0.000000
0.284625 0.625000 0.000000
0.316250 0.625000 0.000000
0.347875 0.625000 0.000000
0.379500 0.625000 0.000000
0.411125 0.625000 0.000000
0.442750 0.625000 0.000000
0.474375 0.625000 0.000000
0.506000 0.625000 0.000000
0.537625 0.625000 0.000000
0.569250 0.625000 0.000000
0.600875 0.625000 0.000000
0.632500 0.625000 0.000000
0.664125 0.625000 0.000000
0.695750 0.625000 0.000000
0.727375 0.625000 0.000000
0.759000 0.625000 0.000000
0.790625 0.625000 0.000000
0.822250 0.625000 0.000000
0.853875 0.625000 0.000000
0.885500 0.625000 0.000000
0.917125 0.625000 0.000000
0.948750 0.625000 0.000000
0.980375 0.625000 0.000000
1.000000 0.625000 0.000000
0.000000 0.656250 0.000000
0.031625 0.656250 0.000000
0.063250 0.656250 0.000000
0.094875 0.656250 0.000000
0.126500 0.656250 0.000000
0.158125 0.656250 0.000000
0.189750 0.656250 0.000000
0.221375 0.656250 0.000000
0.253000 0.656250 0.000000
0.284625 0.656250 0.000000
0.316250 0.656250 0.000000
0.347875 0.656250 0.000000
0.379500 0.656250 0.000000
0.411125 0.656250 0.000000
0.442750 0.656250 0.000000
0.474375 0.656250 0.000000
0.506000 0.656250 0.000000
0.537625 0.656250 0.000000
0.569250 0.656250 0.000000
0.600875 0.656250 0.000000
0.632500 0.656250 0.000000
0.664125 0.656250 0.000000
0.695750 0.656250 0.000000
0.727375 0.656250 0.000000
0.759000 0.656250 0.000000
0.790625 0.656250 0.000000
0.822250 0.656250 0.000000
0.853875 0.656250 0.000000
0.885500 0.656250 0.000000
0.917125 0.656250 0.000000
0.948750 0.656250 0.000000
0.980375 0.656250 0.000000
1.000000 0.656250 0.000000
0.000000 0.687500 0.000000
0.031625 0.687500 0.000000
0.063250 0.687500 0.000000
0.094875 0.687500 0.000000
0.126500 0.687500 0.000000
0.158125 0.687500 0.000000
0.189750 0.687500 0.000000
0.221375 0.687500 0.000000
0.253000 0.687500 0.000000
0.284625 0.687500 0.000000
0.316250 0.687500 0.000000
0.347875 0.687500 0.000000
0.379500 0.687500 0.000000
0.411125 0.687500 0.000000
0.442750 0.687500 0.000000
0.474375 0.687500 0.000000
0.506000 0.687500 0.000000
0.537625 0.687500 0.000000
0.569250 0.687500 0.000000
0.600875 0.687500 0.000000
0.632500 0.687500 0.000000
0.664125 0.687500 0.000000
0.695750 0.687500 0.000000
0.727375 0.687500 0.000000
0.759000 0.687500 0.000000
0.790625 0.687500 0.000000
0.822250 0.687500 0.000000
0.853875 0.687500 0.000000
0.885500 0.687500 0.000000
0.917125 0.687500 0.000000
0.948750 0.687500 0.000000
0.980375 0.687500 0.000000
1.000000 0.687500 0.000000
0.000000 0.718750 0.000000
0.031625 0.718750 0.000000
0.063250 0.718750 0.000000
0.094875 0.718750 0.000000
0.126500 0.718750 0.000000
0.158125 0.718750 0.000000
0.189750 0.718750 0.000000
0.221375 0.718750 0.000000
0.253000 0.718750 0.000000
0.284625 0.718750 0.000000
0.316250 0.718750 0.000000
0.347875 0.718750 0.000000
0.379500 0.718750 0.000000
0.411125 0.718750 0.000000
0.442750 0.718750 0.000000
0.474375 0.718750 0.000000
0.506000 0.718750 0.000000
0.537625 0.718750 0.000000
0.569250 0.718750 0.000000
0.600875 0.718750 0.000000
0.632500 0.718750 0.000000
0.664125 0.718750 0.000000
0.695750 0.718750 0.000000
0.727375 0.718750 0.000000
0.759000 0.718750 0.000000
0.790625 0.718750 0.000000
0.822250 0.718750 0.000000
0.853875 0.718750 0.000000
0.885500 0.718750 0.000000
0.917125 0.718750 0.000000
0.948750 0.718750 0.000000
0.980375 0.718750 0.000000
1.000000 0.718750 0.000000
0.000000 0.750000 0.000000
0.031625 0.750000 0.000000
0.063250 0.750000 0.000000
0.094875 0.750000 0.000000
0.126500 0.750000 0.000000
0.158125 0.750000 0.000000
0.189750 0.750000 0.000000
0.221375 0.750000 0.000000
0.253000 0.750000 0.000000
0.284625 0.750000 0.000000
0.316250 0.750000 0.000000
0.347875 0.750000 0.000000
0.379500 0.750000 0.000000
0.411125 0.750000 0.000000
0.442750 0.750000 0.000000
0.474375 0.750000 0.000000
0.506000 0.750000 0.000000
0.537625 0.750000 0.000000
0.569250 0.750000 0.000000
0.600875 0.750000 0.000000
0.632500 0.750000 0.000000
0.664125 0.750000 0.000000
0.695750 0.750000 0.000000
0.727375 0.750000 0.000000
0.759000 0.750000 0.000000
0.790625 0.750000 0.000000
0.822250 0.750000 0.000000
0.853875 0.750000 0.000000
0.885500 0.750000 0.000000
0.917125 0.750000 0.000000
0.948750 0.750000 0.000000
0.980375 0.750000 0.000000
1.000000 0.750000 0.000000
0.000000 0.781250 0.000000
0.031625 0.781250 0.000000
0.063250 0.781250 0.000000
0.094875 0.781250 0.000000
0.126500 0.781250 0.000000
0.158125 0.781250 0.000000
0.189750 0.781250 0.000000
0.221375 0.781250 0.000000
0.253000 0.781250 0.000000
0.284625 0.781250 0.000000
0.316250 0.781250 0.000000
0.347875 0.781250 0.000000
0.379500 0.781250 0.000000
0.411125 0.781250 0.000000
0.442750 0.781250 0.000000
0.474375 0.781250 0.000000
0.506000 0.781250 0.000000
0.537625 0.781250 0.000000
0.569250 0.781250 0.000000
0.600875 0.781250 0.000000
0.632500 0.781250 0.000000
0.664125 0.781250 0.000000
0.695750 0.781250 0.000000
0.727375 0.781250 0.000000
0.759000 0.781250 0.000000
0.790625 0.781250 0.000000
0.822250 0.781250 0.000000
0.853875 0.781250 0.000000
0.885500 0.781250 0.000000
0.917125 0.781250 0.000000
0.948750 0.781250 0.000000
0.980375 0.781250 0.000000
1.000000 0.781250 0.000000
0.000000 0.812500 0.000000
0.031625 0.812500 0.000000
0.063250 0.812500 0.000000
0.094875 0.812500 0.000000
0.126500 0.812500 0.000000
0.158125 0.812500 0.000000
0.189750 0.812500 0.000000
0.221375 0.812500 0.000000
0.253000 0.812500 0.000000
0.284625 0.812500 0.000000
0.316250 0.812500 0.000000
0.347875 0.812500 0.000000
0.379500 0.812500 0.000000
0.411125 0.812500 0.000000
0.442750 0.812500 0.000000
0.474375 0.812500 0.000000
0.506000 0.812500 0.000000
0.537625 0.812500 0.000000
0.569250 0.812500 0.000000
0.600875 0.812500 0.000000
0.632500 0.812500 0.000000
0.664125 0.812500 0.000000
0.695750 0.812500 0.000000
0.727375 0.812500 0.000000
0.759000 0.812500 0.000000
