correction_luts/warm_shift_30.cube
# Subtle warm shift via RGB rebalance
# Strength: 0.3
# Color model: linear-light tone (v2)
TITLE "Warm Shift - Add Warmth"
LUT_3D_SIZE 5
0.000000 0.000000 0.000000
0.253000 0.000000 0.000000
0.506000 0.000000 0.000000
0.759000 0.000000 0.000000
1.000000 0.000000 0.000000
0.000000 0.250000 0.000000
0.253000 0.250000 0.000000
0.506000 0.250000 0.000000
0.759000 0.250000 0.000000
1.000000 0.250000 0.000000
0.000000 0.500000 0.000000
0.253000 0.500000 0.000000
0.506000 0.500000 0.000000
0.759000 0.500000 0.000000
1.000000 0.500000 0.000000
0.000000 0.750000 0.000000
0.253000 0.750000 0.000000
0.506000 0.750000 0.000000
0.759000 0.750000 0.000000
1.000000 0.750000 0.000000
0.000000 1.000000 0.000000
0.253000 1.000000 0.000000
0.506000 1.000000 0.000000
0.759000 1.000000 0.000000
1.000000 1.000000 0.000000
0.000000 0.000000 0.246250
0.253000 0.000000 0.246250
0.506000 0.000000 0.246250
0.759000 0.000000 0.246250
1.000000 0.000000 0.246250
0.000000 0.250000 0.246250
0.253000 0.250000 0.246250
0.506000 0.250000 0.246250
0.759000 0.250000 0.246250
1.000000 0.250000 0.246250
0.000000 0.500000 0.246250
0.253000 0.500000 0.246250
0.506000 0.500000 0.246250
0.759000 0.500000 0.246250
1.000000 0.500000 0.246250
0.000000 0.750000 0.246250
0.253000 0.750000 0.246250
0.506000 0.750000 0.246250
0.759000 0.750000 0.246250
1.000000 0.750000 0.246250
0.000000 1.000000 0.246250
0.253000 1.000000 0.246250
0.506000 1.000000 0.246250
0.759000 1.000000 0.246250
1.000000 1.000000 0.246250
0.000000 0.000000 0.492500
0.253000 0.000000 0.492500
0.506000 0.000000 0.492500
0.759000 0.000000 0.492500
1.000000 0.000000 0.492500
0.000000 0.250000 0.492500
0.253000 0.250000 0.492500
0.506000 0.250000 0.492500
0.759000 0.250000 0.492500
1.000000 0.250000 0.492500
0.000000 0.500000 0.492500
0.253000 0.500000 0.492500
0.506000 0.500000 0.492500
0.759000 0.500000 0.492500
1.000000 0.500000 0.492500
0.000000 0.750000 0.492500
0.253000 0.750000 0.492500
0.506000 0.750000 0.492500
0.759000 0.750000 0.492500
1.000000 0.750000 0.492500
0.000000 1.000000 0.492500
0.253000 1.000000 0.492500
0.506000 1.000000 0.492500
0.759000 1.000000 0.492500
1.000000 1.000000 0.492500
0.000000 0.000000 0.738750
0.253000 0.000000 0.738750
0.506000 0.000000 0.738750
0.759000 0.000000 0.738750
1.000000 0.000000 0.738750
0.000000 0.250000 0.738750
0.253000 0.250000 0.738750
0.506000 0.250000 0.738750
0.759000 0.250000 0.738750
1.000000 0.250000 0.738750
0.000000 0.500000 0.738750
0.253000 0.500000 0.738750
0.506000 0.500000 0.738750
0.759000 0.500000 0.738750
1.000000 0.500000 0.738750
0.000000 0.750000 0.738750
0.253000 0.750000 0.738750
0.506000 0.750000 0.738750
0.759000 0.750000 0.738750
1.000000 0.750000 0.738750
0.000000 1.000000 0.738750
0.253000 1.000000 0.738750
0.506000 1.000000 0.738750
0.759000 1.000000 0.738750
1.000000 1.000000 0.738750
0.000000 0.000000 0.985000
0.253000 0.000000 0.985000
0.506000 0.000000 0.985000
0.759000 0.000000 0.985000
1.000000 0.000000 0.985000
0.000000 0.250000 0.985000
0.253000 0.250000 0.985000
0.506000 0.250000 0.985000
0.759000 0.250000 0.985000
1.000000 0.250000 0.985000
0.000000 0.500000 0.985000
0.253000 0.500000 0.985000
0.506000 0.500000 0.985000
0.759000 0.500000 0.985000
1.000000 0.500000 0.985000
0.000000 0.750000 0.985000
0.253000 0.750000 0.985000
0.506000 0.750000 0.985000
0.759000 0.750000 0.985000
1.000000 0.750000 0.985000
0.000000 1.000000 0.985000
0.253000 1.000000 0.985000
0.506000 1.000000 0.985000
0.759000 1.000000 0.985000
1.000000 1.000000 0.985000
