correction_luts/warm_shift.cube
# Subtle warm shift via RGB rebalance
# Strength: 1.0
TITLE "Warm Shift - Add Warmth"
LUT_3D_SIZE 5
0.000000 0.000000 0.000000
0.260000 0.000000 0.000000
0.520000 0.000000 0.000000
0.780000 0.000000 0.000000
1.000000 0.000000 0.000000
0.000000 0.250000 0.000000
0.260000 0.250000 0.000000
0.520000 0.250000 0.000000
0.780000 0.250000 0.000000
1.000000 0.250000 0.000000
0.000000 0.500000 0.000000
0.260000 0.500000 0.000000
0.520000 0.500000 0.000000
0.780000 0.500000 0.000000
1.000000 0.500000 0.000000
0.000000 0.750000 0.000000
0.260000 0.750000 0.000000
0.520000 0.750000 0.000000
0.780000 0.750000 0.000000
1.000000 0.750000 0.000000
0.000000 1.000000 0.000000
0.260000 1.000000 0.000000
0.520000 1.000000 0.000000
0.780000 1.000000 0.000000
1.000000 1.000000 0.000000
0.000000 0.000000 0.237500
0.260000 0.000000 0.237500
0.520000 0.000000 0.237500
0.780000 0.000000 0.237500
1.000000 0.000000 0.237500
0.000000 0.250000 0.237500
0.260000 0.250000 0.237500
0.520000 0.250000 0.237500
0.780000 0.250000 0.237500
1.000000 0.250000 0.237500
0.000000 0.500000 0.237500
0.260000 0.500000 0.237500
0.520000 0.500000 0.237500
0.780000 0.500000 0.237500
1.000000 0.500000 0.237500
0.000000 0.750000 0.237500
0.260000 0.750000 0.237500
0.520000 0.750000 0.237500
0.780000 0.750000 0.237500
1.000000 0.750000 0.237500
0.000000 1.000000 0.237500
0.260000 1.000000 0.237500
0.520000 1.000000 0.237500
0.780000 1.000000 0.237500
1.000000 1.000000 0.237500
0.000000 0.000000 0.475000
0.260000 0.000000 0.475000
0.520000 0.000000 0.475000
0.780000 0.000000 0.475000
1.000000 0.000000 0.475000
0.000000 0.250000 0.475000
0.260000 0.250000 0.475000
0.520000 0.250000 0.475000
0.780000 0.250000 0.475000
1.000000 0.250000 0.475000
0.000000 0.500000 0.475000
0.260000 0.500000 0.475000
0.520000 0.500000 0.475000
0.780000 0.500000 0.475000
1.000000 0.500000 0.475000
0.000000 0.750000 0.475000
0.260000 0.750000 0.475000
0.520000 0.750000 0.475000
0.780000 0.750000 0.475000
1.000000 0.750000 0.475000
0.000000 1.000000 0.475000
0.260000 1.000000 0.475000
0.520000 1.000000 0.475000
0.780000 1.000000 0.475000
1.000000 1.000000 0.475000
0.000000 0.000000 0.712500
0.260000 0.000000 0.712500
0.520000 0.000000 0.712500
0.780000 0.000000 0.712500
1.000000 0.000000 0.712500
0.000000 0.250000 0.712500
0.260000 0.250000 0.712500
0.520000 0.250000 0.712500
0.780000 0.250000 0.712500
1.000000 0.250000 0.712500
0.000000 0.500000 0.712500
0.260000 0.500000 0.712500
0.520000 0.500000 0.712500
0.780000 0.500000 0.712500
1.000000 0.500000 0.712500
0.000000 0.750000 0.712500
0.260000 0.750000 0.712500
0.520000 0.750000 0.712500
0.780000 0.750000 0.712500
1.000000 0.750000 0.712500
0.000000 1.000000 0.712500
0.260000 1.000000 0.712500
0.520000 1.000000 0.712500
0.780000 1.000000 0.712500
1.000000 1.000000 0.712500
0.000000 0.000000 0.950000
0.260000 0.000000 0.950000
0.520000 0.000000 0.950000
0.780000 0.000000 0.950000
1.000000 0.000000 0.950000
0.000000 0.250000 0.950000
0.260000 0.250000 0.950000
0.520000 0.250000 0.950000
0.780000 0.250000 0.950000
1.000000 0.250000 0.950000
0.000000 0.500000 0.950000
0.260000 0.500000 0.950000
0.520000 0.500000 0.950000
0.780000 0.500000 0.950000
1.000000 0.500000 0.950000
0.000000 0.750000 0.950000
0.260000 0.750000 0.950000
0.520000 0.750000 0.950000
0.780000 0.750000 0.950000
1.000000 0.750000 0.950000
0.000000 1.000000 0.950000
0.260000 1.000000 0.950000
0.520000 1.000000 0.950000
0.780000 1.000000 0.950000
1.000000 1.000000 0.950000
