correction_luts/warm_shift.cube
# Subtle warm shift via RGB rebalance
# Strength: 1.0
TITLE "Warm Shift - Add Warmth"
LUT_3D_SIZE 9
0.000000 0.000000 0.000000
0.130000 0.000000 0.000000
0.260000 0.000000 0.000000
0.390000 0.000000 0.000000
0.520000 0.000000 0.000000
0.650000 0.000000 0.000000
0.780000 0.000000 0.000000
0.910000 0.000000 0.000000
1.000000 0.000000 0.000000
0.000000 0.125000 0.000000
0.130000 0.125000 0.000000
0.260000 0.125000 0.000000
0.390000 0.125000 0.000000
0.520000 0.125000 0.000000
0.650000 0.125000 0.000000
0.780000 0.125000 0.000000
0.910000 0.125000 0.000000
1.000000 0.125000 0.000000
0.000000 0.250000 0.000000
0.130000 0.250000 0.000000
0.260000 0.250000 0.000000
0.390000 0.250000 0.000000
0.520000 0.250000 0.000000
0.650000 0.250000 0.000000
0.780000 0.250000 0.000000
0.910000 0.250000 0.000000
1.000000 0.250000 0.000000
0.000000 0.375000 0.000000
0.130000 0.375000 0.000000
0.260000 0.375000 0.000000
0.390000 0.375000 0.000000
0.520000 0.375000 0.000000
0.650000 0.375000 0.000000
0.780000 0.375000 0.000000
0.910000 0.375000 0.000000
1.000000 0.375000 0.000000
0.000000 0.500000 0.000000
0.130000 0.500000 0.000000
0.260000 0.500000 0.000000
0.390000 0.500000 0.000000
0.520000 0.500000 0.000000
0.650000 0.500000 0.000000
0.780000 0.500000 0.000000
0.910000 0.500000 0.000000
1.000000 0.500000 0.000000
0.000000 0.625000 0.000000
0.130000 0.625000 0.000000
0.260000 0.625000 0.000000
0.390000 0.625000 0.000000
0.520000 0.625000 0.000000
0.650000 0.625000 0.000000
0.780000 0.625000 0.000000
0.910000 0.625000 0.000000
1.000000 0.625000 0.000000
0.000000 0.750000 0.000000
0.130000 0.750000 0.000000
0.260000 0.750000 0.000000
0.390000 0.750000 0.000000
0.520000 0.750000 0.000000
0.650000 0.750000 0.000000
0.780000 0.750000 0.000000
0.910000 0.750000 0.000000
1.000000 0.750000 0.000000
0.000000 0.875000 0.000000
0.130000 0.875000 0.000000
0.260000 0.875000 0.000000
0.390000 0.875000 0.000000
0.520000 0.875000 0.000000
0.650000 0.875000 0.000000
0.780000 0.875000 0.000000
0.910000 0.875000 0.000000
1.000000 0.875000 0.000000
0.000000 1.000000 0.000000
0.130000 1.000000 0.000000
0.260000 1.000000 0.000000
0.390000 1.000000 0.000000
0.520000 1.000000 0.000000
0.650000 1.000000 0.000000
0.780000 1.000000 0.000000
0.910000 1.000000 0.000000
1.000000 1.000000 0.000000
0.000000 0.000000 0.118750
0.130000 0.000000 0.118750
0.260000 0.000000 0.118750
0.390000 0.000000 0.118750
0.520000 0.000000 0.118750
0.650000 0.000000 0.118750
0.780000 0.000000 0.118750
0.910000 0.000000 0.118750
1.000000 0.000000 0.118750
0.000000 0.125000 0.118750
0.130000 0.125000 0.118750
0.260000 0.125000 0.118750
0.390000 0.125000 0.118750
0.520000 0.125000 0.118750
0.650000 0.125000 0.118750
0.780000 0.125000 0.118750
0.910000 0.125000 0.118750
1.000000 0.125000 0.118750
0.000000 0.250000 0.118750
0.130000 0.250000 0.118750
0.260000 0.250000 0.118750
0.390000 0.250000 0.118750
0.520000 0.250000 0.118750
0.650000 0.250000 0.118750
0.780000 0.250000 0.118750
0.910000 0.250000 0.118750
1.000000 0.250000 0.118750
0.000000 0.375000 0.118750
0.130000 0.375000 0.118750
0.260000 0.375000 0.118750
0.390000 0.375000 0.118750
0.520000 0.375000 0.118750
0.650000 0.375000 0.118750
0.780000 0.375000 0.118750
0.910000 0.375000 0.118750
1.000000 0.375000 0.118750
0.000000 0.500000 0.118750
0.130000 0.500000 0.118750
0.260000 0.500000 0.118750
0.390000 0.500000 0.118750
0.520000 0.500000 0.118750
0.650000 0.500000 0.118750
0.780000 0.500000 0.118750
0.910000 0.500000 0.118750
1.000000 0.500000 0.118750
0.000000 0.625000 0.118750
0.130000 0.625000 0.118750
0.260000 0.625000 0.118750
0.390000 0.625000 0.118750
0.520000 0.625000 0.118750
0.650000 0.625000 0.118750
0.780000 0.625000 0.118750
0.910000 0.625000 0.118750
1.000000 0.625000 0.118750
0.000000 0.750000 0.118750
0.130000 0.750000 0.118750
0.260000 0.750000 0.118750
0.390000 0.750000 0.118750
0.520000 0.750000 0.118750
0.650000 0.750000 0.118750
0.780000 0.750000 0.118750
0.910000 0.750000 0.118750
1.000000 0.750000 0.118750
0.000000 0.875000 0.118750
0.130000 0.875000 0.118750
0.260000 0.875000 0.118750
0.390000 0.875000 0.118750
0.520000 0.875000 0.118750
0.650000 0.875000 0.118750
0.780000 0.875000 0.118750
0.910000 0.875000 0.118750
1.000000 0.875000 0.118750
0.000000 1.000000 0.118750
0.130000 1.000000 0.118750
0.260000 1.000000 0.118750
0.390000 1.000000 0.118750
0.520000 1.000000 0.118750
0.650000 1.000000 0.118750
0.780000 1.000000 0.118750
0.910000 1.000000 0.118750
1.000000 1.000000 0.118750
0.000000 0.000000 0.237500
0.130000 0.000000 0.237500
0.260000 0.000000 0.237500
0.390000 0.000000 0.237500
0.520000 0.000000 0.237500
0.650000 0.000000 0.237500
0.780000 0.000000 0.237500
0.910000 0.000000 0.237500
1.000000 0.000000 0.237500
0.000000 0.125000 0.237500
0.130000 0.125000 0.237500
0.260000 0.125000 0.237500
0.390000 0.125000 0.237500
0.520000 0.125000 0.237500
0.650000 0.125000 0.237500
0.780000 0.125000 0.237500
0.910000 0.125000 0.237500
1.000000 0.125000 0.237500
0.000000 0.250000 0.237500
0.130000 0.250000 0.237500
0.260000 0.250000 0.237500
0.390000 0.250000 0.237500
0.520000 0.250000 0.237500
0.650000 0.250000 0.237500
0.780000 0.250000 0.237500
0.910000 0.250000 0.237500
1.000000 0.250000 0.237500
0.000000 0.375000 0.237500
0.130000 0.375000 0.237500
0.260000 0.375000 0.237500
0.390000 0.375000 0.237500
0.520000 0.375000 0.237500
0.650000 0.375000 0.237500
0.780000 0.375000 0.237500
0.910000 0.375000 0.237500
1.000000 0.375000 0.237500
0.000000 0.500000 0.237500
0.130000 0.500000 0.237500
0.260000 0.500000 0.237500
0.390000 0.500000 0.237500
0.520000 0.500000 0.237500
0.650000 0.500000 0.237500
0.780000 0.500000 0.237500
0.910000 0.500000 0.237500
1.000000 0.500000 0.237500
0.000000 0.625000 0.237500
0.130000 0.625000 0.237500
0.260000 0.625000 0.237500
0.390000 0.625000 0.237500
0.520000 0.625000 0.237500
0.650000 0.625000 0.237500
0.780000 0.625000 0.237500
0.910000 0.625000 0.237500
1.000000 0.625000 0.237500
0.000000 0.750000 0.237500
0.130000 0.750000 0.237500
0.260000 0.750000 0.237500
0.390000 0.750000 0.237500
0.520000 0.750000 0.237500
0.650000 0.750000 0.237500
0.780000 0.750000 0.237500
0.910000 0.750000 0.237500
1.000000 0.750000 0.237500
0.000000 0.875000 0.237500
0.130000 0.875000 0.237500
0.260000 0.875000 0.237500
0.390000 0.875000 0.237500
0.520000 0.875000 0.237500
0.650000 0.875000 0.237500
0.780000 0.875000 0.237500
0.910000 0.875000 0.237500
1.000000 0.875000 0.237500
0.000000 1.000000 0.237500
0.130000 1.000000 0.237500
0.260000 1.000000 0.237500
0.390000 1.000000 0.237500
0.520000 1.000000 0.237500
0.650000 1.000000 0.237500
0.780000 1.000000 0.237500
0.910000 1.000000 0.237500
1.000000 1.000000 0.237500
0.000000 0.000000 0.356250
0.130000 0.000000 0.356250
0.260000 0.000000 0.356250
0.390000 0.000000 0.356250
0.520000 0.000000 0.356250
0.650000 0.000000 0.356250
0.780000 0.000000 0.356250
0.910000 0.000000 0.356250
1.000000 0.000000 0.356250
0.000000 0.125000 0.356250
0.130000 0.125000 0.356250
0.260000 0.125000 0.356250
0.390000 0.125000 0.356250
0.520000 0.125000 0.356250
0.650000 0.125000 0.356250
0.780000 0.125000 0.356250
0.910000 0.125000 0.356250
1.000000 0.125000 0.356250
0.000000 0.250000 0.356250
0.130000 0.250000 0.356250
0.260000 0.250000 0.356250
0.390000 0.250000 0.356250
0.520000 0.250000 0.356250
0.650000 0.250000 0.356250
0.780000 0.250000 0.356250
0.910000 0.250000 0.356250
1.000000 0.250000 0.356250
0.000000 0.375000 0.356250
0.130000 0.375000 0.356250
0.260000 0.375000 0.356250
0.390000 0.375000 0.356250
0.520000 0.375000 0.356250
0.650000 0.375000 0.356250
0.780000 0.375000 0.356250
0.910000 0.375000 0.356250
1.000000 0.375000 0.356250
0.000000 0.500000 0.356250
0.130000 0.500000 0.356250
0.260000 0.500000 0.356250
0.390000 0.500000 0.356250
0.520000 0.500000 0.356250
0.650000 0.500000 0.356250
0.780000 0.500000 0.356250
0.910000 0.500000 0.356250
1.000000 0.500000 0.356250
0.000000 0.625000 0.356250
0.130000 0.625000 0.356250
0.260000 0.625000 0.356250
0.390000 0.625000 0.356250
0.520000 0.625000 0.356250
0.650000 0.625000 0.356250
0.780000 0.625000 0.356250
0.910000 0.625000 0.356250
1.000000 0.625000 0.356250
0.000000 0.750000 0.356250
0.130000 0.750000 0.356250
0.260000 0.750000 0.356250
0.390000 0.750000 0.356250
0.520000 0.750000 0.356250
0.650000 0.750000 0.356250
0.780000 0.750000 0.356250
0.910000 0.750000 0.356250
1.000000 0.750000 0.356250
0.000000 0.875000 0.356250
0.130000 0.875000 0.356250
0.260000 0.875000 0.356250
0.390000 0.875000 0.356250
0.520000 0.875000 0.356250
0.650000 0.875000 0.356250
0.780000 0.875000 0.356250
0.910000 0.875000 0.356250
1.000000 0.875000 0.356250
0.000000 1.000000 0.356250
0.130000 1.000000 0.356250
0.260000 1.000000 0.356250
0.390000 1.000000 0.356250
0.520000 1.000000 0.356250
0.650000 1.000000 0.356250
0.780000 1.000000 0.356250
0.910000 1.000000 0.356250
1.000000 1.000000 0.356250
0.000000 0.000000 0.475000
0.130000 0.000000 0.475000
0.260000 0.000000 0.475000
0.390000 0.000000 0.475000
0.520000 0.000000 0.475000
0.650000 0.000000 0.475000
0.780000 0.000000 0.475000
0.910000 0.000000 0.475000
1.000000 0.000000 0.475000
0.000000 0.125000 0.475000
0.130000 0.125000 0.475000
0.260000 0.125000 0.475000
0.390000 0.125000 0.475000
0.520000 0.125000 0.475000
0.650000 0.125000 0.475000
0.780000 0.125000 0.475000
0.910000 0.125000 0.475000
1.000000 0.125000 0.475000
0.000000 0.250000 0.475000
0.130000 0.250000 0.475000
0.260000 0.250000 0.475000
0.390000 0.250000 0.475000
0.520000 0.250000 0.475000
0.650000 0.250000 0.475000
0.780000 0.250000 0.475000
0.910000 0.250000 0.475000
1.000000 0.250000 0.475000
0.000000 0.375000 0.475000
0.130000 0.375000 0.475000
0.260000 0.375000 0.475000
0.390000 0.375000 0.475000
0.520000 0.375000 0.475000
0.650000 0.375000 0.475000
0.780000 0.375000 0.475000
0.910000 0.375000 0.475000
1.000000 0.375000 0.475000
0.000000 0.500000 0.475000
0.130000 0.500000 0.475000
0.260000 0.500000 0.475000
0.390000 0.500000 0.475000
0.520000 0.500000 0.475000
0.650000 0.500000 0.475000
0.780000 0.500000 0.475000
0.910000 0.500000 0.475000
1.000000 0.500000 0.475000
0.000000 0.625000 0.475000
0.130000 0.625000 0.475000
0.260000 0.625000 0.475000
0.390000 0.625000 0.475000
0.520000 0.625000 0.475000
0.650000 0.625000 0.475000
0.780000 0.625000 0.475000
0.910000 0.625000 0.475000
1.000000 0.625000 0.475000
0.000000 0.750000 0.475000
0.130000 0.750000 0.475000
0.260000 0.750000 0.475000
0.390000 0.750000 0.475000
0.520000 0.750000 0.475000
0.650000 0.750000 0.475000
0.780000 0.750000 0.475000
0.910000 0.750000 0.475000
1.000000 0.750000 0.475000
0.000000 0.875000 0.475000
0.130000 0.875000 0.475000
0.260000 0.875000 0.475000
0.390000 0.875000 0.475000
0.520000 0.875000 0.475000
0.650000 0.875000 0.475000
0.780000 0.875000 0.475000
0.910000 0.875000 0.475000
1.000000 0.875000 0.475000
0.000000 1.000000 0.475000
0.130000 1.000000 0.475000
0.260000 1.000000 0.475000
0.390000 1.000000 0.475000
0.520000 1.000000 0.475000
0.650000 1.000000 0.475000
0.780000 1.000000 0.475000
0.910000 1.000000 0.475000
1.000000 1.000000 0.475000
0.000000 0.000000 0.593750
0.130000 0.000000 0.593750
0.260000 0.000000 0.593750
0.390000 0.000000 0.593750
0.520000 0.000000 0.593750
0.650000 0.000000 0.593750
0.780000 0.000000 0.593750
0.910000 0.000000 0.593750
1.000000 0.000000 0.593750
0.000000 0.125000 0.593750
0.130000 0.125000 0.593750
0.260000 0.125000 0.593750
0.390000 0.125000 0.593750
0.520000 0.125000 0.593750
0.650000 0.125000 0.593750
0.780000 0.125000 0.593750
0.910000 0.125000 0.593750
1.000000 0.125000 0.593750
0.000000 0.250000 0.593750
0.130000 0.250000 0.593750
0.260000 0.250000 0.593750
0.390000 0.250000 0.593750
0.520000 0.250000 0.593750
0.650000 0.250000 0.593750
0.780000 0.250000 0.593750
0.910000 0.250000 0.593750
1.000000 0.250000 0.593750
0.000000 0.375000 0.593750
0.130000 0.375000 0.593750
0.260000 0.375000 0.593750
0.390000 0.375000 0.593750
0.520000 0.375000 0.593750
0.650000 0.375000 0.593750
0.780000 0.375000 0.593750
0.910000 0.375000 0.593750
1.000000 0.375000 0.593750
0.000000 0.500000 0.593750
0.130000 0.500000 0.593750
0.260000 0.500000 0.593750
0.390000 0.500000 0.593750
0.520000 0.500000 0.593750
0.650000 0.500000 0.593750
0.780000 0.500000 0.593750
0.910000 0.500000 0.593750
1.000000 0.500000 0.593750
0.000000 0.625000 0.593750
0.130000 0.625000 0.593750
0.260000 0.625000 0.593750
0.390000 0.625000 0.593750
0.520000 0.625000 0.593750
0.650000 0.625000 0.593750
0.780000 0.625000 0.593750
0.910000 0.625000 0.593750
1.000000 0.625000 0.593750
0.000000 0.750000 0.593750
0.130000 0.750000 0.593750
0.260000 0.750000 0.593750
0.390000 0.750000 0.593750
0.520000 0.750000 0.593750
0.650000 0.750000 0.593750
0.780000 0.750000 0.593750
0.910000 0.750000 0.593750
1.000000 0.750000 0.593750
0.000000 0.875000 0.593750
0.130000 0.875000 0.593750
0.260000 0.875000 0.593750
0.390000 0.875000 0.593750
0.520000 0.875000 0.593750
0.650000 0.875000 0.593750
0.780000 0.875000 0.593750
0.910000 0.875000 0.593750
1.000000 0.875000 0.593750
0.000000 1.000000 0.593750
0.130000 1.000000 0.593750
0.260000 1.000000 0.593750
0.390000 1.000000 0.593750
0.520000 1.000000 0.593750
0.650000 1.000000 0.593750
0.780000 1.000000 0.593750
0.910000 1.000000 0.593750
1.000000 1.000000 0.593750
0.000000 0.000000 0.712500
0.130000 0.000000 0.712500
0.260000 0.000000 0.712500
0.390000 0.000000 0.712500
0.520000 0.000000 0.712500
0.650000 0.000000 0.712500
0.780000 0.000000 0.712500
0.910000 0.000000 0.712500
1.000000 0.000000 0.712500
0.000000 0.125000 0.712500
0.130000 0.125000 0.712500
0.260000 0.125000 0.712500
0.390000 0.125000 0.712500
0.520000 0.125000 0.712500
0.650000 0.125000 0.712500
0.780000 0.125000 0.712500
0.910000 0.125000 0.712500
1.000000 0.125000 0.712500
0.000000 0.250000 0.712500
0.130000 0.250000 0.712500
0.260000 0.250000 0.712500
0.390000 0.250000 0.712500
0.520000 0.250000 0.712500
0.650000 0.250000 0.712500
0.780000 0.250000 0.712500
0.910000 0.250000 0.712500
1.000000 0.250000 0.712500
0.000000 0.375000 0.712500
0.130000 0.375000 0.712500
0.260000 0.375000 0.712500
0.390000 0.375000 0.712500
0.520000 0.375000 0.712500
0.650000 0.375000 0.712500
0.780000 0.375000 0.712500
0.910000 0.375000 0.712500
1.000000 0.375000 0.712500
0.000000 0.500000 0.712500
0.130000 0.500000 0.712500
0.260000 0.500000 0.712500
0.390000 0.500000 0.712500
0.520000 0.500000 0.712500
0.650000 0.500000 0.712500
0.780000 0.500000 0.712500
0.910000 0.500000 0.712500
1.000000 0.500000 0.712500
0.000000 0.625000 0.712500
0.130000 0.625000 0.712500
0.260000 0.625000 0.712500
0.390000 0.625000 0.712500
0.520000 0.625000 0.712500
0.650000 0.625000 0.712500
0.780000 0.625000 0.712500
0.910000 0.625000 0.712500
1.000000 0.625000 0.712500
0.000000 0.750000 0.712500
0.130000 0.750000 0.712500
0.260000 0.750000 0.712500
0.390000 0.750000 0.712500
0.520000 0.750000 0.712500
0.650000 0.750000 0.712500
0.780000 0.750000 0.712500
0.910000 0.750000 0.712500
1.000000 0.750000 0.712500
0.000000 0.875000 0.712500
0.130000 0.875000 0.712500
0.260000 0.875000 0.712500
0.390000 0.875000 0.712500
0.520000 0.875000 0.712500
0.650000 0.875000 0.712500
0.780000 0.875000 0.712500
0.910000 0.875000 0.712500
1.000000 0.875000 0.712500
0.000000 1.000000 0.712500
0.130000 1.000000 0.712500
0.260000 1.000000 0.712500
0.390000 1.000000 0.712500
0.520000 1.000000 0.712500
0.650000 1.000000 0.712500
0.780000 1.000000 0.712500
0.910000 1.000000 0.712500
1.000000 1.000000 0.712500
0.000000 0.000000 0.831250
0.130000 0.000000 0.831250
0.260000 0.000000 0.831250
0.390000 0.000000 0.831250
0.520000 0.000000 0.831250
0.650000 0.000000 0.831250
0.780000 0.000000 0.831250
0.910000 0.000000 0.831250
1.000000 0.000000 0.831250
0.000000 0.125000 0.831250
0.130000 0.125000 0.831250
0.260000 0.125000 0.831250
0.390000 0.125000 0.831250
0.520000 0.125000 0.831250
0.650000 0.125000 0.831250
0.780000 0.125000 0.831250
0.910000 0.125000 0.831250
1.000000 0.125000 0.831250
0.000000 0.250000 0.831250
0.130000 0.250000 0.831250
0.260000 0.250000 0.831250
0.390000 0.250000 0.831250
0.520000 0.250000 0.831250
0.650000 0.250000 0.831250
0.780000 0.250000 0.831250
0.910000 0.250000 0.831250
1.000000 0.250000 0.831250
0.000000 0.375000 0.831250
0.130000 0.375000 0.831250
0.260000 0.375000 0.831250
0.390000 0.375000 0.831250
0.520000 0.375000 0.831250
0.650000 0.375000 0.831250
0.780000 0.375000 0.831250
0.910000 0.375000 0.831250
1.000000 0.375000 0.831250
0.000000 0.500000 0.831250
0.130000 0.500000 0.831250
0.260000 0.500000 0.831250
0.390000 0.500000 0.831250
0.520000 0.500000 0.831250
0.650000 0.500000 0.831250
0.780000 0.500000 0.831250
0.910000 0.500000 0.831250
1.000000 0.500000 0.831250
0.000000 0.625000 0.831250
0.130000 0.625000 0.831250
0.260000 0.625000 0.831250
0.390000 0.625000 0.831250
0.520000 0.625000 0.831250
0.650000 0.625000 0.831250
0.780000 0.625000 0.831250
0.910000 0.625000 0.831250
1.000000 0.625000 0.831250
0.000000 0.750000 0.831250
0.130000 0.750000 0.831250
0.260000 0.750000 0.831250
0.390000 0.750000 0.831250
0.520000 0.750000 0.831250
0.650000 0.750000 0.831250
0.780000 0.750000 0.831250
0.910000 0.750000 0.831250
1.000000 0.750000 0.831250
0.000000 0.875000 0.831250
0.130000 0.875000 0.831250
0.260000 0.875000 0.831250
0.390000 0.875000 0.831250
0.520000 0.875000 0.831250
0.650000 0.875000 0.831250
0.780000 0.875000 0.831250
0.910000 0.875000 0.831250
1.000000 0.875000 0.831250
0.000000 1.000000 0.831250
0.130000 1.000000 0.831250
0.260000 1.000000 0.831250
0.390000 1.000000 0.831250
0.520000 1.000000 0.831250
0.650000 1.000000 0.831250
0.780000 1.000000 0.831250
0.910000 1.000000 0.831250
1.000000 1.000000 0.831250
0.000000 0.000000 0.950000
0.130000 0.000000 0.950000
0.260000 0.000000 0.950000
0.390000 0.000000 0.950000
0.520000 0.000000 0.950000
0.650000 0.000000 0.950000
0.780000 0.000000 0.950000
0.910000 0.000000 0.950000
1.000000 0.000000 0.950000
0.000000 0.125000 0.950000
0.130000 0.125000 0.950000
0.260000 0.125000 0.950000
0.390000 0.125000 0.950000
0.520000 0.125000 0.950000
0.650000 0.125000 0.950000
0.780000 0.125000 0.950000
0.910000 0.125000 0.950000
1.000000 0.125000 0.950000
0.000000 0.250000 0.950000
0.130000 0.250000 0.950000
0.260000 0.250000 0.950000
0.390000 0.250000 0.950000
0.520000 0.250000 0.950000
0.650000 0.250000 0.950000
0.780000 0.250000 0.950000
0.910000 0.250000 0.950000
1.000000 0.250000 0.950000
0.000000 0.375000 0.950000
0.130000 0.375000 0.950000
0.260000 0.375000 0.950000
0.390000 0.375000 0.950000
0.520000 0.375000 0.950000
0.650000 0.375000 0.950000
0.780000 0.375000 0.950000
0.910000 0.375000 0.950000
1.000000 0.375000 0.950000
0.000000 0.500000 0.950000
0.130000 0.500000 0.950000
0.260000 0.500000 0.950000
0.390000 0.500000 0.950000
0.520000 0.500000 0.950000
0.650000 0.500000 0.950000
0.780000 0.500000 0.950000
0.910000 0.500000 0.950000
1.000000 0.500000 0.950000
0.000000 0.625000 0.950000
0.130000 0.625000 0.950000
0.260000 0.625000 0.950000
0.390000 0.625000 0.950000
0.520000 0.625000 0.950000
0.650000 0.625000 0.950000
0.780000 0.625000 0.950000
0.910000 0.625000 0.950000
1.000000 0.625000 0.950000
0.000000 0.750000 0.950000
0.130000 0.750000 0.950000
0.260000 0.750000 0.950000
0.390000 0.750000 0.950000
0.520000 0.750000 0.950000
0.650000 0.750000 0.950000
0.780000 0.750000 0.950000
0.910000 0.750000 0.950000
1.000000 0.750000 0.950000
0.000000 0.875000 0.950000
0.130000 0.875000 0.950000
0.260000 0.875000 0.950000
0.390000 0.875000 0.950000
0.520000 0.875000 0.950000
0.650000 0.875000 0.950000
0.780000 0.875000 0.950000
0.910000 0.875000 0.950000
1.000000 0.875000 0.950000
0.000000 1.000000 0.950000
0.130000 1.000000 0.950000
0.260000 1.000000 0.950000
0.390000 1.000000 0.950000
0.520000 1.000000 0.950000
0.650000 1.000000 0.950000
0.780000 1.000000 0.950000
0.910000 1.000000 0.950000
1.000000 1.000000 0.950000
