correction_luts/warm_shift.cube
# Subtle warm shift via RGB rebalance
# Strength: 1.0
TITLE "Warm Shift - Add Warmth"
LUT_3D_SIZE 33
0.000000 0.000000 0.000000
0.032031 0.000000 0.000000
0.065000 0.000000 0.000000
0.097500 0.000000 0.000000
0.130000 0.000000 0.000000
0.162500 0.000000 0.000000
0.195000 0.000000 0.000000
0.227500 0.000000 0.000000
0.260000 0.000000 0.000000
0.292500 0.000000 0.000000
0.325000 0.000000 0.000000
0.357500 0.000000 0.000000
0.390000 0.000000 0.000000
0.422500 0.000000 0.000000
0.455000 0.000000 0.000000
0.487500 0.000000 0.000000
0.520000 0.000000 0.000000
0.552500 0.000000 0.000000
0.585000 0.000000 0.000000
0.617500 0.000000 0.000000
0.650000 0.000000 0.000000
0.682500 0.000000 0.000000
0.715000 0.000000 0.000000
0.747500 0.000000 0.000000
0.780000 0.000000 0.000000
0.812500 0.000000 0.000000
0.845000 0.000000 0.000000
0.877500 0.000000 0.000000
0.910000 0.000000 0.000000
0.942500 0.000000 0.000000
0.975000 0.000000 0.000000
1.000000 0.000000 0.000000
1.000000 0.000000 0.000000
0.000000 0.031250 0.000000
0.032031 0.031250 0.000000
0.065000 0.031250 0.000000
0.097500 0.031250 0.000000
0.130000 0.031250 0.000000
0.162500 0.031250 0.000000
0.195000 0.031250 0.000000
0.227500 0.031250 0.000000
0.260000 0.031250 0.000000
0.292500 0.031250 0.000000
0.325000 0.031250 0.000000
0.357500 0.031250 0.000000
0.390000 0.031250 0.000000
0.422500 0.031250 0.000000
0.455000 0.031250 0.000000
0.487500 0.031250 0.000000
0.520000 0.031250 0.000000
0.552500 0.031250 0.000000
0.585000 0.031250 0.000000
0.617500 0.031250 0.000000
0.650000 0.031250 0.000000
0.682500 0.031250 0.000000
0.715000 0.031250 0.000000
0.747500 0.031250 0.000000
0.780000 0.031250 0.000000
0.812500 0.031250 0.000000
0.845000 0.031250 0.000000
0.877500 0.031250 0.000000
0.910000 0.031250 0.000000
0.942500 0.031250 0.000000
0.975000 0.031250 0.000000
1.000000 0.031250 0.000000
1.000000 0.031250 0.000000
0.000000 0.062500 0.000000
0.032500 0.062500 0.000000
0.065000 0.062500 0.000000
0.097500 0.062500 0.000000
0.130000 0.062500 0.000000
0.162500 0.062500 0.000000
0.195000 0.062500 0.000000
0.227500 0.062500 0.000000
0.260000 0.062500 0.000000
0.292500 0.062500 0.000000
0.325000 0.062500 0.000000
0.357500 0.062500 0.000000
0.390000 0.062500 0.000000
0.422500 0.062500 0.000000
0.455000 0.062500 0.000000
0.487500 0.062500 0.000000
0.520000 0.062500 0.000000
0.552500 0.062500 0.000000
0.585000 0.062500 0.000000
0.617500 0.062500 0.000000
0.650000 0.062500 0.000000
0.682500 0.062500 0.000000
0.715000 0.062500 0.000000
0.747500 0.062500 0.000000
0.780000 0.062500 0.000000
0.812500 0.062500 0.000000
0.845000 0.062500 0.000000
0.877500 0.062500 0.000000
0.910000 0.062500 0.000000
0.942500 0.062500 0.000000
0.975000 0.062500 0.000000
1.000000 0.062500 0.000000
1.000000 0.062500 0.000000
0.000000 0.093750 0.000000
0.032500 0.093750 0.000000
0.065000 0.093750 0.000000
0.097500 0.093750 0.000000
0.130000 0.093750 0.000000
0.162500 0.093750 0.000000
0.195000 0.093750 0.000000
0.227500 0.093750 0.000000
0.260000 0.093750 0.000000
0.292500 0.093750 0.000000
0.325000 0.093750 0.000000
0.357500 0.093750 0.000000
0.390000 0.093750 0.000000
0.422500 0.093750 0.000000
0.455000 0.093750 0.000000
0.487500 0.093750 0.000000
0.520000 0.093750 0.000000
0.552500 0.093750 0.000000
0.585000 0.093750 0.000000
0.617500 0.093750 0.000000
0.650000 0.093750 0.000000
0.682500 0.093750 0.000000
0.715000 0.093750 0.000000
0.747500 0.093750 0.000000
0.780000 0.093750 0.000000
0.812500 0.093750 0.000000
0.845000 0.093750 0.000000
0.877500 0.093750 0.000000
0.910000 0.093750 0.000000
0.942500 0.093750 0.000000
0.975000 0.093750 0.000000
1.000000 0.093750 0.000000
1.000000 0.093750 0.000000
0.000000 0.125000 0.000000
0.032500 0.125000 0.000000
0.065000 0.125000 0.000000
0.097500 0.125000 0.000000
0.130000 0.125000 0.000000
0.162500 0.125000 0.000000
0.195000 0.125000 0.000000
0.227500 0.125000 0.000000
0.260000 0.125000 0.000000
0.292500 0.125000 0.000000
0.325000 0.125000 0.000000
0.357500 0.125000 0.000000
0.390000 0.125000 0.000000
0.422500 0.125000 0.000000
0.455000 0.125000 0.000000
0.487500 0.125000 0.000000
0.520000 0.125000 0.000000
0.552500 0.125000 0.000000
0.585000 0.125000 0.000000
0.617500 0.125000 0.000000
0.650000 0.125000 0.000000
0.682500 0.125000 0.000000
0.715000 0.125000 0.000000
0.747500 0.125000 0.000000
0.780000 0.125000 0.000000
0.812500 0.125000 0.000000
0.845000 0.125000 0.000000
0.877500 0.125000 0.000000
0.910000 0.125000 0.000000
0.942500 0.125000 0.000000
0.975000 0.125000 0.000000
1.000000 0.125000 0.000000
1.000000 0.125000 0.000000
0.000000 0.156250 0.000000
0.032500 0.156250 0.000000
0.065000 0.156250 0.000000
0.097500 0.156250 0.000000
0.130000 0.156250 0.000000
0.162500 0.156250 0.000000
0.195000 0.156250 0.000000
0.227500 0.156250 0.000000
0.260000 0.156250 0.000000
0.292500 0.156250 0.000000
0.325000 0.156250 0.000000
0.357500 0.156250 0.000000
0.390000 0.156250 0.000000
0.422500 0.156250 0.000000
0.455000 0.156250 0.000000
0.487500 0.156250 0.000000
0.520000 0.156250 0.000000
0.552500 0.156250 0.000000
0.585000 0.156250 0.000000
0.617500 0.156250 0.000000
0.650000 0.156250 0.000000
0.682500 0.156250 0.000000
0.715000 0.156250 0.000000
0.747500 0.156250 0.000000
0.780000 0.156250 0.000000
0.812500 0.156250 0.000000
0.845000 0.156250 0.000000
0.877500 0.156250 0.000000
0.910000 0.156250 0.000000
0.942500 0.156250 0.000000
0.975000 0.156250 0.000000
1.000000 0.156250 0.000000
1.000000 0.156250 0.000000
0.000000 0.187500 0.000000
0.032500 0.187500 0.000000
0.065000 0.187500 0.000000
0.097500 0.187500 0.000000
0.130000 0.187500 0.000000
0.162500 0.187500 0.000000
0.195000 0.187500 0.000000
0.227500 0.187500 0.000000
0.260000 0.187500 0.000000
0.292500 0.187500 0.000000
0.325000 0.187500 0.000000
0.357500 0.187500 0.000000
0.390000 0.187500 0.000000
0.422500 0.187500 0.000000
0.455000 0.187500 0.000000
0.487500 0.187500 0.000000
0.520000 0.187500 0.000000
0.552500 0.187500 0.000000
0.585000 0.187500 0.000000
0.617500 0.187500 0.000000
0.650000 0.187500 0.000000
0.682500 0.187500 0.000000
0.715000 0.187500 0.000000
0.747500 0.187500 0.000000
0.780000 0.187500 0.000000
0.812500 0.187500 0.000000
0.845000 0.187500 0.000000
0.877500 0.187500 0.000000
0.910000 0.187500 0.000000
0.942500 0.187500 0.000000
0.975000 0.187500 0.000000
1.000000 0.187500 0.000000
1.000000 0.187500 0.000000
0.000000 0.218750 0.000000
0.032500 0.218750 0.000000
0.065000 0.218750 0.000000
0.097500 0.218750 0.000000
0.130000 0.218750 0.000000
0.162500 0.218750 0.000000
0.195000 0.218750 0.000000
0.227500 0.218750 0.000000
0.260000 0.218750 0.000000
0.292500 0.218750 0.000000
0.325000 0.218750 0.000000
0.357500 0.218750 0.000000
0.390000 0.218750 0.000000
0.422500 0.218750 0.000000
0.455000 0.218750 0.000000
0.487500 0.218750 0.000000
0.520000 0.218750 0.000000
0.552500 0.218750 0.000000
0.585000 0.218750 0.000000
0.617500 0.218750 0.000000
0.650000 0.218750 0.000000
0.682500 0.218750 0.000000
0.715000 0.218750 0.000000
0.747500 0.218750 0.000000
0.780000 0.218750 0.000000
0.812500 0.218750 0.000000
0.845000 0.218750 0.000000
0.877500 0.218750 0.000000
0.910000 0.218750 0.000000
0.942500 0.218750 0.000000
0.975000 0.218750 0.000000
1.000000 0.218750 0.000000
1.000000 0.218750 0.000000
0.000000 0.250000 0.000000
0.032500 0.250000 0.000000
0.065000 0.250000 0.000000
0.097500 0.250000 0.000000
0.130000 0.250000 0.000000
0.162500 0.250000 0.000000
0.195000 0.250000 0.000000
0.227500 0.250000 0.000000
0.260000 0.250000 0.000000
0.292500 0.250000 0.000000
0.325000 0.250000 0.000000
0.357500 0.250000 0.000000
0.390000 0.250000 0.000000
0.422500 0.250000 0.000000
0.455000 0.250000 0.000000
0.487500 0.250000 0.000000
0.520000 0.250000 0.000000
0.552500 0.250000 0.000000
0.585000 0.250000 0.000000
0.617500 0.250000 0.000000
0.650000 0.250000 0.000000
0.682500 0.250000 0.000000
0.715000 0.250000 0.000000
0.747500 0.250000 0.000000
0.780000 0.250000 0.000000
0.812500 0.250000 0.000000
0.845000 0.250000 0.000000
0.877500 0.250000 0.000000
0.910000 0.250000 0.000000
0.942500 0.250000 0.000000
0.975000 0.250000 0.000000
1.000000 0.250000 0.000000
1.000000 0.250000 0.000000
0.000000 0.281250 0.000000
0.032500 0.281250 0.000000
0.065000 0.281250 0.000000
0.097500 0.281250 0.000000
0.130000 0.281250 0.000000
0.162500 0.281250 0.000000
0.195000 0.281250 0.000000
0.227500 0.281250 0.000000
0.260000 0.281250 0.000000
0.292500 0.281250 0.000000
0.325000 0.281250 0.000000
0.357500 0.281250 0.000000
0.390000 0.281250 0.000000
0.422500 0.281250 0.000000
0.455000 0.281250 0.000000
0.487500 0.281250 0.000000
0.520000 0.281250 0.000000
0.552500 0.281250 0.000000
0.585000 0.281250 0.000000
0.617500 0.281250 0.000000
0.650000 0.281250 0.000000
0.682500 0.281250 0.000000
0.715000 0.281250 0.000000
0.747500 0.281250 0.000000
0.780000 0.281250 0.000000
0.812500 0.281250 0.000000
0.845000 0.281250 0.000000
0.877500 0.281250 0.000000
0.910000 0.281250 0.000000
0.942500 0.281250 0.000000
0.975000 0.281250 0.000000
1.000000 0.281250 0.000000
1.000000 0.281250 0.000000
0.000000 0.312500 0.000000
0.032500 0.312500 0.000000
0.065000 0.312500 0.000000
0.097500 0.312500 0.000000
0.130000 0.312500 0.000000
0.162500 0.312500 0.000000
0.195000 0.312500 0.000000
0.227500 0.312500 0.000000
0.260000 0.312500 0.000000
0.292500 0.312500 0.000000
0.325000 0.312500 0.000000
0.357500 0.312500 0.000000
0.390000 0.312500 0.000000
0.422500 0.312500 0.000000
0.455000 0.312500 0.000000
0.487500 0.312500 0.000000
0.520000 0.312500 0.000000
0.552500 0.312500 0.000000
0.585000 0.312500 0.000000
0.617500 0.312500 0.000000
0.650000 0.312500 0.000000
0.682500 0.312500 0.000000
0.715000 0.312500 0.000000
0.747500 0.312500 0.000000
0.780000 0.312500 0.000000
0.812500 0.312500 0.000000
0.845000 0.312500 0.000000
0.877500 0.312500 0.000000
0.910000 0.312500 0.000000
0.942500 0.312500 0.000000
0.975000 0.312500 0.000000
1.000000 0.312500 0.000000
1.000000 0.312500 0.000000
0.000000 0.343750 0.000000
0.032500 0.343750 0.000000
0.065000 0.343750 0.000000
0.097500 0.343750 0.000000
0.130000 0.343750 0.000000
0.162500 0.343750 0.000000
0.195000 0.343750 0.000000
0.227500 0.343750 0.000000
0.260000 0.343750 0.000000
0.292500 0.343750 0.000000
0.325000 0.343750 0.000000
0.357500 0.343750 0.000000
0.390000 0.343750 0.000000
0.422500 0.343750 0.000000
0.455000 0.343750 0.000000
0.487500 0.343750 0.000000
0.520000 0.343750 0.000000
0.552500 0.343750 0.000000
0.585000 0.343750 0.000000
0.617500 0.343750 0.000000
0.650000 0.343750 0.000000
0.682500 0.343750 0.000000
0.715000 0.343750 0.000000
0.747500 0.343750 0.000000
0.780000 0.343750 0.000000
0.812500 0.343750 0.000000
0.845000 0.343750 0.000000
0.877500 0.343750 0.000000
0.910000 0.343750 0.000000
0.942500 0.343750 0.000000
0.975000 0.343750 0.000000
1.000000 0.343750 0.000000
1.000000 0.343750 0.000000
0.000000 0.375000 0.000000
0.032500 0.375000 0.000000
0.065000 0.375000 0.000000
0.097500 0.375000 0.000000
0.130000 0.375000 0.000000
0.162500 0.375000 0.000000
0.195000 0.375000 0.000000
0.227500 0.375000 0.000000
0.260000 0.375000 0.000000
0.292500 0.375000 0.000000
0.325000 0.375000 0.000000
0.357500 0.375000 0.000000
0.390000 0.375000 0.000000
0.422500 0.375000 0.000000
0.455000 0.375000 0.000000
0.487500 0.375000 0.000000
0.520000 0.375000 0.000000
0.552500 0.375000 0.000000
0.585000 0.375000 0.000000
0.617500 0.375000 0.000000
0.650000 0.375000 0.000000
0.682500 0.375000 0.000000
0.715000 0.375000 0.000000
0.747500 0.375000 0.000000
0.780000 0.375000 0.000000
0.812500 0.375000 0.000000
0.845000 0.375000 0.000000
0.877500 0.375000 0.000000
0.910000 0.375000 0.000000
0.942500 0.375000 0.000000
0.975000 0.375000 0.000000
1.000000 0.375000 0.000000
1.000000 0.375000 0.000000
0.000000 0.406250 0.000000
0.032500 0.406250 0.000000
0.065000 0.406250 0.000000
0.097500 0.406250 0.000000
0.130000 0.406250 0.000000
0.162500 0.406250 0.000000
0.195000 0.406250 0.000000
0.227500 0.406250 0.000000
0.260000 0.406250 0.000000
0.292500 0.406250 0.000000
0.325000 0.406250 0.000000
0.357500 0.406250 0.000000
0.390000 0.406250 0.000000
0.422500 0.406250 0.000000
0.455000 0.406250 0.000000
0.487500 0.406250 0.000000
0.520000 0.406250 0.000000
0.552500 0.406250 0.000000
0.585000 0.406250 0.000000
0.617500 0.406250 0.000000
0.650000 0.406250 0.000000
0.682500 0.406250 0.000000
0.715000 0.406250 0.000000
0.747500 0.406250 0.000000
0.780000 0.406250 0.000000
0.812500 0.406250 0.000000
0.845000 0.406250 0.000000
0.877500 0.406250 0.000000
0.910000 0.406250 0.000000
0.942500 0.406250 0.000000
0.975000 0.406250 0.000000
1.000000 0.406250 0.000000
1.000000 0.406250 0.000000
0.000000 0.437500 0.000000
0.032500 0.437500 0.000000
0.065000 0.437500 0.000000
0.097500 0.437500 0.000000
0.130000 0.437500 0.000000
0.162500 0.437500 0.000000
0.195000 0.437500 0.000000
0.227500 0.437500 0.000000
0.260000 0.437500 0.000000
0.292500 0.437500 0.000000
0.325000 0.437500 0.000000
0.357500 0.437500 0.000000
0.390000 0.437500 0.000000
0.422500 0.437500 0.000000
0.455000 0.437500 0.000000
0.487500 0.437500 0.000000
0.520000 0.437500 0.000000
0.552500 0.437500 0.000000
0.585000 0.437500 0.000000
0.617500 0.437500 0.000000
0.650000 0.437500 0.000000
0.682500 0.437500 0.000000
0.715000 0.437500 0.000000
0.747500 0.437500 0.000000
0.780000 0.437500 0.000000
0.812500 0.437500 0.000000
0.845000 0.437500 0.000000
0.877500 0.437500 0.000000
0.910000 0.437500 0.000000
0.942500 0.437500 0.000000
0.975000 0.437500 0.000000
1.000000 0.437500 0.000000
1.000000 0.437500 0.000000
0.000000 0.468750 0.000000
0.032500 0.468750 0.000000
0.065000 0.468750 0.000000
0.097500 0.468750 0.000000
0.130000 0.468750 0.000000
0.162500 0.468750 0.000000
0.195000 0.468750 0.000000
0.227500 0.468750 0.000000
0.260000 0.468750 0.000000
0.292500 0.468750 0.000000
0.325000 0.468750 0.000000
0.357500 0.468750 0.000000
0.390000 0.468750 0.000000
0.422500 0.468750 0.000000
0.455000 0.468750 0.000000
0.487500 0.468750 0.000000
0.520000 0.468750 0.000000
0.552500 0.468750 0.000000
0.585000 0.468750 0.000000
0.617500 0.468750 0.000000
0.650000 0.468750 0.000000
0.682500 0.468750 0.000000
0.715000 0.468750 0.000000
0.747500 0.468750 0.000000
0.780000 0.468750 0.000000
0.812500 0.468750 0.000000
0.845000 0.468750 0.000000
0.877500 0.468750 0.000000
0.910000 0.468750 0.000000
0.942500 0.468750 0.000000
0.975000 0.468750 0.000000
1.000000 0.468750 0.000000
1.000000 0.468750 0.000000
0.000000 0.500000 0.000000
0.032500 0.500000 0.000000
0.065000 0.500000 0.000000
0.097500 0.500000 0.000000
0.130000 0.500000 0.000000
0.162500 0.500000 0.000000
0.195000 0.500000 0.000000
0.227500 0.500000 0.000000
0.260000 0.500000 0.000000
0.292500 0.500000 0.000000
0.325000 0.500000 0.000000
0.357500 0.500000 0.000000
0.390000 0.500000 0.000000
0.422500 0.500000 0.000000
0.455000 0.500000 0.000000
0.487500 0.500000 0.000000
0.520000 0.500000 0.000000
0.552500 0.500000 0.000000
0.585000 0.500000 0.000000
0.617500 0.500000 0.000000
0.650000 0.500000 0.000000
0.682500 0.500000 0.000000
0.715000 0.500000 0.000000
0.747500 0.500000 0.000000
0.780000 0.500000 0.000000
0.812500 0.500000 0.000000
0.845000 0.500000 0.000000
0.877500 0.500000 0.000000
0.910000 0.500000 0.000000
0.942500 0.500000 0.000000
0.975000 0.500000 0.000000
1.000000 0.500000 0.000000
1.000000 0.500000 0.000000
0.000000 0.531250 0.000000
0.032500 0.531250 0.000000
0.065000 0.531250 0.000000
0.097500 0.531250 0.000000
0.130000 0.531250 0.000000
0.162500 0.531250 0.000000
0.195000 0.531250 0.000000
0.227500 0.531250 0.000000
0.260000 0.531250 0.000000
0.292500 0.531250 0.000000
0.325000 0.531250 0.000000
0.357500 0.531250 0.000000
0.390000 0.531250 0.000000
0.422500 0.531250 0.000000
0.455000 0.531250 0.000000
0.487500 0.531250 0.000000
0.520000 0.531250 0.000000
0.552500 0.531250 0.000000
0.585000 0.531250 0.000000
0.617500 0.531250 0.000000
0.650000 0.531250 0.000000
0.682500 0.531250 0.000000
0.715000 0.531250 0.000000
0.747500 0.531250 0.000000
0.780000 0.531250 0.000000
0.812500 0.531250 0.000000
0.845000 0.531250 0.000000
0.877500 0.531250 0.000000
0.910000 0.531250 0.000000
0.942500 0.531250 0.000000
0.975000 0.531250 0.000000
1.000000 0.531250 0.000000
1.000000 0.531250 0.000000
0.000000 0.562500 0.000000
0.032500 0.562500 0.000000
0.065000 0.562500 0.000000
0.097500 0.562500 0.000000
0.130000 0.562500 0.000000
0.162500 0.562500 0.000000
0.195000 0.562500 0.000000
0.227500 0.562500 0.000000
0.260000 0.562500 0.000000
0.292500 0.562500 0.000000
0.325000 0.562500 0.000000
0.357500 0.562500 0.000000
0.390000 0.562500 0.000000
0.422500 0.562500 0.000000
0.455000 0.562500 0.000000
0.487500 0.562500 0.000000
0.520000 0.562500 0.000000
0.552500 0.562500 0.000000
0.585000 0.562500 0.000000
0.617500 0.562500 0.000000
0.650000 0.562500 0.000000
0.682500 0.562500 0.000000
0.715000 0.562500 0.000000
0.747500 0.562500 0.000000
0.780000 0.562500 0.000000
0.812500 0.562500 0.000000
0.845000 0.562500 0.000000
0.877500 0.562500 0.000000
0.910000 0.562500 0.000000
0.942500 0.562500 0.000000
0.975000 0.562500 0.000000
1.000000 0.562500 0.000000
1.000000 0.562500 0.000000
0.000000 0.593750 0.000000
0.032500 0.593750 0.000000
0.065000 0.593750 0.000000
0.097500 0.593750 0.000000
0.130000 0.593750 0.000000
0.162500 0.593750 0.000000
0.195000 0.593750 0.000000
0.227500 0.593750 0.000000
0.260000 0.593750 0.000000
0.292500 0.593750 0.000000
0.325000 0.593750 0.000000
0.357500 0.593750 0.000000
0.390000 0.593750 0.000000
0.422500 0.593750 0.000000
0.455000 0.593750 0.000000
0.487500 0.593750 0.000000
0.520000 0.593750 0.000000
0.552500 0.593750 0.000000
0.585000 0.593750 0.000000
0.617500 0.593750 0.000000
0.650000 0.593750 0.000000
0.682500 0.593750 0.000000
0.715000 0.593750 0.000000
0.747500 0.593750 0.000000
0.780000 0.593750 0.000000
0.812500 0.593750 0.000000
0.845000 0.593750 0.000000
0.877500 0.593750 0.000000
0.910000 0.593750 0.000000
0.942500 0.593750 0.000000
0.975000 0.593750 0.000000
1.000000 0.593750 0.000000
1.000000 0.593750 0.000000
0.000000 0.625000 0.000000
0.032500 0.625000 0.000000
0.065000 0.625000 0.000000
0.097500 0.625000 0.000000
0.130000 0.625000 0.000000
0.162500 0.625000 0.000000
0.195000 0.625000 0.000000
0.227500 0.625000 0.000000
0.260000 0.625000 0.000000
0.292500 0.625000 0.000000
0.325000 0.625000 0.000000
0.357500 0.625000 0.000000
0.390000 0.625000 0.000000
0.422500 0.625000 0.000000
0.455000 0.625000 0.000000
0.487500 0.625000 0.000000
0.520000 0.625000 0.000000
0.552500 0.625000 0.000000
0.585000 0.625000 0.000000
0.617500 0.625000 0.000000
0.650000 0.625000 0.000000
0.682500 0.625000 0.000000
0.715000 0.625000 0.000000
0.747500 0.625000 0.000000
0.780000 0.625000 0.000000
0.812500 0.625000 0.000000
0.845000 0.625000 0.000000
0.877500 0.625000 0.000000
0.910000 0.625000 0.000000
0.942500 0.625000 0.000000
0.975000 0.625000 0.000000
1.000000 0.625000 0.000000
1.000000 0.625000 0.000000
0.000000 0.656250 0.000000
0.032500 0.656250 0.000000
0.065000 0.656250 0.000000
0.097500 0.656250 0.000000
0.130000 0.656250 0.000000
0.162500 0.656250 0.000000
0.195000 0.656250 0.000000
0.227500 0.656250 0.000000
0.260000 0.656250 0.000000
0.292500 0.656250 0.000000
0.325000 0.656250 0.000000
0.357500 0.656250 0.000000
0.390000 0.656250 0.000000
0.422500 0.656250 0.000000
0.455000 0.656250 0.000000
0.487500 0.656250 0.000000
0.520000 0.656250 0.000000
0.552500 0.656250 0.000000
0.585000 0.656250 0.000000
0.617500 0.656250 0.000000
0.650000 0.656250 0.000000
0.682500 0.656250 0.000000
0.715000 0.656250 0.000000
0.747500 0.656250 0.000000
0.780000 0.656250 0.000000
0.812500 0.656250 0.000000
0.845000 0.656250 0.000000
0.877500 0.656250 0.000000
0.910000 0.656250 0.000000
0.942500 0.656250 0.000000
0.975000 0.656250 0.000000
1.000000 0.656250 0.000000
1.000000 0.656250 0.000000
0.000000 0.687500 0.000000
0.032500 0.687500 0.000000
0.065000 0.687500 0.000000
0.097500 0.687500 0.000000
0.130000 0.687500 0.000000
0.162500 0.687500 0.000000
0.195000 0.687500 0.000000
0.227500 0.687500 0.000000
0.260000 0.687500 0.000000
0.292500 0.687500 0.000000
0.325000 0.687500 0.000000
0.357500 0.687500 0.000000
0.390000 0.687500 0.000000
0.422500 0.687500 0.000000
0.455000 0.687500 0.000000
0.487500 0.687500 0.000000
0.520000 0.687500 0.000000
0.552500 0.687500 0.000000
0.585000 0.687500 0.000000
0.617500 0.687500 0.000000
0.650000 0.687500 0.000000
0.682500 0.687500 0.000000
0.715000 0.687500 0.000000
0.747500 0.687500 0.000000
0.780000 0.687500 0.000000
0.812500 0.687500 0.000000
0.845000 0.687500 0.000000
0.877500 0.687500 0.000000
0.910000 0.687500 0.000000
0.942500 0.687500 0.000000
0.975000 0.687500 0.000000
1.000000 0.687500 0.000000
1.000000 0.687500 0.000000
0.000000 0.718750 0.000000
0.032500 0.718750 0.000000
0.065000 0.718750 0.000000
0.097500 0.718750 0.000000
0.130000 0.718750 0.000000
0.162500 0.718750 0.000000
0.195000 0.718750 0.000000
0.227500 0.718750 0.000000
0.260000 0.718750 0.000000
0.292500 0.718750 0.000000
0.325000 0.718750 0.000000
0.357500 0.718750 0.000000
0.390000 0.718750 0.000000
0.422500 0.718750 0.000000
0.455000 0.718750 0.000000
0.487500 0.718750 0.000000
0.520000 0.718750 0.000000
0.552500 0.718750 0.000000
0.585000 0.718750 0.000000
0.617500 0.718750 0.000000
0.650000 0.718750 0.000000
0.682500 0.718750 0.000000
0.715000 0.718750 0.000000
0.747500 0.718750 0.000000
0.780000 0.718750 0.000000
0.812500 0.718750 0.000000
0.845000 0.718750 0.000000
0.877500 0.718750 0.000000
0.910000 0.718750 0.000000
0.942500 0.718750 0.000000
0.975000 0.718750 0.000000
1.000000 0.718750 0.000000
1.000000 0.718750 0.000000
0.000000 0.750000 0.000000
0.032500 0.750000 0.000000
0.065000 0.750000 0.000000
0.097500 0.750000 0.000000
0.130000 0.750000 0.000000
0.162500 0.750000 0.000000
0.195000 0.750000 0.000000
0.227500 0.750000 0.000000
0.260000 0.750000 0.000000
0.292500 0.750000 0.000000
0.325000 0.750000 0.000000
0.357500 0.750000 0.000000
0.390000 0.750000 0.000000
0.422500 0.750000 0.000000
0.455000 0.750000 0.000000
0.487500 0.750000 0.000000
0.520000 0.750000 0.000000
0.552500 0.750000 0.000000
0.585000 0.750000 0.000000
0.617500 0.750000 0.000000
0.650000 0.750000 0.000000
0.682500 0.750000 0.000000
0.715000 0.750000 0.000000
0.747500 0.750000 0.000000
0.780000 0.750000 0.000000
0.812500 0.750000 0.000000
0.845000 0.750000 0.000000
0.877500 0.750000 0.000000
0.910000 0.750000 0.000000
0.942500 0.750000 0.000000
0.975000 0.750000 0.000000
1.000000 0.750000 0.000000
1.000000 0.750000 0.000000
0.000000 0.781250 0.000000
0.032500 0.781250 0.000000
0.065000 0.781250 0.000000
0.097500 0.781250 0.000000
0.130000 0.781250 0.000000
0.162500 0.781250 0.000000
0.195000 0.781250 0.000000
0.227500 0.781250 0.000000
0.260000 0.781250 0.000000
0.292500 0.781250 0.000000
0.325000 0.781250 0.000000
0.357500 0.781250 0.000000
0.390000 0.781250 0.000000
0.422500 0.781250 0.000000
0.455000 0.781250 0.000000
0.487500 0.781250 0.000000
0.520000 0.781250 0.000000
0.552500 0.781250 0.000000
0.585000 0.781250 0.000000
0.617500 0.781250 0.000000
0.650000 0.781250 0.000000
0.682500 0.781250 0.000000
0.715000 0.781250 0.000000
0.747500 0.781250 0.000000
0.780000 0.781250 0.000000
0.812500 0.781250 0.000000
0.845000 0.781250 0.000000
0.877500 0.781250 0.000000
0.910000 0.781250 0.000000
0.942500 0.781250 0.000000
0.975000 0.781250 0.000000
1.000000 0.781250 0.000000
1.000000 0.781250 0.000000
0.000000 0.812500 0.000000
0.032500 0.812500 0.000000
0.065000 0.812500 0.000000
0.097500 0.812500 0.000000
0.130000 0.812500 0.000000
0.162500 0.812500 0.000000
0.195000 0.812500 0.000000
0.227500 0.812500 0.000000
0.260000 0.812500 0.000000
0.292500 0.812500 0.000000
0.325000 0.812500 0.000000
0.357500 0.812500 0.000000
0.390000 0.812500 0.000000
0.422500 0.812500 0.000000
0.455000 0.812500 0.000000
0.487500 0.812500 0.000000
0.520000 0.812500 0.000000
0.552500 0.812500 0.000000
0.585000 0.812500 0.000000
0.617500 0.812500 0.000000
0.650000 0.812500 0.000000
0.682500 0.812500 0.000000
0.715000 0.812500 0.000000
0.747500 0.812500 0.000000
0.780000 0.812500 0.000000
0.812500 0.812500 0.000000
0.845000 0.812500 0.000000
