correction_luts/warm_shift_50.cube
# Subtle warm shift via RGB rebalance
# Strength: 0.5
# Color model: linear-light tone (v2)
TITLE "Warm Shift - Add Warmth"
LUT_3D_SIZE 9
0.000000 0.000000 0.000000
0.127500 0.000000 0.000000
0.255000 0.000000 0.000000
0.382500 0.000000 0.000000
0.510000 0.000000 0.000000
0.637500 0.000000 0.000000
0.765000 0.000000 0.000000
0.892500 0.000000 0.000000
1.000000 0.000000 0.000000
0.000000 0.125000 0.000000
0.127500 0.125000 0.000000
0.255000 0.125000 0.000000
0.382500 0.125000 0.000000
0.510000 0.125000 0.000000
0.637500 0.125000 0.000000
0.765000 0.125000 0.000000
0.892500 0.125000 0.000000
1.000000 0.125000 0.000000
0.000000 0.250000 0.000000
0.127500 0.250000 0.000000
0.255000 0.250000 0.000000
0.382500 0.250000 0.000000
0.510000 0.250000 0.000000
0.637500 0.250000 0.000000
0.765000 0.250000 0.000000
0.892500 0.250000 0.000000
1.000000 0.250000 0.000000
0.000000 0.375000 0.000000
0.127500 0.375000 0.000000
0.255000 0.375000 0.000000
0.382500 0.375000 0.000000
0.510000 0.375000 0.000000
0.637500 0.375000 0.000000
0.765000 0.375000 0.000000
0.892500 0.375000 0.000000
1.000000 0.375000 0.000000
0.000000 0.500000 0.000000
0.127500 0.500000 0.000000
0.255000 0.500000 0.000000
0.382500 0.500000 0.000000
0.510000 0.500000 0.000000
0.637500 0.500000 0.000000
0.765000 0.500000 0.000000
0.892500 0.500000 0.000000
1.000000 0.500000 0.000000
0.000000 0.625000 0.000000
0.127500 0.625000 0.000000
0.255000 0.625000 0.000000
0.382500 0.625000 0.000000
0.510000 0.625000 0.000000
0.637500 0.625000 0.000000
0.765000 0.625000 0.000000
0.892500 0.625000 0.000000
1.000000 0.625000 0.000000
0.000000 0.750000 0.000000
0.127500 0.750000 0.000000
0.255000 0.750000 0.000000
0.382500 0.750000 0.000000
0.510000 0.750000 0.000000
0.637500 0.750000 0.000000
0.765000 0.750000 0.000000
0.892500 0.750000 0.000000
1.000000 0.750000 0.000000
0.000000 0.875000 0.000000
0.127500 0.875000 0.000000
0.255000 0.875000 0.000000
0.382500 0.875000 0.000000
0.510000 0.875000 0.000000
0.637500 0.875000 0.000000
0.765000 0.875000 0.000000
0.892500 0.875000 0.000000
1.000000 0.875000 0.000000
0.000000 1.000000 0.000000
0.127500 1.000000 0.000000
0.255000 1.000000 0.000000
0.382500 1.000000 0.000000
0.510000 1.000000 0.000000
0.637500 1.000000 0.000000
0.765000 1.000000 0.000000
0.892500 1.000000 0.000000
1.000000 1.000000 0.000000
0.000000 0.000000 0.121875
0.127500 0.000000 0.121875
0.255000 0.000000 0.121875
0.382500 0.000000 0.121875
0.510000 0.000000 0.121875
0.637500 0.000000 0.121875
0.765000 0.000000 0.121875
0.892500 0.000000 0.121875
1.000000 0.000000 0.121875
0.000000 0.125000 0.121875
0.127500 0.125000 0.121875
0.255000 0.125000 0.121875
0.382500 0.125000 0.121875
0.510000 0.125000 0.121875
0.637500 0.125000 0.121875
0.765000 0.125000 0.121875
0.892500 0.125000 0.121875
1.000000 0.125000 0.121875
0.000000 0.250000 0.121875
0.127500 0.250000 0.121875
0.255000 0.250000 0.121875
0.382500 0.250000 0.121875
0.510000 0.250000 0.121875
0.637500 0.250000 0.121875
0.765000 0.250000 0.121875
0.892500 0.250000 0.121875
1.000000 0.250000 0.121875
0.000000 0.375000 0.121875
0.127500 0.375000 0.121875
0.255000 0.375000 0.121875
0.382500 0.375000 0.121875
0.510000 0.375000 0.121875
0.637500 0.375000 0.121875
0.765000 0.375000 0.121875
0.892500 0.375000 0.121875
1.000000 0.375000 0.121875
0.000000 0.500000 0.121875
0.127500 0.500000 0.121875
0.255000 0.500000 0.121875
0.382500 0.500000 0.121875
0.510000 0.500000 0.121875
0.637500 0.500000 0.121875
0.765000 0.500000 0.121875
0.892500 0.500000 0.121875
1.000000 0.500000 0.121875
0.000000 0.625000 0.121875
0.127500 0.625000 0.121875
0.255000 0.625000 0.121875
0.382500 0.625000 0.121875
0.510000 0.625000 0.121875
0.637500 0.625000 0.121875
0.765000 0.625000 0.121875
0.892500 0.625000 0.121875
1.000000 0.625000 0.121875
0.000000 0.750000 0.121875
0.127500 0.750000 0.121875
0.255000 0.750000 0.121875
0.382500 0.750000 0.121875
0.510000 0.750000 0.121875
0.637500 0.750000 0.121875
0.765000 0.750000 0.121875
0.892500 0.750000 0.121875
1.000000 0.750000 0.121875
0.000000 0.875000 0.121875
0.127500 0.875000 0.121875
0.255000 0.875000 0.121875
0.382500 0.875000 0.121875
0.510000 0.875000 0.121875
0.637500 0.875000 0.121875
0.765000 0.875000 0.121875
0.892500 0.875000 0.121875
1.000000 0.875000 0.121875
0.000000 1.000000 0.121875
0.127500 1.000000 0.121875
0.255000 1.000000 0.121875
0.382500 1.000000 0.121875
0.510000 1.000000 0.121875
0.637500 1.000000 0.121875
0.765000 1.000000 0.121875
0.892500 1.000000 0.121875
1.000000 1.000000 0.121875
0.000000 0.000000 0.243750
0.127500 0.000000 0.243750
0.255000 0.000000 0.243750
0.382500 0.000000 0.243750
0.510000 0.000000 0.243750
0.637500 0.000000 0.243750
0.765000 0.000000 0.243750
0.892500 0.000000 0.243750
1.000000 0.000000 0.243750
0.000000 0.125000 0.243750
0.127500 0.125000 0.243750
0.255000 0.125000 0.243750
0.382500 0.125000 0.243750
0.510000 0.125000 0.243750
0.637500 0.125000 0.243750
0.765000 0.125000 0.243750
0.892500 0.125000 0.243750
1.000000 0.125000 0.243750
0.000000 0.250000 0.243750
0.127500 0.250000 0.243750
0.255000 0.250000 0.243750
0.382500 0.250000 0.243750
0.510000 0.250000 0.243750
0.637500 0.250000 0.243750
0.765000 0.250000 0.243750
0.892500 0.250000 0.243750
1.000000 0.250000 0.243750
0.000000 0.375000 0.243750
0.127500 0.375000 0.243750
0.255000 0.375000 0.243750
0.382500 0.375000 0.243750
0.510000 0.375000 0.243750
0.637500 0.375000 0.243750
0.765000 0.375000 0.243750
0.892500 0.375000 0.243750
1.000000 0.375000 0.243750
0.000000 0.500000 0.243750
0.127500 0.500000 0.243750
0.255000 0.500000 0.243750
0.382500 0.500000 0.243750
0.510000 0.500000 0.243750
0.637500 0.500000 0.243750
0.765000 0.500000 0.243750
0.892500 0.500000 0.243750
1.000000 0.500000 0.243750
0.000000 0.625000 0.243750
0.127500 0.625000 0.243750
0.255000 0.625000 0.243750
0.382500 0.625000 0.243750
0.510000 0.625000 0.243750
0.637500 0.625000 0.243750
0.765000 0.625000 0.243750
0.892500 0.625000 0.243750
1.000000 0.625000 0.243750
0.000000 0.750000 0.243750
0.127500 0.750000 0.243750
0.255000 0.750000 0.243750
0.382500 0.750000 0.243750
0.510000 0.750000 0.243750
0.637500 0.750000 0.243750
0.765000 0.750000 0.243750
0.892500 0.750000 0.243750
1.000000 0.750000 0.243750
0.000000 0.875000 0.243750
0.127500 0.875000 0.243750
0.255000 0.875000 0.243750
0.382500 0.875000 0.243750
0.510000 0.875000 0.243750
0.637500 0.875000 0.243750
0.765000 0.875000 0.243750
0.892500 0.875000 0.243750
1.000000 0.875000 0.243750
0.000000 1.000000 0.243750
0.127500 1.000000 0.243750
0.255000 1.000000 0.243750
0.382500 1.000000 0.243750
0.510000 1.000000 0.243750
0.637500 1.000000 0.243750
0.765000 1.000000 0.243750
0.892500 1.000000 0.243750
1.000000 1.000000 0.243750
0.000000 0.000000 0.365625
0.127500 0.000000 0.365625
0.255000 0.000000 0.365625
0.382500 0.000000 0.365625
0.510000 0.000000 0.365625
0.637500 0.000000 0.365625
0.765000 0.000000 0.365625
0.892500 0.000000 0.365625
1.000000 0.000000 0.365625
0.000000 0.125000 0.365625
0.127500 0.125000 0.365625
0.255000 0.125000 0.365625
0.382500 0.125000 0.365625
0.510000 0.125000 0.365625
0.637500 0.125000 0.365625
0.765000 0.125000 0.365625
0.892500 0.125000 0.365625
1.000000 0.125000 0.365625
0.000000 0.250000 0.365625
0.127500 0.250000 0.365625
0.255000 0.250000 0.365625
0.382500 0.250000 0.365625
0.510000 0.250000 0.365625
0.637500 0.250000 0.365625
0.765000 0.250000 0.365625
0.892500 0.250000 0.365625
1.000000 0.250000 0.365625
0.000000 0.375000 0.365625
0.127500 0.375000 0.365625
0.255000 0.375000 0.365625
0.382500 0.375000 0.365625
0.510000 0.375000 0.365625
0.637500 0.375000 0.365625
0.765000 0.375000 0.365625
0.892500 0.375000 0.365625
1.000000 0.375000 0.365625
0.000000 0.500000 0.365625
0.127500 0.500000 0.365625
0.255000 0.500000 0.365625
0.382500 0.500000 0.365625
0.510000 0.500000 0.365625
0.637500 0.500000 0.365625
0.765000 0.500000 0.365625
0.892500 0.500000 0.365625
1.000000 0.500000 0.365625
0.000000 0.625000 0.365625
0.127500 0.625000 0.365625
0.255000 0.625000 0.365625
0.382500 0.625000 0.365625
0.510000 0.625000 0.365625
0.637500 0.625000 0.365625
0.765000 0.625000 0.365625
0.892500 0.625000 0.365625
1.000000 0.625000 0.365625
0.000000 0.750000 0.365625
0.127500 0.750000 0.365625
0.255000 0.750000 0.365625
0.382500 0.750000 0.365625
0.510000 0.750000 0.365625
0.637500 0.750000 0.365625
0.765000 0.750000 0.365625
0.892500 0.750000 0.365625
1.000000 0.750000 0.365625
0.000000 0.875000 0.365625
0.127500 0.875000 0.365625
0.255000 0.875000 0.365625
0.382500 0.875000 0.365625
0.510000 0.875000 0.365625
0.637500 0.875000 0.365625
0.765000 0.875000 0.365625
0.892500 0.875000 0.365625
1.000000 0.875000 0.365625
0.000000 1.000000 0.365625
0.127500 1.000000 0.365625
0.255000 1.000000 0.365625
0.382500 1.000000 0.365625
0.510000 1.000000 0.365625
0.637500 1.000000 0.365625
0.765000 1.000000 0.365625
0.892500 1.000000 0.365625
1.000000 1.000000 0.365625
0.000000 0.000000 0.487500
0.127500 0.000000 0.487500
0.255000 0.000000 0.487500
0.382500 0.000000 0.487500
0.510000 0.000000 0.487500
0.637500 0.000000 0.487500
0.765000 0.000000 0.487500
0.892500 0.000000 0.487500
1.000000 0.000000 0.487500
0.000000 0.125000 0.487500
0.127500 0.125000 0.487500
0.255000 0.125000 0.487500
0.382500 0.125000 0.487500
0.510000 0.125000 0.487500
0.637500 0.125000 0.487500
0.765000 0.125000 0.487500
0.892500 0.125000 0.487500
1.000000 0.125000 0.487500
0.000000 0.250000 0.487500
0.127500 0.250000 0.487500
0.255000 0.250000 0.487500
0.382500 0.250000 0.487500
0.510000 0.250000 0.487500
0.637500 0.250000 0.487500
0.765000 0.250000 0.487500
0.892500 0.250000 0.487500
1.000000 0.250000 0.487500
0.000000 0.375000 0.487500
0.127500 0.375000 0.487500
0.255000 0.375000 0.487500
0.382500 0.375000 0.487500
0.510000 0.375000 0.487500
0.637500 0.375000 0.487500
0.765000 0.375000 0.487500
0.892500 0.375000 0.487500
1.000000 0.375000 0.487500
0.000000 0.500000 0.487500
0.127500 0.500000 0.487500
0.255000 0.500000 0.487500
0.382500 0.500000 0.487500
0.510000 0.500000 0.487500
0.637500 0.500000 0.487500
0.765000 0.500000 0.487500
0.892500 0.500000 0.487500
1.000000 0.500000 0.487500
0.000000 0.625000 0.487500
0.127500 0.625000 0.487500
0.255000 0.625000 0.487500
0.382500 0.625000 0.487500
0.510000 0.625000 0.487500
0.637500 0.625000 0.487500
0.765000 0.625000 0.487500
0.892500 0.625000 0.487500
1.000000 0.625000 0.487500
0.000000 0.750000 0.487500
0.127500 0.750000 0.487500
0.255000 0.750000 0.487500
0.382500 0.750000 0.487500
0.510000 0.750000 0.487500
0.637500 0.750000 0.487500
0.765000 0.750000 0.487500
0.892500 0.750000 0.487500
1.000000 0.750000 0.487500
0.000000 0.875000 0.487500
0.127500 0.875000 0.487500
0.255000 0.875000 0.487500
0.382500 0.875000 0.487500
0.510000 0.875000 0.487500
0.637500 0.875000 0.487500
0.765000 0.875000 0.487500
0.892500 0.875000 0.487500
1.000000 0.875000 0.487500
0.000000 1.000000 0.487500
0.127500 1.000000 0.487500
0.255000 1.000000 0.487500
0.382500 1.000000 0.487500
0.510000 1.000000 0.487500
0.637500 1.000000 0.487500
0.765000 1.000000 0.487500
0.892500 1.000000 0.487500
1.000000 1.000000 0.487500
0.000000 0.000000 0.609375
0.127500 0.000000 0.609375
0.255000 0.000000 0.609375
0.382500 0.000000 0.609375
0.510000 0.000000 0.609375
0.637500 0.000000 0.609375
0.765000 0.000000 0.609375
0.892500 0.000000 0.609375
1.000000 0.000000 0.609375
0.000000 0.125000 0.609375
0.127500 0.125000 0.609375
0.255000 0.125000 0.609375
0.382500 0.125000 0.609375
0.510000 0.125000 0.609375
0.637500 0.125000 0.609375
0.765000 0.125000 0.609375
0.892500 0.125000 0.609375
1.000000 0.125000 0.609375
0.000000 0.250000 0.609375
0.127500 0.250000 0.609375
0.255000 0.250000 0.609375
0.382500 0.250000 0.609375
0.510000 0.250000 0.609375
0.637500 0.250000 0.609375
0.765000 0.250000 0.609375
0.892500 0.250000 0.609375
1.000000 0.250000 0.609375
0.000000 0.375000 0.609375
0.127500 0.375000 0.609375
0.255000 0.375000 0.609375
0.382500 0.375000 0.609375
0.510000 0.375000 0.609375
0.637500 0.375000 0.609375
0.765000 0.375000 0.609375
0.892500 0.375000 0.609375
1.000000 0.375000 0.609375
0.000000 0.500000 0.609375
0.127500 0.500000 0.609375
0.255000 0.500000 0.609375
0.382500 0.500000 0.609375
0.510000 0.500000 0.609375
0.637500 0.500000 0.609375
0.765000 0.500000 0.609375
0.892500 0.500000 0.609375
1.000000 0.500000 0.609375
0.000000 0.625000 0.609375
0.127500 0.625000 0.609375
0.255000 0.625000 0.609375
0.382500 0.625000 0.609375
0.510000 0.625000 0.609375
0.637500 0.625000 0.609375
0.765000 0.625000 0.609375
0.892500 0.625000 0.609375
1.000000 0.625000 0.609375
0.000000 0.750000 0.609375
0.127500 0.750000 0.609375
0.255000 0.750000 0.609375
0.382500 0.750000 0.609375
0.510000 0.750000 0.609375
0.637500 0.750000 0.609375
0.765000 0.750000 0.609375
0.892500 0.750000 0.609375
1.000000 0.750000 0.609375
0.000000 0.875000 0.609375
0.127500 0.875000 0.609375
0.255000 0.875000 0.609375
0.382500 0.875000 0.609375
0.510000 0.875000 0.609375
0.637500 0.875000 0.609375
0.765000 0.875000 0.609375
0.892500 0.875000 0.609375
1.000000 0.875000 0.609375
0.000000 1.000000 0.609375
0.127500 1.000000 0.609375
0.255000 1.000000 0.609375
0.382500 1.000000 0.609375
0.510000 1.000000 0.609375
0.637500 1.000000 0.609375
0.765000 1.000000 0.609375
0.892500 1.000000 0.609375
1.000000 1.000000 0.609375
0.000000 0.000000 0.731250
0.127500 0.000000 0.731250
0.255000 0.000000 0.731250
0.382500 0.000000 0.731250
0.510000 0.000000 0.731250
0.637500 0.000000 0.731250
0.765000 0.000000 0.731250
0.892500 0.000000 0.731250
1.000000 0.000000 0.731250
0.000000 0.125000 0.731250
0.127500 0.125000 0.731250
0.255000 0.125000 0.731250
0.382500 0.125000 0.731250
0.510000 0.125000 0.731250
0.637500 0.125000 0.731250
0.765000 0.125000 0.731250
0.892500 0.125000 0.731250
1.000000 0.125000 0.731250
0.000000 0.250000 0.731250
0.127500 0.250000 0.731250
0.255000 0.250000 0.731250
0.382500 0.250000 0.731250
0.510000 0.250000 0.731250
0.637500 0.250000 0.731250
0.765000 0.250000 0.731250
0.892500 0.250000 0.731250
1.000000 0.250000 0.731250
0.000000 0.375000 0.731250
0.127500 0.375000 0.731250
0.255000 0.375000 0.731250
0.382500 0.375000 0.731250
0.510000 0.375000 0.731250
0.637500 0.375000 0.731250
0.765000 0.375000 0.731250
0.892500 0.375000 0.731250
1.000000 0.375000 0.731250
0.000000 0.500000 0.731250
0.127500 0.500000 0.731250
0.255000 0.500000 0.731250
0.382500 0.500000 0.731250
0.510000 0.500000 0.731250
0.637500 0.500000 0.731250
0.765000 0.500000 0.731250
0.892500 0.500000 0.731250
1.000000 0.500000 0.731250
0.000000 0.625000 0.731250
0.127500 0.625000 0.731250
0.255000 0.625000 0.731250
0.382500 0.625000 0.731250
0.510000 0.625000 0.731250
0.637500 0.625000 0.731250
0.765000 0.625000 0.731250
0.892500 0.625000 0.731250
1.000000 0.625000 0.731250
0.000000 0.750000 0.731250
0.127500 0.750000 0.731250
0.255000 0.750000 0.731250
0.382500 0.750000 0.731250
0.510000 0.750000 0.731250
0.637500 0.750000 0.731250
0.765000 0.750000 0.731250
0.892500 0.750000 0.731250
1.000000 0.750000 0.731250
0.000000 0.875000 0.731250
0.127500 0.875000 0.731250
0.255000 0.875000 0.731250
0.382500 0.875000 0.731250
0.510000 0.875000 0.731250
0.637500 0.875000 0.731250
0.765000 0.875000 0.731250
0.892500 0.875000 0.731250
1.000000 0.875000 0.731250
0.000000 1.000000 0.731250
0.127500 1.000000 0.731250
0.255000 1.000000 0.731250
0.382500 1.000000 0.731250
0.510000 1.000000 0.731250
0.637500 1.000000 0.731250
0.765000 1.000000 0.731250
0.892500 1.000000 0.731250
1.000000 1.000000 0.731250
0.000000 0.000000 0.853125
0.127500 0.000000 0.853125
0.255000 0.000000 0.853125
0.382500 0.000000 0.853125
0.510000 0.000000 0.853125
0.637500 0.000000 0.853125
0.765000 0.000000 0.853125
0.892500 0.000000 0.853125
1.000000 0.000000 0.853125
0.000000 0.125000 0.853125
0.127500 0.125000 0.853125
0.255000 0.125000 0.853125
0.382500 0.125000 0.853125
0.510000 0.125000 0.853125
0.637500 0.125000 0.853125
0.765000 0.125000 0.853125
0.892500 0.125000 0.853125
1.000000 0.125000 0.853125
0.000000 0.250000 0.853125
0.127500 0.250000 0.853125
0.255000 0.250000 0.853125
0.382500 0.250000 0.853125
0.510000 0.250000 0.853125
0.637500 0.250000 0.853125
0.765000 0.250000 0.853125
0.892500 0.250000 0.853125
1.000000 0.250000 0.853125
0.000000 0.375000 0.853125
0.127500 0.375000 0.853125
0.255000 0.375000 0.853125
0.382500 0.375000 0.853125
0.510000 0.375000 0.853125
0.637500 0.375000 0.853125
0.765000 0.375000 0.853125
0.892500 0.375000 0.853125
1.000000 0.375000 0.853125
0.000000 0.500000 0.853125
0.127500 0.500000 0.853125
0.255000 0.500000 0.853125
0.382500 0.500000 0.853125
0.510000 0.500000 0.853125
0.637500 0.500000 0.853125
0.765000 0.500000 0.853125
0.892500 0.500000 0.853125
1.000000 0.500000 0.853125
0.000000 0.625000 0.853125
0.127500 0.625000 0.853125
0.255000 0.625000 0.853125
0.382500 0.625000 0.853125
0.510000 0.625000 0.853125
0.637500 0.625000 0.853125
0.765000 0.625000 0.853125
0.892500 0.625000 0.853125
1.000000 0.625000 0.853125
0.000000 0.750000 0.853125
0.127500 0.750000 0.853125
0.255000 0.750000 0.853125
0.382500 0.750000 0.853125
0.510000 0.750000 0.853125
0.637500 0.750000 0.853125
0.765000 0.750000 0.853125
0.892500 0.750000 0.853125
1.000000 0.750000 0.853125
0.000000 0.875000 0.853125
0.127500 0.875000 0.853125
0.255000 0.875000 0.853125
0.382500 0.875000 0.853125
0.510000 0.875000 0.853125
0.637500 0.875000 0.853125
0.765000 0.875000 0.853125
0.892500 0.875000 0.853125
1.000000 0.875000 0.853125
0.000000 1.000000 0.853125
0.127500 1.000000 0.853125
0.255000 1.000000 0.853125
0.382500 1.000000 0.853125
0.510000 1.000000 0.853125
0.637500 1.000000 0.853125
0.765000 1.000000 0.853125
0.892500 1.000000 0.853125
1.000000 1.000000 0.853125
0.000000 0.000000 0.975000
0.127500 0.000000 0.975000
0.255000 0.000000 0.975000
0.382500 0.000000 0.975000
0.510000 0.000000 0.975000
0.637500 0.000000 0.975000
0.765000 0.000000 0.975000
0.892500 0.000000 0.975000
1.000000 0.000000 0.975000
0.000000 0.125000 0.975000
0.127500 0.125000 0.975000
0.255000 0.125000 0.975000
0.382500 0.125000 0.975000
0.510000 0.125000 0.975000
0.637500 0.125000 0.975000
0.765000 0.125000 0.975000
0.892500 0.125000 0.975000
1.000000 0.125000 0.975000
0.000000 0.250000 0.975000
0.127500 0.250000 0.975000
0.255000 0.250000 0.975000
0.382500 0.250000 0.975000
0.510000 0.250000 0.975000
0.637500 0.250000 0.975000
0.765000 0.250000 0.975000
0.892500 0.250000 0.975000
1.000000 0.250000 0.975000
0.000000 0.375000 0.975000
0.127500 0.375000 0.975000
0.255000 0.375000 0.975000
0.382500 0.375000 0.975000
0.510000 0.375000 0.975000
0.637500 0.375000 0.975000
0.765000 0.375000 0.975000
0.892500 0.375000 0.975000
1.000000 0.375000 0.975000
0.000000 0.500000 0.975000
0.127500 0.500000 0.975000
0.255000 0.500000 0.975000
0.382500 0.500000 0.975000
0.510000 0.500000 0.975000
0.637500 0.500000 0.975000
0.765000 0.500000 0.975000
0.892500 0.500000 0.975000
1.000000 0.500000 0.975000
0.000000 0.625000 0.975000
0.127500 0.625000 0.975000
0.255000 0.625000 0.975000
0.382500 0.625000 0.975000
0.510000 0.625000 0.975000
0.637500 0.625000 0.975000
0.765000 0.625000 0.975000
0.892500 0.625000 0.975000
1.000000 0.625000 0.975000
0.000000 0.750000 0.975000
0.127500 0.750000 0.975000
0.255000 0.750000 0.975000
0.382500 0.750000 0.975000
0.510000 0.750000 0.975000
0.637500 0.750000 0.975000
0.765000 0.750000 0.975000
0.892500 0.750000 0.975000
1.000000 0.750000 0.975000
0.000000 0.875000 0.975000
0.127500 0.875000 0.975000
0.255000 0.875000 0.975000
0.382500 0.875000 0.975000
0.510000 0.875000 0.975000
0.637500 0.875000 0.975000
0.765000 0.875000 0.975000
0.892500 0.875000 0.975000
1.000000 0.875000 0.975000
0.000000 1.000000 0.975000
0.127500 1.000000 0.975000
0.255000 1.000000 0.975000
0.382500 1.000000 0.975000
0.510000 1.000000 0.975000
0.637500 1.000000 0.975000
0.765000 1.000000 0.975000
0.892500 1.000000 0.975000
1.000000 1.000000 0.975000
